;FLAVOR:Marlin
;TIME:3682
;Filament used: 1.82922m
;Layer height: 0.2
;MINX:77.702
;MINY:99.481
;MINZ:0.2
;MAXX:130.403
;MAXY:133.642
;MAXZ:36
;Generated with Cura_SteamEngine 4.6.1
M140 S60
M105
M190 S60
M104 S200
M105
M109 S200
M82 ;absolute extrusion mode
; Ender 3 Custom Start G-code
G92 E0 ; Reset Extruder
G28 ; Home all axes
G1 Z2.0 F3000 ; Move Z Axis up little to prevent scratching of Heat Bed
G1 X0.1 Y20 Z0.3 F5000.0 ; Move to start position
G1 X0.1 Y200.0 Z0.3 F1500.0 E15 ; Draw the first line
G1 X0.4 Y200.0 Z0.3 F5000.0 ; Move to side a little
G1 X0.4 Y20 Z0.3 F1500.0 E30 ; Draw the second line
G92 E0 ; Reset Extruder
G1 Z2.0 F3000 ; Move Z Axis up little to prevent scratching of Heat Bed
G1 X5 Y20 Z0.3 F5000.0 ; Move over to prevent blob squish
G92 E0
G92 E0
G1 F2700 E-5
;LAYER_COUNT:180
;LAYER:0
M107
G0 F6000 X109.435 Y100.314 Z0.2
;TYPE:SKIRT
G1 F2700 E0
G1 F1200 X109.901 Y100.346 E0.01554
G1 X110.374 Y100.392 E0.03134
G1 X111.018 Y100.47 E0.05292
G1 X111.613 Y100.56 E0.07293
G1 X112.394 Y100.706 E0.09936
G1 X112.818 Y100.795 E0.11377
G1 X113.44 Y100.945 E0.13505
G1 X114.171 Y101.147 E0.16027
G1 X114.823 Y101.344 E0.18293
G1 X115.417 Y101.547 E0.20381
G1 X116.099 Y101.807 E0.22808
G1 X116.478 Y101.961 E0.24169
G1 X116.886 Y102.138 E0.25648
G1 X117.196 Y102.28 E0.26782
G1 X117.518 Y102.434 E0.27969
G1 X118.418 Y102.897 E0.31336
G1 X118.829 Y103.13 E0.32907
G1 X119.595 Y103.592 E0.35882
G1 X119.819 Y103.734 E0.36764
G1 X120.255 Y104.026 E0.3851
G1 X120.701 Y104.342 E0.40328
G1 X121.174 Y104.699 E0.42299
G1 X121.708 Y105.126 E0.44573
G1 X121.95 Y105.326 E0.45617
G1 X122.3 Y105.624 E0.47146
G1 X122.751 Y106.031 E0.49166
G1 X123.149 Y106.413 E0.51001
G1 X123.46 Y106.725 E0.52466
G1 X123.805 Y107.086 E0.54127
G1 X124.179 Y107.496 E0.55973
G1 X124.596 Y107.982 E0.58103
G1 X125.007 Y108.498 E0.60297
G1 X125.567 Y109.251 E0.63418
G1 X125.837 Y109.633 E0.64974
G1 X126.086 Y110.002 E0.66455
G1 X126.436 Y110.559 E0.68643
G1 X126.657 Y110.937 E0.70099
G1 X127.078 Y111.736 E0.73103
G1 X127.313 Y112.273 E0.75052
G1 X127.396 Y112.479 E0.75791
G1 X127.696 Y113.331 E0.78795
G1 X127.92 Y114.206 E0.818
G1 X128.068 Y115.121 E0.84882
G1 X128.103 Y115.424 E0.85897
G1 X128.166 Y116.324 E0.88898
G1 X128.15 Y117.227 E0.91901
G1 X128.044 Y118.195 E0.9514
G1 X128.003 Y118.453 E0.96009
G1 X127.822 Y119.338 E0.99014
G1 X127.563 Y120.203 E1.02017
G1 X127.229 Y121.042 E1.0502
G1 X126.896 Y121.713 E1.07512
G1 X126.619 Y122.224 E1.09445
G1 X126.291 Y122.786 E1.11609
G1 X125.824 Y123.512 E1.1448
G1 X125.562 Y123.886 E1.15999
G1 X125.191 Y124.385 E1.18067
G1 X124.871 Y124.795 E1.19797
G1 X124.485 Y125.259 E1.21805
G1 X123.903 Y125.92 E1.24734
G1 X123.595 Y126.255 E1.26247
G1 X123.413 Y126.444 E1.2712
G1 X123.106 Y126.75 E1.28562
G1 X122.846 Y126.998 E1.29757
G1 X122.614 Y127.212 E1.30807
G1 X122.286 Y127.506 E1.32272
G1 X121.82 Y127.9 E1.34301
G1 X121.17 Y128.416 E1.37062
G1 X120.89 Y128.63 E1.38234
G1 X120.595 Y128.848 E1.39454
G1 X120.126 Y129.175 E1.41355
G1 X119.673 Y129.472 E1.43157
G1 X119.4 Y129.645 E1.44232
G1 X119.135 Y129.807 E1.45265
G1 X118.629 Y130.097 E1.47205
G1 X118.02 Y130.423 E1.49502
G1 X117.734 Y130.57 E1.50572
G1 X117.296 Y130.787 E1.52198
G1 X116.779 Y131.025 E1.54091
G1 X116.454 Y131.164 E1.55266
G1 X116.071 Y131.319 E1.56641
G1 X115.372 Y131.585 E1.59128
G1 X114.791 Y131.786 E1.61173
G1 X114.462 Y131.889 E1.6232
G1 X114.053 Y132.008 E1.63736
G1 X113.265 Y132.219 E1.6645
G1 X112.644 Y132.365 E1.68571
G1 X112.079 Y132.479 E1.70488
G1 X111.633 Y132.558 E1.71995
G1 X111.37 Y132.599 E1.7288
G1 X110.954 Y132.655 E1.74276
G1 X110.252 Y132.735 E1.76626
G1 X109.66 Y132.785 E1.78602
G1 X108.794 Y132.829 E1.81486
G1 X108.36 Y132.84 E1.8293
G1 X107.946 Y132.842 E1.84307
G1 X107.619 Y132.837 E1.85395
G1 X107.267 Y132.825 E1.86566
G1 X106.168 Y132.77 E1.90226
G1 X89.759 Y131.761 E2.44906
G1 X89.079 Y131.71 E2.47174
G1 X88.182 Y131.603 E2.50179
G1 X87.67 Y131.505 E2.51912
G1 X87.413 Y131.449 E2.52787
G1 X86.54 Y131.218 E2.55791
G1 X85.669 Y130.901 E2.58874
G1 X85.467 Y130.817 E2.59601
G1 X84.649 Y130.434 E2.62605
G1 X83.634 Y129.824 E2.66544
G1 X83.464 Y129.708 E2.67229
G1 X82.433 Y128.904 E2.71577
G1 X82.279 Y128.767 E2.72263
G1 X81.632 Y128.137 E2.75266
G1 X80.88 Y127.24 E2.79159
G1 X80.728 Y127.036 E2.80005
G1 X80.221 Y126.289 E2.83008
G1 X79.687 Y125.305 E2.86732
G1 X79.563 Y125.043 E2.87696
G1 X79.214 Y124.211 E2.90697
G1 X78.939 Y123.351 E2.937
G1 X78.695 Y122.185 E2.97662
G1 X78.634 Y121.776 E2.99037
G1 X78.524 Y120.472 E3.0339
G1 X78.502 Y119.254 E3.07442
G1 X78.505 Y113.314 E3.27198
G1 X78.514 Y112.703 E3.29231
G1 X78.567 Y111.801 E3.32236
G1 X78.63 Y111.31 E3.33882
G1 X78.686 Y110.944 E3.35114
G1 X78.862 Y110.059 E3.38115
G1 X79.194 Y108.973 E3.41892
G1 X79.263 Y108.785 E3.42558
G1 X79.611 Y107.951 E3.45564
G1 X80.032 Y107.152 E3.48568
G1 X80.313 Y106.699 E3.50341
G1 X80.493 Y106.425 E3.51431
G1 X81.022 Y105.693 E3.54435
G1 X81.613 Y105.01 E3.57439
G1 X82.053 Y104.573 E3.59502
G1 X82.313 Y104.33 E3.60685
G1 X83 Y103.743 E3.63691
G1 X83.735 Y103.219 E3.66693
G1 X84.431 Y102.807 E3.69383
G1 X84.631 Y102.699 E3.70139
G1 X85.444 Y102.305 E3.73144
G1 X86.66 Y101.871 E3.77438
G1 X86.98 Y101.779 E3.78546
G1 X87.858 Y101.568 E3.81549
G1 X89.011 Y101.412 E3.85419
G1 X90.234 Y101.319 E3.89498
G1 X106.943 Y100.318 E4.45172
G1 X107.525 Y100.291 E4.4711
G1 X108.156 Y100.281 E4.49209
G1 X108.867 Y100.292 E4.51574
G1 X109.435 Y100.314 E4.53465
G0 F6000 X109.454 Y99.915
G1 F1200 X109.931 Y99.947 E4.55055
G1 X110.423 Y99.995 E4.56699
G1 X111.067 Y100.073 E4.58857
G1 X111.685 Y100.166 E4.60935
G1 X112.477 Y100.314 E4.63615
G1 X112.901 Y100.403 E4.65056
G1 X113.546 Y100.56 E4.67264
G1 X114.573 Y100.848 E4.70811
G1 X114.94 Y100.961 E4.72089
G1 X115.558 Y101.173 E4.74262
G1 X116.249 Y101.437 E4.76722
G1 X116.628 Y101.591 E4.78083
G1 X117.052 Y101.774 E4.79619
G1 X117.362 Y101.916 E4.80753
G1 X117.697 Y102.076 E4.81988
G1 X118.608 Y102.544 E4.85394
G1 X119.035 Y102.787 E4.87028
G1 X119.809 Y103.254 E4.90035
G1 X120.033 Y103.396 E4.90917
G1 X120.486 Y103.7 E4.92731
G1 X120.932 Y104.016 E4.94549
G1 X121.424 Y104.386 E4.96597
G1 X121.958 Y104.813 E4.98871
G1 X122.21 Y105.021 E4.99958
G1 X122.56 Y105.319 E5.01487
G1 X123.028 Y105.743 E5.03587
G1 X123.426 Y106.125 E5.05422
G1 X123.749 Y106.448 E5.06941
G1 X124.094 Y106.809 E5.08602
G1 X124.477 Y107.229 E5.10492
G1 X124.901 Y107.723 E5.12658
G1 X125.328 Y108.259 E5.14937
G1 X125.888 Y109.012 E5.18058
G1 X126.169 Y109.409 E5.19676
G1 X126.418 Y109.778 E5.21156
G1 X126.782 Y110.357 E5.23431
G1 X127.003 Y110.735 E5.24887
G1 X127.433 Y111.549 E5.27949
G1 X127.684 Y112.124 E5.30036
G1 X127.767 Y112.33 E5.30775
G1 X128.074 Y113.198 E5.33837
G1 X128.304 Y114.089 E5.36898
G1 X128.465 Y115.075 E5.40221
G1 X128.5 Y115.378 E5.41235
G1 X128.566 Y116.296 E5.44296
G1 X128.552 Y117.217 E5.4736
G1 X128.439 Y118.258 E5.50843
G1 X128.398 Y118.516 E5.51711
G1 X128.214 Y119.418 E5.54773
G1 X127.952 Y120.3 E5.57833
G1 X127.615 Y121.157 E5.60896
G1 X127.248 Y121.904 E5.63665
G1 X126.971 Y122.415 E5.65598
G1 X126.63 Y122.999 E5.67847
G1 X126.157 Y123.734 E5.70754
G1 X125.885 Y124.122 E5.7233
G1 X125.506 Y124.631 E5.74441
G1 X125.186 Y125.041 E5.76171
G1 X124.786 Y125.524 E5.78257
G1 X124.204 Y126.185 E5.81186
G1 X123.883 Y126.533 E5.8276
G1 X123.701 Y126.722 E5.83633
G1 X123.382 Y127.039 E5.85129
G1 X122.881 Y127.51 E5.87416
G1 X122.553 Y127.804 E5.88881
G1 X122.069 Y128.213 E5.90989
G1 X121.419 Y128.729 E5.93749
G1 X121.128 Y128.952 E5.94968
G1 X120.833 Y129.17 E5.96188
G1 X120.345 Y129.51 E5.98167
G1 X119.892 Y129.807 E5.99968
G1 X119.344 Y130.148 E6.02115
G1 X118.818 Y130.449 E6.04131
G1 X118.209 Y130.775 E6.06428
G1 X117.912 Y130.928 E6.07539
G1 X117.474 Y131.145 E6.09165
G1 X116.936 Y131.393 E6.11135
G1 X116.611 Y131.532 E6.12311
G1 X116.213 Y131.693 E6.13739
G1 X115.514 Y131.959 E6.16227
G1 X114.911 Y132.168 E6.18349
G1 X114.582 Y132.271 E6.19496
G1 X114.157 Y132.394 E6.20967
G1 X113.369 Y132.605 E6.23681
G1 X112.724 Y132.757 E6.25885
G1 X112.159 Y132.871 E6.27802
G1 X111.695 Y132.953 E6.29369
G1 X111.432 Y132.994 E6.30254
G1 X110.999 Y133.053 E6.31708
G1 X110.297 Y133.133 E6.34058
G1 X109.682 Y133.185 E6.3611
G1 X108.805 Y133.229 E6.39031
G1 X108.371 Y133.24 E6.40475
G1 X107.94 Y133.242 E6.41909
G1 X107.613 Y133.237 E6.42996
G1 X107.247 Y133.225 E6.44214
G1 X106.143 Y133.169 E6.47891
G1 X89.729 Y132.16 E7.02587
G1 X89.049 Y132.109 E7.04855
G1 X88.135 Y132.001 E7.07916
G1 X87.585 Y131.896 E7.09779
G1 X87.328 Y131.84 E7.10653
G1 X86.438 Y131.605 E7.13715
G1 X85.515 Y131.27 E7.16981
G1 X85.313 Y131.186 E7.17709
G1 X84.479 Y130.796 E7.20771
G1 X83.408 Y130.155 E7.24922
G1 X83.238 Y130.039 E7.25607
G1 X82.168 Y129.203 E7.30123
G1 X82.014 Y129.066 E7.30809
G1 X81.353 Y128.424 E7.33873
G1 X80.559 Y127.479 E7.37979
G1 X80.407 Y127.275 E7.38825
G1 X79.89 Y126.514 E7.41885
G1 X79.326 Y125.477 E7.45811
G1 X79.202 Y125.215 E7.46775
G1 X78.845 Y124.366 E7.49838
G1 X78.562 Y123.49 E7.529
G1 X78.299 Y122.244 E7.57136
G1 X78.238 Y121.835 E7.58511
G1 X78.124 Y120.48 E7.63034
G1 X78.102 Y119.254 E7.67112
G1 X78.105 Y113.308 E7.86888
G1 X78.114 Y112.697 E7.88921
G1 X78.168 Y111.778 E7.91983
G1 X78.235 Y111.25 E7.93753
G1 X78.291 Y110.884 E7.94984
G1 X78.47 Y109.981 E7.98046
G1 X78.818 Y108.835 E8.0203
G1 X78.887 Y108.647 E8.02696
G1 X79.241 Y107.797 E8.05758
G1 X79.668 Y106.981 E8.08821
G1 X79.979 Y106.479 E8.10786
G1 X80.159 Y106.205 E8.11876
G1 X80.697 Y105.458 E8.14938
G1 X81.298 Y104.761 E8.17999
G1 X81.78 Y104.281 E8.20261
G1 X82.04 Y104.038 E8.21445
G1 X82.739 Y103.439 E8.24507
G1 X83.488 Y102.903 E8.2757
G1 X84.241 Y102.455 E8.30484
G1 X84.441 Y102.347 E8.3124
G1 X85.27 Y101.945 E8.34305
G1 X86.549 Y101.487 E8.38823
G1 X86.869 Y101.395 E8.39931
G1 X87.764 Y101.179 E8.42993
G1 X88.98 Y101.014 E8.47074
G1 X90.21 Y100.92 E8.51177
G1 X106.925 Y99.918 E9.06871
G1 X107.507 Y99.891 E9.08809
G1 X108.162 Y99.881 E9.10988
G1 X108.873 Y99.892 E9.13353
G1 X109.454 Y99.915 E9.15287
G0 F6000 X109.474 Y99.515
G1 F1200 X109.961 Y99.548 E9.1691
G1 X110.471 Y99.598 E9.18615
G1 X111.115 Y99.676 E9.20772
G1 X111.756 Y99.773 E9.22929
G1 X112.559 Y99.923 E9.25646
G1 X112.983 Y100.012 E9.27087
G1 X113.653 Y100.174 E9.29379
G1 X114.691 Y100.466 E9.32966
G1 X115.058 Y100.579 E9.34243
G1 X115.699 Y100.798 E9.36496
G1 X116.4 Y101.066 E9.38992
G1 X116.779 Y101.22 E9.40353
G1 X117.219 Y101.41 E9.41947
G1 X117.529 Y101.552 E9.43081
G1 X117.876 Y101.719 E9.44362
G1 X118.797 Y102.192 E9.47805
G1 X119.24 Y102.443 E9.49499
G1 X120.024 Y102.916 E9.52544
G1 X120.248 Y103.058 E9.53426
G1 X120.717 Y103.374 E9.55307
G1 X121.163 Y103.69 E9.57125
G1 X121.674 Y104.074 E9.59251
G1 X122.208 Y104.501 E9.61525
G1 X122.469 Y104.717 E9.62652
G1 X122.819 Y105.015 E9.64181
G1 X123.305 Y105.454 E9.66359
G1 X123.703 Y105.836 E9.68194
G1 X124.038 Y106.172 E9.69772
G1 X124.383 Y106.533 E9.71433
G1 X124.776 Y106.963 E9.73371
G1 X125.206 Y107.464 E9.75566
G1 X125.649 Y108.021 E9.77934
G1 X126.209 Y108.774 E9.81055
G1 X126.5 Y109.185 E9.8273
G1 X126.749 Y109.554 E9.8421
G1 X127.127 Y110.155 E9.86572
G1 X127.348 Y110.533 E9.88028
G1 X127.787 Y111.362 E9.91148
G1 X128.055 Y111.974 E9.9337
G1 X128.138 Y112.18 E9.94109
G1 X128.451 Y113.064 E9.97228
G1 X128.688 Y113.972 E10.00349
G1 X128.862 Y115.029 E10.03912
G1 X128.897 Y115.332 E10.04926
G1 X128.965 Y116.267 E10.08045
G1 X128.953 Y117.205 E10.11165
G1 X128.834 Y118.32 E10.14894
G1 X128.793 Y118.578 E10.15763
G1 X128.606 Y119.498 E10.18886
G1 X128.342 Y120.397 E10.22002
G1 X128.002 Y121.272 E10.25124
G1 X127.6 Y122.094 E10.28168
G1 X127.323 Y122.605 E10.30101
G1 X126.968 Y123.211 E10.32437
G1 X126.49 Y123.956 E10.35381
G1 X126.207 Y124.359 E10.37019
G1 X125.821 Y124.877 E10.39167
G1 X125.501 Y125.287 E10.40897
G1 X125.086 Y125.788 E10.43061
G1 X124.504 Y126.449 E10.4599
G1 X124.172 Y126.81 E10.47621
G1 X123.99 Y126.999 E10.48494
G1 X123.658 Y127.329 E10.50051
G1 X123.398 Y127.577 E10.51246
G1 X123.148 Y127.808 E10.52378
G1 X122.82 Y128.102 E10.53843
G1 X122.317 Y128.526 E10.56031
G1 X121.667 Y129.042 E10.58792
G1 X121.365 Y129.274 E10.60058
G1 X121.07 Y129.492 E10.61278
G1 X120.564 Y129.844 E10.63328
G1 X120.111 Y130.141 E10.6513
G1 X119.552 Y130.489 E10.6732
G1 X119.006 Y130.802 E10.69413
G1 X118.397 Y131.128 E10.71711
G1 X118.089 Y131.287 E10.72864
G1 X117.651 Y131.504 E10.74489
G1 X117.094 Y131.761 E10.7653
G1 X116.769 Y131.9 E10.77705
G1 X116.355 Y132.067 E10.7919
G1 X115.656 Y132.333 E10.81678
G1 X115.03 Y132.55 E10.83881
G1 X114.701 Y132.653 E10.85028
G1 X114.26 Y132.781 E10.86555
G1 X113.472 Y132.992 E10.89269
G1 X112.803 Y133.149 E10.91554
G1 X112.238 Y133.263 E10.93471
G1 X111.756 Y133.349 E10.951
G1 X111.493 Y133.39 E10.95985
G1 X111.044 Y133.45 E10.97492
G1 X110.342 Y133.53 E10.99842
G1 X109.704 Y133.584 E11.01971
G1 X109.143 Y133.615 E11.0384
G1 X108.815 Y133.628 E11.04932
G1 X108.381 Y133.639 E11.06376
G1 X107.934 Y133.642 E11.07862
G1 X107.607 Y133.637 E11.0895
G1 X107.227 Y133.624 E11.10215
G1 X106.119 Y133.568 E11.13905
G1 X89.699 Y132.559 E11.68621
G1 X89.019 Y132.508 E11.70889
G1 X88.088 Y132.398 E11.74007
G1 X87.5 Y132.287 E11.75997
G1 X87.243 Y132.231 E11.76872
G1 X86.336 Y131.992 E11.79992
G1 X85.361 Y131.64 E11.83439
G1 X85.159 Y131.556 E11.84167
G1 X84.31 Y131.159 E11.87284
G1 X83.183 Y130.485 E11.91652
G1 X83.013 Y130.369 E11.92336
G1 X82.262 Y129.808 E11.95454
G1 X81.748 Y129.365 E11.97711
G1 X81.074 Y128.712 E12.00832
G1 X80.238 Y127.718 E12.05152
G1 X80.086 Y127.514 E12.05998
G1 X79.558 Y126.739 E12.09117
G1 X78.964 Y125.648 E12.13249
G1 X78.84 Y125.386 E12.14213
G1 X78.476 Y124.522 E12.17331
G1 X78.186 Y123.63 E12.20451
G1 X77.903 Y122.303 E12.24964
G1 X77.842 Y121.894 E12.26339
G1 X77.744 Y120.961 E12.2946
G1 X77.724 Y120.488 E12.31034
G1 X77.702 Y119.254 E12.35139
G1 X77.705 Y113.302 E12.54936
G1 X77.714 Y112.691 E12.56968
G1 X77.768 Y111.755 E12.60086
G1 X77.84 Y111.189 E12.61984
G1 X77.896 Y110.823 E12.63216
G1 X78.077 Y109.903 E12.66334
G1 X78.443 Y108.697 E12.70526
G1 X78.512 Y108.509 E12.71192
G1 X78.872 Y107.643 E12.74311
G1 X79.305 Y106.811 E12.77431
G1 X79.644 Y106.259 E12.79585
G1 X79.824 Y105.985 E12.80676
G1 X80.372 Y105.224 E12.83795
G1 X80.983 Y104.512 E12.86915
G1 X81.507 Y103.989 E12.89378
G1 X81.767 Y103.746 E12.90561
G1 X82.479 Y103.135 E12.93682
G1 X83.24 Y102.587 E12.96801
G1 X84.051 Y102.103 E12.99942
G1 X84.251 Y101.995 E13.00698
G1 X85.095 Y101.585 E13.03819
G1 X85.97 Y101.248 E13.06938
G1 X86.439 Y101.102 E13.08572
G1 X86.759 Y101.01 E13.09679
G1 X87.67 Y100.79 E13.12796
G1 X88.95 Y100.615 E13.17093
G1 X90.186 Y100.521 E13.21216
G1 X106.906 Y99.519 E13.76927
G1 X107.488 Y99.492 E13.78864
G1 X108.168 Y99.481 E13.81126
G1 X108.879 Y99.492 E13.83491
G1 X109.474 Y99.515 E13.85472
G1 F2700 E8.85472
;MESH:3DBenchy.3mf
G0 F6000 X108.161 Y109.8
G0 X108.129 Y110.784
G0 X89.759 Y112.382
G0 X89.517 Y112.648
G0 X89.475 Y112.849
G0 X89.505 Y114.116
G0 X91.764 Y113.711
G0 X92.917 Y114.251
;TYPE:WALL-INNER
G1 F2700 E13.85472
G1 F1200 X92.906 Y114.239 E13.85526
G1 X92.881 Y114.213 E13.85646
G1 X92.871 Y114.202 E13.85695
G1 X92.839 Y114.168 E13.85851
G1 X92.682 Y114.035 E13.86535
G1 X92.498 Y113.908 E13.87279
G1 X92.23 Y113.773 E13.88277
G1 X91.924 Y113.676 E13.89344
G1 X91.678 Y113.634 E13.90174
G1 X91.353 Y113.612 E13.91258
G1 X91.018 Y113.626 E13.92373
G1 X90.641 Y113.694 E13.93647
G1 X90.422 Y113.763 E13.94411
G1 X90.215 Y113.851 E13.95159
G1 X90.019 Y113.958 E13.95902
G1 X89.832 Y114.084 E13.96652
G1 X89.695 Y114.2 E13.97249
G1 X89.66 Y114.229 E13.974
G1 X89.5 Y114.389 E13.98153
G1 X89.357 Y114.567 E13.98912
G1 X89.304 Y114.647 E13.99231
G1 X89.304 Y114.567
G1 X89.304 Y114.389 E13.99385
G1 X89.304 Y114.229 E13.99734
G1 X89.304 Y114.183 E13.9988
G1 X89.304 Y112.841 E14.04343
G1 X89.317 Y112.736 E14.04695
G1 X89.357 Y112.586 E14.05212
G1 X89.423 Y112.457 E14.05693
G1 X89.484 Y112.377 E14.06028
G1 X89.579 Y112.292 E14.06452
G1 X89.684 Y112.228 E14.06861
G1 X89.769 Y112.194 E14.07166
G1 X89.863 Y112.169 E14.07489
G1 X89.987 Y112.154 E14.07905
