;FLAVOR:Marlin
;TIME:759
;Filament used: 0.436676m
;Layer height: 0.2
;MINX:25
;MINY:41
;MINZ:0.2
;MAXX:210
;MAXY:194
;MAXZ:0.2
;Generated with Cura_SteamEngine 4.6.1
M140 S55
M105
M190 S55
M104 S210
M105
M109 S210
M82 ;absolute extrusion mode
; Ender 3 Custom Start G-code
G92 E0 ; Reset Extruder
G28 ; Home all axes
G1 Z2.0 F3000 ; Move Z Axis up little to prevent scratching of Heat Bed
G1 X0.1 Y20 Z0.3 F5000.0 ; Move to start position
G1 X0.1 Y200.0 Z0.3 F1500.0 E15 ; Draw the first line
G1 X0.4 Y200.0 Z0.3 F5000.0 ; Move to side a little
G1 X0.4 Y20 Z0.3 F1500.0 E30 ; Draw the second line
G92 E0 ; Reset Extruder
G1 Z2.0 F3000 ; Move Z Axis up little to prevent scratching of Heat Bed
G1 X5 Y20 Z0.3 F5000.0 ; Move over to prevent blob squish
G92 E0
G92 E0
G1 F2700 E-5
;LAYER_COUNT:1
;LAYER:0
M107
G0 F6000 X59.137 Y41.811 Z0.2
;TYPE:SKIRT
G1 F2700 E0
G1 F1200 X60.039 Y41.864 E0.03005
G1 X61.074 Y42.025 E0.06489
G1 X61.612 Y42.14 E0.08319
G1 X63.548 Y42.587 E0.14927
G1 X66.051 Y43.09 E0.23419
G1 X68.549 Y43.518 E0.31848
G1 X71.033 Y43.873 E0.40194
G1 X73.602 Y44.165 E0.48794
G1 X76.138 Y44.382 E0.57259
G1 X78.63 Y44.524 E0.65561
G1 X81.196 Y44.598 E0.74099
G1 X83.729 Y44.598 E0.82524
G1 X86.264 Y44.527 E0.90959
G1 X88.807 Y44.384 E0.9943
G1 X91.337 Y44.17 E1.07875
G1 X93.847 Y43.885 E1.16277
G1 X96.407 Y43.522 E1.24877
G1 X98.87 Y43.101 E1.33188
G1 X101.373 Y42.599 E1.41678
G1 X102.794 Y42.282 E1.46521
G1 X103.683 Y42.076 E1.49556
G1 X104.571 Y41.911 E1.5256
G1 X105.601 Y41.82 E1.55999
G1 X105.946 Y41.807 E1.57147
G1 X106.33 Y41.8 E1.58425
G1 X128.439 Y41.801 E2.3196
G1 X129.137 Y41.811 E2.34281
G1 X130.039 Y41.864 E2.37287
G1 X131.074 Y42.025 E2.40771
G1 X131.612 Y42.14 E2.426
G1 X133.548 Y42.587 E2.49209
G1 X136.051 Y43.09 E2.577
G1 X138.549 Y43.518 E2.6613
G1 X141.033 Y43.873 E2.74476
G1 X143.602 Y44.165 E2.83075
G1 X146.138 Y44.382 E2.91541
G1 X148.63 Y44.524 E2.99843
G1 X151.196 Y44.598 E3.08381
G1 X153.729 Y44.598 E3.16805
G1 X156.264 Y44.527 E3.2524
G1 X158.807 Y44.384 E3.33712
G1 X161.337 Y44.17 E3.42156
G1 X163.847 Y43.885 E3.50558
G1 X166.407 Y43.522 E3.59158
G1 X168.87 Y43.101 E3.67469
G1 X171.373 Y42.599 E3.7596
G1 X172.794 Y42.282 E3.80802
G1 X173.683 Y42.076 E3.83837
G1 X174.571 Y41.911 E3.86841
G1 X175.601 Y41.82 E3.90281
G1 X175.946 Y41.807 E3.91429
G1 X176.33 Y41.8 E3.92706
G1 X198.425 Y41.801 E4.66195
G1 X199.123 Y41.81 E4.68516
G1 X200.024 Y41.861 E4.71518
G1 X200.918 Y41.993 E4.74524
G1 X201.796 Y42.202 E4.77525
G1 X202.653 Y42.489 E4.80531
G1 X203.48 Y42.85 E4.83533
G1 X204.273 Y43.283 E4.86538
G1 X205.024 Y43.784 E4.8954
G1 X205.728 Y44.35 E4.92545
G1 X206.379 Y44.976 E4.95549
G1 X206.972 Y45.657 E4.98552
G1 X207.502 Y46.388 E5.01555
G1 X207.966 Y47.163 E5.04559
G1 X208.36 Y47.976 E5.07564
G1 X208.68 Y48.82 E5.10566
G1 X208.924 Y49.69 E5.13572
G1 X209.09 Y50.578 E5.16576
G1 X209.187 Y51.723 E5.20398
G1 X209.2 Y52.33 E5.22418
G1 X209.199 Y74.416 E5.95876
G1 X209.189 Y75.132 E5.98258
G1 X209.089 Y76.424 E6.02568
G1 X208.718 Y79.038 E6.11349
G1 X208.427 Y81.595 E6.19909
G1 X208.212 Y84.113 E6.28314
G1 X208.069 Y86.619 E6.36663
G1 X207.996 Y89.183 E6.45194
G1 X207.996 Y91.718 E6.53625
G1 X208.067 Y94.25 E6.6205
G1 X208.209 Y96.78 E6.70478
G1 X208.426 Y99.338 E6.79017
G1 X208.715 Y101.881 E6.87529
G1 X208.893 Y103.198 E6.91949
G1 X209.087 Y104.55 E6.96492
G1 X209.185 Y105.691 E7.00301
G1 X209.2 Y106.33 E7.02427
G1 X209.199 Y128.416 E7.75885
G1 X209.189 Y129.132 E7.78267
G1 X209.089 Y130.424 E7.82577
G1 X208.718 Y133.038 E7.91358
G1 X208.427 Y135.595 E7.99918
G1 X208.212 Y138.113 E8.08323
G1 X208.069 Y140.619 E8.16672
G1 X207.996 Y143.183 E8.25203
G1 X207.996 Y145.718 E8.33635
G1 X208.067 Y148.25 E8.42059
G1 X208.209 Y150.78 E8.50487
G1 X208.426 Y153.338 E8.59026
G1 X208.715 Y155.881 E8.67538
G1 X208.893 Y157.198 E8.71959
G1 X209.087 Y158.55 E8.76501
G1 X209.185 Y159.691 E8.8031
G1 X209.2 Y160.33 E8.82436
G1 X209.199 Y182.39 E9.55808
G1 X209.19 Y183.117 E9.58226
G1 X209.139 Y184.019 E9.61231
G1 X209.008 Y184.913 E9.64236
G1 X208.799 Y185.791 E9.67238
G1 X208.513 Y186.648 E9.70243
G1 X208.152 Y187.476 E9.73248
G1 X207.72 Y188.268 E9.76248
G1 X207.219 Y189.02 E9.79254
G1 X206.653 Y189.724 E9.82258
G1 X206.028 Y190.375 E9.8526
G1 X205.347 Y190.969 E9.88265
G1 X204.616 Y191.5 E9.9127
G1 X203.842 Y191.964 E9.94272
G1 X203.029 Y192.358 E9.97277
G1 X202.185 Y192.678 E10.00279
G1 X201.315 Y192.923 E10.03285
G1 X200.428 Y193.089 E10.06286
G1 X199.277 Y193.187 E10.10128
G1 X198.67 Y193.2 E10.12148
G1 X176.561 Y193.199 E10.85683
G1 X175.862 Y193.189 E10.88008
G1 X174.961 Y193.136 E10.9101
G1 X173.919 Y192.974 E10.94517
G1 X173.388 Y192.86 E10.96323
G1 X171.452 Y192.413 E11.02932
G1 X168.955 Y191.911 E11.11403
G1 X166.441 Y191.48 E11.19887
G1 X163.973 Y191.128 E11.28178
G1 X161.398 Y190.835 E11.36798
G1 X158.862 Y190.618 E11.45264
G1 X156.37 Y190.476 E11.53566
G1 X153.804 Y190.402 E11.62104
G1 X151.271 Y190.402 E11.70528
G1 X148.736 Y190.473 E11.78963
G1 X146.193 Y190.616 E11.87435
G1 X143.663 Y190.83 E11.95879
G1 X141.153 Y191.115 E12.04281
G1 X138.593 Y191.478 E12.12881
G1 X136.13 Y191.899 E12.21192
G1 X133.627 Y192.401 E12.29683
G1 X132.206 Y192.718 E12.34525
G1 X131.317 Y192.924 E12.3756
G1 X130.429 Y193.089 E12.40564
G1 X129.399 Y193.18 E12.44004
G1 X129.054 Y193.193 E12.45152
G1 X128.67 Y193.2 E12.46429
G1 X106.561 Y193.199 E13.19964
G1 X105.862 Y193.189 E13.22289
G1 X104.961 Y193.136 E13.25291
G1 X103.919 Y192.974 E13.28798
G1 X103.388 Y192.86 E13.30605
G1 X101.452 Y192.413 E13.37213
G1 X98.955 Y191.911 E13.45685
G1 X96.441 Y191.48 E13.54168
G1 X93.973 Y191.128 E13.6246
G1 X91.398 Y190.835 E13.7108
G1 X88.862 Y190.618 E13.79545
G1 X86.37 Y190.476 E13.87847
G1 X83.804 Y190.402 E13.96385
G1 X81.271 Y190.402 E14.0481
G1 X78.736 Y190.473 E14.13245
G1 X76.193 Y190.616 E14.21716
G1 X73.663 Y190.83 E14.30161
G1 X71.153 Y191.115 E14.38563
G1 X68.593 Y191.478 E14.47163
G1 X66.13 Y191.899 E14.55473
G1 X63.627 Y192.401 E14.63964
G1 X62.206 Y192.718 E14.68807
G1 X61.317 Y192.924 E14.71842
G1 X60.429 Y193.089 E14.74846
G1 X59.399 Y193.18 E14.78285
G1 X59.054 Y193.193 E14.79433
G1 X58.67 Y193.2 E14.80711
G1 X36.575 Y193.199 E15.54199
G1 X35.877 Y193.19 E15.56521
G1 X34.976 Y193.139 E15.59522
G1 X34.082 Y193.007 E15.62528
G1 X33.204 Y192.798 E15.6553
G1 X32.347 Y192.511 E15.68536
G1 X31.52 Y192.15 E15.71537
G1 X30.727 Y191.717 E15.74542
G1 X29.976 Y191.216 E15.77545
G1 X29.272 Y190.65 E15.80549
G1 X28.621 Y190.024 E15.83553
G1 X28.028 Y189.343 E15.86557
G1 X27.498 Y188.612 E15.8956
G1 X27.034 Y187.837 E15.92564
G1 X26.64 Y187.024 E15.95569
G1 X26.32 Y186.18 E15.98571
G1 X26.076 Y185.31 E16.01576
G1 X25.91 Y184.422 E16.04581
G1 X25.813 Y183.267 E16.08436
G1 X25.8 Y182.658 E16.10462
G1 X25.801 Y160.561 E16.83957
G1 X25.811 Y159.864 E16.86275
G1 X25.911 Y158.576 E16.90572
G1 X26.282 Y155.962 E16.99354
G1 X26.573 Y153.405 E17.07913
G1 X26.788 Y150.887 E17.16318
G1 X26.931 Y148.381 E17.24667
G1 X27.004 Y145.817 E17.33198
G1 X27.004 Y143.282 E17.4163
G1 X26.933 Y140.748 E17.50061
G1 X26.791 Y138.221 E17.58479
G1 X26.574 Y135.662 E17.67021
G1 X26.285 Y133.112 E17.75557
G1 X26.096 Y131.718 E17.80236
G1 X25.913 Y130.439 E17.84533
G1 X25.815 Y129.309 E17.88305
G1 X25.8 Y128.67 E17.90431
G1 X25.801 Y106.561 E18.63966
G1 X25.811 Y105.864 E18.66285
G1 X25.911 Y104.576 E18.70581
G1 X26.282 Y101.962 E18.79363
G1 X26.573 Y99.405 E18.87922
G1 X26.788 Y96.887 E18.96328
G1 X26.931 Y94.381 E19.04676
G1 X27.004 Y91.817 E19.13208
G1 X27.004 Y89.282 E19.21639
G1 X26.933 Y86.748 E19.3007
G1 X26.791 Y84.221 E19.38489
G1 X26.574 Y81.662 E19.4703
G1 X26.285 Y79.112 E19.55566
G1 X26.096 Y77.718 E19.60245
G1 X25.913 Y76.439 E19.64542
G1 X25.815 Y75.309 E19.68315
G1 X25.8 Y74.67 E19.70441
G1 X25.801 Y52.536 E20.44059
G1 X25.81 Y51.871 E20.46271
G1 X25.862 Y50.969 E20.49276
G1 X25.994 Y50.076 E20.52278
G1 X26.204 Y49.198 E20.55281
G1 X26.491 Y48.341 E20.58287
G1 X26.853 Y47.514 E20.61289
G1 X27.286 Y46.722 E20.64291
G1 X27.788 Y45.971 E20.67296
G1 X28.355 Y45.267 E20.70302
G1 X28.981 Y44.617 E20.73304
G1 X29.662 Y44.024 E20.76307
G1 X30.394 Y43.494 E20.79313
G1 X31.169 Y43.031 E20.82316
G1 X31.982 Y42.638 E20.85319
G1 X32.827 Y42.318 E20.88324
G1 X33.696 Y42.075 E20.91325
G1 X34.584 Y41.909 E20.9433
G1 X35.723 Y41.813 E20.98132
G1 X36.33 Y41.8 E21.00151
G1 X58.439 Y41.801 E21.73686
G1 X59.137 Y41.811 E21.76008
G0 F6000 X59.143 Y41.411
G1 F1200 X60.062 Y41.464 E21.7907
G1 X61.155 Y41.633 E21.82748
G1 X61.702 Y41.75 E21.84609
G1 X63.651 Y42.2 E21.91262
G1 X66.085 Y42.689 E21.99519
G1 X68.637 Y43.126 E22.0813
G1 X71.102 Y43.479 E22.16413
G1 X73.642 Y43.768 E22.24915
G1 X76.127 Y43.98 E22.3321
G1 X78.665 Y44.125 E22.41666
G1 X81.208 Y44.198 E22.50127
G1 X83.718 Y44.198 E22.58475
G1 X86.267 Y44.127 E22.66957
G1 X88.787 Y43.985 E22.75352
G1 X91.292 Y43.773 E22.83713
G1 X93.783 Y43.491 E22.92051
G1 X96.314 Y43.131 E23.00554
G1 X98.835 Y42.7 E23.0906
G1 X101.295 Y42.207 E23.17405
G1 X102.626 Y41.91 E23.21941
G1 X103.593 Y41.686 E23.25242
G1 X104.498 Y41.518 E23.28304
G1 X105.586 Y41.421 E23.31937
G1 X105.931 Y41.408 E23.33085
G1 X106.33 Y41.4 E23.34412
G1 X128.445 Y41.401 E24.07967
G1 X129.143 Y41.411 E24.10289
G1 X130.062 Y41.464 E24.13351
G1 X131.155 Y41.633 E24.17029
G1 X131.702 Y41.75 E24.1889
G1 X133.651 Y42.2 E24.25543
G1 X136.085 Y42.689 E24.338
G1 X138.637 Y43.126 E24.42411
G1 X141.102 Y43.479 E24.50694
G1 X143.642 Y43.768 E24.59196
G1 X146.127 Y43.98 E24.67492
G1 X148.665 Y44.125 E24.75947
G1 X151.208 Y44.198 E24.84408
G1 X153.718 Y44.198 E24.92757
G1 X156.267 Y44.127 E25.01238
G1 X158.787 Y43.985 E25.09633
G1 X161.292 Y43.773 E25.17994
G1 X163.783 Y43.491 E25.26332
G1 X166.314 Y43.131 E25.34835
G1 X168.835 Y42.7 E25.43342
G1 X171.295 Y42.207 E25.51686
G1 X172.626 Y41.91 E25.56222
G1 X173.593 Y41.686 E25.59523
G1 X174.498 Y41.518 E25.62585
G1 X175.586 Y41.421 E25.66218
G1 X175.931 Y41.408 E25.67366
G1 X176.33 Y41.4 E25.68694
G1 X198.43 Y41.401 E26.42198
G1 X199.128 Y41.41 E26.4452
G1 X200.047 Y41.462 E26.47582
G1 X200.958 Y41.593 E26.50643
G1 X201.854 Y41.803 E26.53704
G1 X202.729 Y42.09 E26.56767
G1 X203.576 Y42.452 E26.5983
G1 X204.388 Y42.886 E26.62893
G1 X205.159 Y43.388 E26.65953
G1 X205.884 Y43.956 E26.69016
G1 X206.557 Y44.585 E26.7208
G1 X207.172 Y45.269 E26.75139
G1 X207.726 Y46.004 E26.782
G1 X208.214 Y46.785 E26.81263
G1 X208.633 Y47.605 E26.84326
G1 X208.979 Y48.458 E26.87388
G1 X209.249 Y49.338 E26.90449
G1 X209.442 Y50.239 E26.93514
G1 X209.556 Y51.152 E26.96574
G1 X209.587 Y51.712 E26.9844
G1 X209.6 Y52.33 E27.00496
G1 X209.599 Y74.422 E27.73974
G1 X209.589 Y75.138 E27.76355
G1 X209.485 Y76.48 E27.80832
G1 X209.113 Y79.103 E27.89644
G1 X208.828 Y81.603 E27.98013
G1 X208.612 Y84.136 E28.06468
G1 X208.469 Y86.651 E28.14846
G1 X208.396 Y89.195 E28.23311
G1 X208.396 Y91.707 E28.31666
G1 X208.467 Y94.253 E28.40138
G1 X208.608 Y96.76 E28.48489
G1 X208.823 Y99.292 E28.56941
G1 X209.111 Y101.826 E28.65423
G1 X209.289 Y103.141 E28.69837
G1 X209.483 Y104.493 E28.7438
G1 X209.585 Y105.679 E28.78339
G1 X209.6 Y106.33 E28.80505
G1 X209.599 Y128.422 E29.53983
G1 X209.589 Y129.138 E29.56365
G1 X209.485 Y130.48 E29.60842
G1 X209.113 Y133.103 E29.69653
G1 X208.828 Y135.603 E29.78022
G1 X208.612 Y138.136 E29.86477
G1 X208.469 Y140.651 E29.94856
G1 X208.396 Y143.195 E30.03321
G1 X208.396 Y145.707 E30.11675
G1 X208.467 Y148.253 E30.20147
G1 X208.608 Y150.76 E30.28498
G1 X208.823 Y153.292 E30.3695
G1 X209.111 Y155.826 E30.45432
G1 X209.289 Y157.141 E30.49846
G1 X209.483 Y158.493 E30.54389
G1 X209.585 Y159.679 E30.58348
G1 X209.6 Y160.33 E30.60514
G1 X209.599 Y182.395 E31.33902
G1 X209.59 Y183.122 E31.36321
G1 X209.539 Y184.041 E31.39382
G1 X209.408 Y184.953 E31.42446
G1 X209.198 Y185.849 E31.45507
G1 X208.912 Y186.724 E31.48569
G1 X208.551 Y187.571 E31.51631
G1 X208.117 Y188.383 E31.54694
G1 X207.615 Y189.155 E31.57756
G1 X207.047 Y189.88 E31.6082
G1 X206.419 Y190.553 E31.63881
G1 X205.735 Y191.169 E31.66943
G1 X205 Y191.723 E31.70004
G1 X204.22 Y192.212 E31.73066
G1 X203.4 Y192.631 E31.76129
G1 X202.547 Y192.977 E31.7919
G1 X201.667 Y193.248 E31.82253
G1 X200.767 Y193.441 E31.85314
G1 X199.853 Y193.556 E31.88378
G1 X199.288 Y193.587 E31.9026
G1 X198.67 Y193.6 E31.92316
G1 X176.555 Y193.599 E32.65871
G1 X175.856 Y193.589 E32.68196
G1 X174.937 Y193.536 E32.71258
G1 X173.837 Y193.365 E32.7496
G1 X173.298 Y193.25 E32.76794
G1 X171.349 Y192.8 E32.83446
G1 X168.915 Y192.311 E32.91704
G1 X166.359 Y191.873 E33.00329
G1 X163.903 Y191.522 E33.08581
G1 X161.358 Y191.232 E33.171
G1 X158.873 Y191.02 E33.25395
G1 X156.335 Y190.875 E33.3385
G1 X153.792 Y190.802 E33.42312
G1 X151.282 Y190.802 E33.5066
G1 X148.733 Y190.873 E33.59142
G1 X146.213 Y191.015 E33.67536
G1 X143.708 Y191.227 E33.75898
G1 X141.217 Y191.509 E33.84236
G1 X138.686 Y191.869 E33.92739
G1 X136.165 Y192.3 E34.01245
G1 X133.705 Y192.793 E34.0959
G1 X132.374 Y193.09 E34.14126
G1 X131.407 Y193.314 E34.17427
G1 X130.502 Y193.482 E34.20489
G1 X129.414 Y193.579 E34.24122
G1 X129.069 Y193.592 E34.2527
G1 X128.67 Y193.6 E34.26597
G1 X106.555 Y193.599 E35.00152
G1 X105.856 Y193.589 E35.02477
G1 X104.937 Y193.536 E35.05539
G1 X103.837 Y193.365 E35.09242
G1 X103.298 Y193.25 E35.11075
G1 X101.349 Y192.8 E35.17728
G1 X98.915 Y192.311 E35.25985
G1 X96.359 Y191.873 E35.3461
G1 X93.903 Y191.522 E35.42862
G1 X91.358 Y191.232 E35.51381
G1 X88.873 Y191.02 E35.59676
G1 X86.335 Y190.875 E35.68132
G1 X83.792 Y190.802 E35.76593
G1 X81.282 Y190.802 E35.84941
G1 X78.733 Y190.873 E35.93423
G1 X76.213 Y191.015 E36.01818
G1 X73.708 Y191.227 E36.10179
G1 X71.217 Y191.509 E36.18517
G1 X68.686 Y191.869 E36.2702
G1 X66.165 Y192.3 E36.35526
G1 X63.705 Y192.793 E36.43871
G1 X62.374 Y193.09 E36.48407
G1 X61.407 Y193.314 E36.51708
G1 X60.502 Y193.482 E36.5477
G1 X59.414 Y193.579 E36.58403
G1 X59.069 Y193.592 E36.59551
G1 X58.67 Y193.6 E36.60878
G1 X36.57 Y193.599 E37.34383
G1 X35.872 Y193.59 E37.36705
G1 X34.953 Y193.538 E37.39767
G1 X34.042 Y193.407 E37.42828
G1 X33.146 Y193.197 E37.45889
G1 X32.271 Y192.91 E37.48951
G1 X31.424 Y192.548 E37.52015
G1 X30.612 Y192.114 E37.55077
G1 X29.841 Y191.612 E37.58137
G1 X29.116 Y191.044 E37.61201
G1 X28.443 Y190.415 E37.64265
G1 X27.828 Y189.731 E37.67324
G1 X27.274 Y188.996 E37.70385
G1 X26.786 Y188.215 E37.73448
G1 X26.367 Y187.395 E37.76511
G1 X26.021 Y186.542 E37.79573
G1 X25.751 Y185.662 E37.82634
G1 X25.558 Y184.761 E37.85699
G1 X25.444 Y183.848 E37.88759
G1 X25.413 Y183.277 E37.90661
G1 X25.4 Y182.658 E37.9272
G1 X25.401 Y160.555 E38.66235
G1 X25.411 Y159.858 E38.68554
G1 X25.515 Y158.52 E38.73017
G1 X25.887 Y155.897 E38.81829
G1 X26.172 Y153.397 E38.90198
G1 X26.388 Y150.864 E38.98653
G1 X26.531 Y148.349 E39.07031
G1 X26.604 Y145.805 E39.15496
G1 X26.604 Y143.293 E39.23851
G1 X26.533 Y140.747 E39.32322
G1 X26.392 Y138.242 E39.40667
G1 X26.177 Y135.705 E39.49136
G1 X25.889 Y133.167 E39.57631
G1 X25.7 Y131.772 E39.62313
G1 X25.517 Y130.495 E39.66604
G1 X25.415 Y129.321 E39.70524
G1 X25.405 Y128.996 E39.71605
G1 X25.4 Y128.67 E39.72689
G1 X25.401 Y106.555 E40.46244
G1 X25.411 Y105.858 E40.48563
G1 X25.515 Y104.52 E40.53026
G1 X25.887 Y101.897 E40.61838
G1 X26.172 Y99.397 E40.70207
G1 X26.388 Y96.864 E40.78662
G1 X26.531 Y94.349 E40.8704
G1 X26.604 Y91.805 E40.95505
G1 X26.604 Y89.293 E41.0386
G1 X26.533 Y86.747 E41.12332
G1 X26.392 Y84.242 E41.20676
G1 X26.177 Y81.705 E41.29145
G1 X25.889 Y79.167 E41.3764
G1 X25.7 Y77.772 E41.42323
G1 X25.517 Y76.495 E41.46613
G1 X25.415 Y75.321 E41.50533
G1 X25.405 Y74.996 E41.51614
G1 X25.4 Y74.67 E41.52699
G1 X25.401 Y52.531 E42.26333
G1 X25.41 Y51.866 E42.28545
G1 X25.462 Y50.946 E42.3161
G1 X25.594 Y50.035 E42.34672
G1 X25.805 Y49.139 E42.37733
G1 X26.092 Y48.264 E42.40796
G1 X26.455 Y47.418 E42.43858
G1 X26.889 Y46.606 E42.4692
G1 X27.392 Y45.835 E42.49982
G1 X27.961 Y45.111 E42.53045
G1 X28.589 Y44.439 E42.56104
G1 X29.274 Y43.823 E42.59168
G1 X30.01 Y43.27 E42.6223
G1 X30.791 Y42.782 E42.65293
G1 X31.611 Y42.364 E42.68354
G1 X32.465 Y42.019 E42.71418
G1 X33.345 Y41.749 E42.74479
G1 X34.245 Y41.557 E42.7754
