;FLAVOR:Marlin
;TIME:3667
;Filament used: 1.82888m
;Layer height: 0.2
;MINX:90.549
;MINY:100.889
;MINZ:0.2
;MAXX:143.251
;MAXY:135.046
;MAXZ:36
;Generated with Cura_SteamEngine 4.6.1
M140 S50
M105
M190 S50
M104 S200
M105
M109 S200
M82 ;absolute extrusion mode
; Ender 3 Custom Start G-code
G92 E0 ; Reset Extruder
G28 ; Home all axes
G1 Z2.0 F3000 ; Move Z Axis up little to prevent scratching of Heat Bed
G1 X0.1 Y20 Z0.3 F5000.0 ; Move to start position
G1 X0.1 Y200.0 Z0.3 F1500.0 E15 ; Draw the first line
G1 X0.4 Y200.0 Z0.3 F5000.0 ; Move to side a little
G1 X0.4 Y20 Z0.3 F1500.0 E30 ; Draw the second line
G92 E0 ; Reset Extruder
G1 Z2.0 F3000 ; Move Z Axis up little to prevent scratching of Heat Bed
G1 X5 Y20 Z0.3 F5000.0 ; Move over to prevent blob squish
G92 E0
G92 E0
G1 F2700 E-5
;LAYER_COUNT:180
;LAYER:0
M107
G0 F6000 X122.282 Y101.722 Z0.2
;TYPE:SKIRT
G1 F2700 E0
G1 F1200 X122.748 Y101.754 E0.01554
G1 X123.221 Y101.8 E0.03134
G1 X123.865 Y101.878 E0.05292
G1 X124.46 Y101.968 E0.07293
G1 X125.237 Y102.113 E0.09922
G1 X125.595 Y102.188 E0.11139
G1 X126.235 Y102.343 E0.13329
G1 X127.167 Y102.602 E0.16546
G1 X127.722 Y102.771 E0.18476
G1 X128.311 Y102.978 E0.20552
G1 X129.327 Y103.374 E0.24179
G1 X129.661 Y103.515 E0.25385
G1 X130.178 Y103.751 E0.27275
G1 X130.751 Y104.035 E0.29402
G1 X131.149 Y104.243 E0.30896
G1 X131.754 Y104.586 E0.33209
G1 X132.193 Y104.855 E0.34922
G1 X132.47 Y105.031 E0.36013
G1 X133.236 Y105.535 E0.39063
G1 X133.863 Y105.982 E0.41624
G1 X134.192 Y106.236 E0.43006
G1 X134.457 Y106.448 E0.44135
G1 X134.895 Y106.81 E0.46025
G1 X135.347 Y107.203 E0.48017
G1 X135.801 Y107.634 E0.50099
G1 X136.466 Y108.304 E0.53239
G1 X136.965 Y108.843 E0.55682
G1 X137.47 Y109.431 E0.5826
G1 X137.916 Y109.989 E0.60636
G1 X138.401 Y110.641 E0.63339
G1 X138.752 Y111.138 E0.65362
G1 X139.01 Y111.526 E0.66912
G1 X139.282 Y111.965 E0.6863
G1 X139.501 Y112.339 E0.70071
G1 X139.922 Y113.138 E0.73075
G1 X140.16 Y113.681 E0.75047
G1 X140.243 Y113.887 E0.75786
G1 X140.543 Y114.739 E0.7879
G1 X140.767 Y115.614 E0.81794
G1 X140.916 Y116.537 E0.84904
G1 X140.952 Y116.851 E0.85955
G1 X141.015 Y117.752 E0.88959
G1 X140.998 Y118.655 E0.91963
G1 X140.874 Y119.723 E0.95539
G1 X140.832 Y119.97 E0.96372
G1 X140.641 Y120.853 E0.99377
G1 X140.373 Y121.715 E1.02379
G1 X140.03 Y122.55 E1.05382
G1 X139.82 Y122.977 E1.06965
G1 X139.591 Y123.416 E1.08611
G1 X139.209 Y124.085 E1.11174
G1 X139.043 Y124.352 E1.12219
G1 X138.728 Y124.828 E1.14118
G1 X138.131 Y125.671 E1.17554
G1 X138.005 Y125.84 E1.18255
G1 X137.734 Y126.188 E1.19722
G1 X137.531 Y126.437 E1.2079
G1 X137.245 Y126.773 E1.22258
G1 X136.404 Y127.704 E1.26431
G1 X136.067 Y128.046 E1.28028
G1 X135.776 Y128.328 E1.29375
G1 X135.49 Y128.595 E1.30677
G1 X135.159 Y128.892 E1.32156
G1 X134.694 Y129.284 E1.34179
G1 X134.016 Y129.823 E1.37059
G1 X133.743 Y130.033 E1.38205
G1 X133.457 Y130.245 E1.39389
G1 X132.976 Y130.581 E1.41341
G1 X132.52 Y130.88 E1.43154
G1 X132.036 Y131.181 E1.4505
G1 X131.503 Y131.486 E1.47092
G1 X130.724 Y131.9 E1.50027
G1 X130.419 Y132.056 E1.51166
G1 X130.096 Y132.214 E1.52362
G1 X129.537 Y132.466 E1.54401
G1 X128.889 Y132.736 E1.56736
G1 X128.284 Y132.966 E1.58889
G1 X127.537 Y133.223 E1.61516
G1 X127.027 Y133.384 E1.63295
G1 X126.786 Y133.453 E1.64129
G1 X126.404 Y133.554 E1.65443
G1 X125.912 Y133.673 E1.67127
G1 X125.245 Y133.822 E1.694
G1 X124.637 Y133.938 E1.71459
G1 X124.344 Y133.985 E1.72446
G1 X123.959 Y134.039 E1.73739
G1 X123.26 Y134.124 E1.76081
G1 X122.603 Y134.183 E1.78275
G1 X121.858 Y134.225 E1.80756
G1 X121.53 Y134.238 E1.81848
G1 X121.199 Y134.246 E1.82949
G1 X120.705 Y134.246 E1.84592
G1 X119.887 Y134.222 E1.87314
G1 X118.894 Y134.17 E1.90622
G1 X102.627 Y133.171 E2.44828
G1 X101.915 Y133.117 E2.47203
G1 X101.018 Y133.009 E2.50208
G1 X100.546 Y132.919 E2.51806
G1 X100.299 Y132.866 E2.52646
G1 X99.425 Y132.638 E2.5565
G1 X98.575 Y132.333 E2.58654
G1 X97.957 Y132.055 E2.60908
G1 X97.632 Y131.896 E2.62111
G1 X96.839 Y131.464 E2.65115
G1 X96.087 Y130.963 E2.6812
G1 X95.383 Y130.398 E2.71122
G1 X94.926 Y129.97 E2.73205
G1 X94.625 Y129.671 E2.74616
G1 X94.013 Y129.007 E2.77619
G1 X93.462 Y128.292 E2.80622
G1 X93.037 Y127.633 E2.8323
G1 X92.899 Y127.4 E2.84131
G1 X92.473 Y126.603 E2.87136
G1 X92.12 Y125.772 E2.90139
G1 X91.924 Y125.195 E2.92166
G1 X91.831 Y124.892 E2.9322
G1 X91.604 Y124.018 E2.96224
G1 X91.456 Y123.127 E2.99228
G1 X91.385 Y122.163 E3.02443
G1 X91.349 Y120.622 E3.07569
G1 X91.352 Y114.714 E3.2722
G1 X91.361 Y114.109 E3.29232
G1 X91.464 Y112.808 E3.33573
G1 X91.501 Y112.551 E3.34436
G1 X91.738 Y111.388 E3.38384
G1 X91.803 Y111.143 E3.39227
G1 X92.073 Y110.282 E3.42228
G1 X92.418 Y109.447 E3.45233
G1 X92.669 Y108.945 E3.471
G1 X92.798 Y108.704 E3.48009
G1 X93.259 Y107.928 E3.51011
G1 X93.787 Y107.195 E3.54016
G1 X94.224 Y106.678 E3.56267
G1 X94.412 Y106.47 E3.572
G1 X95.047 Y105.828 E3.60203
G1 X95.803 Y105.192 E3.63489
G1 X96.012 Y105.033 E3.64363
G1 X96.754 Y104.519 E3.67365
G1 X97.929 Y103.883 E3.71809
G1 X98.164 Y103.775 E3.72669
G1 X99 Y103.434 E3.75672
G1 X99.96 Y103.145 E3.79006
G1 X100.165 Y103.094 E3.79709
G1 X101.051 Y102.915 E3.82715
G1 X101.835 Y102.823 E3.85341
G1 X103.081 Y102.727 E3.89497
G1 X119.79 Y101.726 E4.45171
G1 X120.372 Y101.699 E4.47109
G1 X121.003 Y101.689 E4.49208
G1 X121.714 Y101.7 E4.51573
G1 X122.282 Y101.722 E4.53464
G0 F6000 X122.301 Y101.323
G1 F1200 X122.778 Y101.355 E4.55054
G1 X123.27 Y101.403 E4.56698
G1 X123.914 Y101.481 E4.58856
G1 X124.532 Y101.574 E4.60934
G1 X125.319 Y101.721 E4.63597
G1 X125.677 Y101.796 E4.64814
G1 X126.342 Y101.958 E4.6709
G1 X127.274 Y102.217 E4.70307
G1 X127.842 Y102.39 E4.72282
G1 X128.455 Y102.604 E4.74442
G1 X129.167 Y102.878 E4.76979
G1 X129.483 Y103.006 E4.78113
G1 X129.817 Y103.147 E4.79319
G1 X130.354 Y103.391 E4.81281
G1 X130.937 Y103.681 E4.83446
G1 X131.335 Y103.889 E4.8494
G1 X131.963 Y104.245 E4.87341
G1 X132.402 Y104.514 E4.89054
G1 X132.69 Y104.697 E4.90188
G1 X133.456 Y105.201 E4.93238
G1 X134.108 Y105.666 E4.95902
G1 X134.437 Y105.92 E4.97284
G1 X134.712 Y106.139 E4.98453
G1 X135.15 Y106.501 E5.00343
G1 X135.613 Y106.904 E5.02385
G1 X136.085 Y107.352 E5.04549
G1 X136.75 Y108.022 E5.07689
G1 X137.268 Y108.583 E5.10229
G1 X137.773 Y109.171 E5.12807
G1 X138.237 Y109.75 E5.15275
G1 X138.722 Y110.402 E5.17977
G1 X139.081 Y110.911 E5.20049
G1 X139.344 Y111.306 E5.21627
G1 X139.627 Y111.763 E5.23415
G1 X139.846 Y112.137 E5.24857
G1 X140.276 Y112.951 E5.27919
G1 X140.531 Y113.532 E5.30029
G1 X140.614 Y113.738 E5.30768
G1 X140.921 Y114.606 E5.3383
G1 X141.151 Y115.497 E5.3689
G1 X141.313 Y116.492 E5.40243
G1 X141.349 Y116.806 E5.41295
G1 X141.414 Y117.724 E5.44356
G1 X141.399 Y118.645 E5.47419
G1 X141.268 Y119.79 E5.51252
G1 X141.226 Y120.037 E5.52086
G1 X141.032 Y120.937 E5.55148
G1 X140.761 Y121.817 E5.5821
G1 X140.415 Y122.67 E5.61272
G1 X140.174 Y123.162 E5.63094
G1 X139.945 Y123.601 E5.64741
G1 X139.549 Y124.296 E5.67401
G1 X139.383 Y124.563 E5.68447
G1 X139.055 Y125.058 E5.70422
G1 X138.452 Y125.91 E5.73894
G1 X138.326 Y126.079 E5.74595
G1 X138.044 Y126.441 E5.76121
G1 X137.841 Y126.69 E5.7719
G1 X137.544 Y127.038 E5.78711
G1 X136.696 Y127.978 E5.82922
G1 X136.346 Y128.333 E5.8458
G1 X136.055 Y128.615 E5.85928
G1 X135.757 Y128.893 E5.87283
G1 X135.426 Y129.19 E5.88763
G1 X134.943 Y129.597 E5.90863
G1 X134.265 Y130.136 E5.93744
G1 X133.981 Y130.355 E5.94937
G1 X133.695 Y130.567 E5.96121
G1 X133.195 Y130.915 E5.98147
G1 X132.456 Y131.394 E6.01076
G1 X132.245 Y131.523 E6.01899
G1 X131.691 Y131.839 E6.0402
G1 X130.912 Y132.253 E6.06954
G1 X130.595 Y132.415 E6.08138
G1 X130.272 Y132.573 E6.09334
G1 X129.691 Y132.836 E6.11455
G1 X129.043 Y133.106 E6.1379
G1 X128.414 Y133.344 E6.16027
G1 X127.667 Y133.601 E6.18655
G1 X127.137 Y133.769 E6.20504
G1 X126.896 Y133.838 E6.21338
G1 X126.499 Y133.943 E6.22703
G1 X125.999 Y134.063 E6.24414
G1 X125.332 Y134.212 E6.26687
G1 X124.7 Y134.333 E6.28827
G1 X124.407 Y134.38 E6.29814
G1 X124.008 Y134.436 E6.31154
G1 X123.309 Y134.521 E6.33496
G1 X122.626 Y134.582 E6.35777
G1 X121.881 Y134.624 E6.38259
G1 X121.54 Y134.638 E6.39394
G1 X121.209 Y134.646 E6.40495
G1 X120.695 Y134.646 E6.42204
G1 X119.866 Y134.622 E6.44963
G1 X118.87 Y134.569 E6.4828
G1 X102.596 Y133.57 E7.0251
G1 X101.884 Y133.516 E7.04885
G1 X100.97 Y133.406 E7.07947
G1 X100.462 Y133.31 E7.09666
G1 X100.215 Y133.257 E7.10506
G1 X99.324 Y133.025 E7.13569
G1 X98.457 Y132.717 E7.16629
G1 X97.781 Y132.415 E7.19091
G1 X97.456 Y132.256 E7.20295
G1 X96.647 Y131.815 E7.23359
G1 X95.88 Y131.307 E7.26419
G1 X95.159 Y130.734 E7.29482
G1 X94.644 Y130.254 E7.31824
G1 X94.343 Y129.955 E7.33235
G1 X93.718 Y129.279 E7.36297
G1 X93.155 Y128.55 E7.39361
G1 X92.693 Y127.837 E7.42186
G1 X92.555 Y127.604 E7.43087
G1 X92.12 Y126.792 E7.46151
G1 X91.758 Y125.946 E7.49211
G1 X91.542 Y125.312 E7.51439
G1 X91.449 Y125.009 E7.52493
G1 X91.217 Y124.118 E7.55556
G1 X91.063 Y123.21 E7.58619
G1 X90.986 Y122.174 E7.62074
G1 X90.949 Y120.622 E7.67238
G1 X90.952 Y114.708 E7.86908
G1 X90.961 Y114.103 E7.8892
G1 X91.068 Y112.751 E7.93431
G1 X91.105 Y112.494 E7.94294
G1 X91.351 Y111.286 E7.98395
G1 X91.416 Y111.041 E7.99238
G1 X91.691 Y110.162 E8.02301
G1 X92.041 Y109.31 E8.05365
G1 X92.317 Y108.757 E8.0742
G1 X92.446 Y108.516 E8.08329
G1 X92.915 Y107.724 E8.11391
G1 X93.451 Y106.975 E8.14454
G1 X93.927 Y106.41 E8.16911
G1 X94.115 Y106.202 E8.17844
G1 X94.762 Y105.547 E8.20906
G1 X95.561 Y104.874 E8.24381
G1 X95.77 Y104.715 E8.25254
G1 X96.526 Y104.19 E8.28315
G1 X97.325 Y103.732 E8.31379
G1 X97.762 Y103.519 E8.32996
G1 X97.997 Y103.411 E8.33856
G1 X98.849 Y103.064 E8.36915
G1 X99.864 Y102.757 E8.40442
G1 X100.069 Y102.706 E8.41145
G1 X100.971 Y102.522 E8.44207
G1 X101.804 Y102.424 E8.46997
G1 X103.057 Y102.328 E8.51176
G1 X119.772 Y101.326 E9.0687
G1 X120.354 Y101.299 E9.08808
G1 X121.009 Y101.289 E9.10987
G1 X121.72 Y101.3 E9.13352
G1 X122.301 Y101.323 E9.15286
G0 F6000 X122.321 Y100.923
G1 F1200 X122.808 Y100.956 E9.1691
G1 X123.318 Y101.006 E9.18614
G1 X123.962 Y101.084 E9.20772
G1 X124.603 Y101.181 E9.22928
G1 X125.402 Y101.33 E9.25631
G1 X125.76 Y101.405 E9.26848
G1 X126.449 Y101.573 E9.29206
G1 X127.381 Y101.832 E9.32424
G1 X127.963 Y102.008 E9.34446
G1 X128.599 Y102.231 E9.36688
G1 X129.311 Y102.505 E9.39225
G1 X129.638 Y102.637 E9.40398
G1 X129.972 Y102.778 E9.41604
G1 X130.53 Y103.032 E9.43643
G1 X131.122 Y103.326 E9.45841
G1 X131.52 Y103.534 E9.47335
G1 X132.172 Y103.904 E9.49828
G1 X132.611 Y104.173 E9.51541
G1 X132.91 Y104.363 E9.52719
G1 X133.676 Y104.867 E9.55769
G1 X134.352 Y105.349 E9.5853
G1 X134.681 Y105.603 E9.59913
G1 X134.967 Y105.831 E9.61129
G1 X135.405 Y106.193 E9.63019
G1 X135.879 Y106.606 E9.6511
G1 X136.369 Y107.07 E9.67355
G1 X137.034 Y107.74 E9.70494
G1 X137.572 Y108.322 E9.7313
G1 X138.077 Y108.91 E9.75708
G1 X138.558 Y109.512 E9.78271
G1 X139.043 Y110.164 E9.80974
G1 X139.41 Y110.684 E9.83091
G1 X139.679 Y111.087 E9.84703
G1 X139.972 Y111.561 E9.86556
G1 X140.191 Y111.935 E9.87997
G1 X140.63 Y112.763 E9.91115
G1 X140.902 Y113.382 E9.93363
G1 X140.985 Y113.588 E9.94102
G1 X141.298 Y114.472 E9.97221
G1 X141.535 Y115.38 E10.00342
G1 X141.71 Y116.446 E10.03935
G1 X141.746 Y116.76 E10.04986
G1 X141.813 Y117.696 E10.08108
G1 X141.8 Y118.633 E10.11224
G1 X141.662 Y119.857 E10.15321
G1 X141.62 Y120.104 E10.16154
G1 X141.424 Y121.021 E10.19273
G1 X141.15 Y121.918 E10.22393
G1 X140.801 Y122.788 E10.25511
G1 X140.529 Y123.347 E10.27578
G1 X140.3 Y123.786 E10.29225
G1 X139.889 Y124.507 E10.31985
G1 X139.723 Y124.774 E10.33031
G1 X139.383 Y125.288 E10.35081
G1 X138.773 Y126.149 E10.3859
G1 X138.647 Y126.318 E10.39292
G1 X138.354 Y126.694 E10.40877
G1 X138.151 Y126.943 E10.41946
G1 X137.843 Y127.304 E10.43524
G1 X136.987 Y128.252 E10.47772
G1 X136.624 Y128.62 E10.49491
G1 X136.333 Y128.902 E10.50839
G1 X136.024 Y129.19 E10.52244
G1 X135.693 Y129.487 E10.53723
G1 X135.192 Y129.911 E10.55906
G1 X134.514 Y130.45 E10.58787
G1 X134.219 Y130.676 E10.60023
G1 X133.933 Y130.888 E10.61207
G1 X133.415 Y131.25 E10.63309
G1 X132.959 Y131.549 E10.65123
G1 X132.454 Y131.864 E10.67102
G1 X131.878 Y132.192 E10.69307
G1 X131.099 Y132.606 E10.72241
G1 X130.771 Y132.774 E10.73467
G1 X130.448 Y132.932 E10.74663
G1 X129.845 Y133.205 E10.76864
G1 X129.197 Y133.475 E10.79199
G1 X128.545 Y133.723 E10.81519
G1 X127.798 Y133.98 E10.84147
G1 X127.247 Y134.153 E10.86067
G1 X127.006 Y134.222 E10.86901
G1 X126.594 Y134.331 E10.88319
G1 X126.086 Y134.453 E10.90056
G1 X125.419 Y134.602 E10.92329
G1 X124.763 Y134.728 E10.94551
G1 X124.47 Y134.775 E10.95538
G1 X124.056 Y134.834 E10.96929
G1 X123.357 Y134.919 E10.99271
G1 X122.648 Y134.982 E11.01638
G1 X121.903 Y135.024 E11.0412
G1 X121.55 Y135.038 E11.05295
G1 X121.219 Y135.046 E11.06397
G1 X120.685 Y135.046 E11.08173
G1 X119.845 Y135.021 E11.10968
G1 X118.845 Y134.968 E11.14298
G1 X102.566 Y133.968 E11.68545
G1 X101.854 Y133.914 E11.7092
G1 X100.923 Y133.804 E11.74038
G1 X100.378 Y133.701 E11.75882
G1 X100.131 Y133.648 E11.76723
G1 X99.223 Y133.413 E11.79842
G1 X98.339 Y133.1 E11.82961
G1 X97.605 Y132.774 E11.85632
G1 X97.28 Y132.615 E11.86836
G1 X96.456 Y132.167 E11.89955
G1 X95.673 Y131.651 E11.93074
G1 X94.937 Y131.07 E11.96193
G1 X94.362 Y130.538 E11.98798
G1 X94.061 Y130.239 E12.0021
G1 X93.424 Y129.55 E12.03331
G1 X92.849 Y128.81 E12.06447
G1 X92.348 Y128.041 E12.095
G1 X92.21 Y127.808 E12.10401
G1 X91.767 Y126.981 E12.13521
G1 X91.396 Y126.12 E12.16639
G1 X91.159 Y125.43 E12.19066
G1 X91.066 Y125.127 E12.2012
G1 X90.829 Y124.219 E12.23241
G1 X90.671 Y123.295 E12.26359
G1 X90.586 Y122.184 E12.30065
G1 X90.549 Y120.622 E12.35262
G1 X90.552 Y114.702 E12.54952
G1 X90.561 Y114.097 E12.56964
G1 X90.615 Y113.161 E12.60083
G1 X90.672 Y112.694 E12.61647
G1 X90.709 Y112.437 E12.62511
G1 X90.965 Y111.183 E12.66768
G1 X91.03 Y110.938 E12.67611
G1 X91.309 Y110.043 E12.70729
G1 X91.663 Y109.174 E12.7385
G1 X91.964 Y108.568 E12.761
G1 X92.093 Y108.327 E12.7701
G1 X92.57 Y107.52 E12.80128
G1 X93.115 Y106.756 E12.83249
G1 X93.63 Y106.142 E12.85914
G1 X93.818 Y105.934 E12.86847
G1 X94.476 Y105.266 E12.89965
G1 X95.319 Y104.555 E12.93633
G1 X95.528 Y104.396 E12.94507
G1 X96.298 Y103.861 E12.97625
G1 X97.111 Y103.393 E13.00745
G1 X97.595 Y103.156 E13.02538
G1 X97.83 Y103.048 E13.03398
G1 X98.698 Y102.693 E13.06517
G1 X99.767 Y102.368 E13.10233
G1 X99.972 Y102.317 E13.10936
G1 X100.891 Y102.13 E13.14055
G1 X101.773 Y102.025 E13.17009
G1 X103.033 Y101.929 E13.21212
G1 X119.753 Y100.927 E13.76923
G1 X120.335 Y100.9 E13.78861
G1 X121.015 Y100.889 E13.81123
G1 X121.726 Y100.9 E13.83488
G1 X122.321 Y100.923 E13.85468
G1 F2700 E8.85468
;MESH:3DBenchy.3mf
G0 F6000 X121.008 Y111.208
G0 X120.976 Y112.192
G0 X102.678 Y113.762
G0 X102.411 Y113.964
G0 X102.322 Y114.257
G0 X102.345 Y115.523
G0 X104.627 Y115.127
G0 X105.765 Y115.657
;TYPE:WALL-INNER
G1 F2700 E13.85468
G1 F1200 X105.756 Y115.646 E13.85516
G1 X105.732 Y115.623 E13.85626
G1 X105.611 Y115.509 E13.86179
G1 X105.448 Y115.384 E13.86862
G1 X105.339 Y115.313 E13.87295
G1 X105.094 Y115.19 E13.88207
G1 X104.971 Y115.142 E13.88646
G1 X104.762 Y115.083 E13.89368
G1 X104.526 Y115.042 E13.90165
G1 X104.207 Y115.021 E13.91228
G1 X103.977 Y115.024 E13.91993
G1 X103.648 Y115.066 E13.93096
G1 X103.424 Y115.12 E13.93863
G1 X103.213 Y115.193 E13.94605
G1 X103.008 Y115.286 E13.95354
G1 X102.814 Y115.399 E13.96101
G1 X102.63 Y115.53 E13.96852
G1 X102.534 Y115.615 E13.97279
G1 X102.462 Y115.679 E13.97599
G1 X102.309 Y115.842 E13.98343
G1 X102.151 Y116.052 E13.99217
G1 X102.151 Y115.842 E13.99318
G1 X102.151 Y115.679 E13.99613
G1 X102.151 Y115.582 E13.99903
G1 X102.151 Y114.249 E14.04337
G1 X102.164 Y114.145 E14.04685
G1 X102.205 Y113.99 E14.05219
G1 X102.268 Y113.869 E14.05672
G1 X102.333 Y113.784 E14.06028
G1 X102.426 Y113.7 E14.06445
G1 X102.496 Y113.656 E14.0672
G1 X102.623 Y113.6 E14.07182
G1 X102.708 Y113.577 E14.07475
G1 X102.834 Y113.562 E14.07897
G1 X120.97 Y112.473 E14.68326
G1 X121.751 Y112.5 E14.70925
G1 X122.555 Y112.589 E14.73616
G1 X123.535 Y112.781 E14.76937
G1 X124.568 Y113.092 E14.80525
G1 X125.436 Y113.444 E14.8364
