;FLAVOR:Marlin
;TIME:1864
;Filament used: 1.3498m
;Layer height: 0.2
;MINX:96.5
;MINY:96.5
;MINZ:0.2
;MAXX:138.5
;MAXY:138.5
;MAXZ:20
;Generated with Cura_SteamEngine 4.6.1
M140 S55
M105
M190 S55
M104 S210
M105
M109 S210
M82 ;absolute extrusion mode
; Ender 3 Custom Start G-code
G92 E0 ; Reset Extruder
G28 ; Home all axes
G1 Z2.0 F3000 ; Move Z Axis up little to prevent scratching of Heat Bed
G1 X0.1 Y20 Z0.3 F5000.0 ; Move to start position
G1 X0.1 Y200.0 Z0.3 F1500.0 E15 ; Draw the first line
G1 X0.4 Y200.0 Z0.3 F5000.0 ; Move to side a little
G1 X0.4 Y20 Z0.3 F1500.0 E30 ; Draw the second line
G92 E0 ; Reset Extruder
G1 Z2.0 F3000 ; Move Z Axis up little to prevent scratching of Heat Bed
G1 X5 Y20 Z0.3 F5000.0 ; Move over to prevent blob squish
G92 E0
G92 E0
G1 F2700 E-5
;LAYER_COUNT:100
;LAYER:0
M107
G0 F6000 X127.637 Y97.311 Z0.2
;TYPE:SKIRT
G1 F2700 E0
G1 F1200 X128.539 Y97.364 E0.03005
G1 X129.432 Y97.496 E0.06008
G1 X130.31 Y97.707 E0.09011
G1 X131.166 Y97.995 E0.12015
G1 X131.993 Y98.357 E0.15018
G1 X132.785 Y98.792 E0.18023
G1 X133.536 Y99.294 E0.21027
G1 X134.239 Y99.861 E0.24031
G1 X134.889 Y100.488 E0.27035
G1 X135.481 Y101.17 E0.30039
G1 X136.011 Y101.901 E0.33042
G1 X136.473 Y102.677 E0.36046
G1 X136.866 Y103.49 E0.39049
G1 X137.184 Y104.335 E0.42052
G1 X137.427 Y105.205 E0.45056
G1 X137.592 Y106.093 E0.4806
G1 X137.687 Y107.223 E0.51832
G1 X137.7 Y107.83 E0.53851
G1 X137.699 Y126.89 E1.17245
G1 X137.69 Y127.617 E1.19663
G1 X137.639 Y128.519 E1.22668
G1 X137.508 Y129.413 E1.25674
G1 X137.299 Y130.291 E1.28675
G1 X137.013 Y131.148 E1.3168
G1 X136.652 Y131.976 E1.34685
G1 X136.22 Y132.768 E1.37685
G1 X135.719 Y133.52 E1.40691
G1 X135.153 Y134.224 E1.43695
G1 X134.528 Y134.875 E1.46697
G1 X133.847 Y135.469 E1.49702
G1 X133.116 Y136 E1.52707
G1 X132.342 Y136.464 E1.55709
G1 X131.529 Y136.858 E1.58714
G1 X130.685 Y137.178 E1.61716
G1 X129.815 Y137.423 E1.64722
G1 X128.928 Y137.589 E1.67723
G1 X127.777 Y137.687 E1.71565
G1 X127.17 Y137.7 E1.73585
G1 X108.075 Y137.699 E2.37095
G1 X107.377 Y137.69 E2.39417
G1 X106.476 Y137.639 E2.42418
G1 X105.582 Y137.507 E2.45424
G1 X104.704 Y137.298 E2.48426
G1 X103.847 Y137.011 E2.51432
G1 X103.02 Y136.65 E2.54433
G1 X102.227 Y136.217 E2.57438
G1 X101.476 Y135.716 E2.60441
G1 X100.772 Y135.15 E2.63445
G1 X100.121 Y134.524 E2.66449
G1 X99.528 Y133.843 E2.69452
G1 X98.998 Y133.112 E2.72456
G1 X98.534 Y132.337 E2.7546
G1 X98.14 Y131.524 E2.78465
G1 X97.82 Y130.68 E2.81467
G1 X97.576 Y129.81 E2.84472
G1 X97.41 Y128.922 E2.87477
G1 X97.313 Y127.767 E2.91332
G1 X97.3 Y127.158 E2.93358
G1 X97.301 Y108.036 E3.56958
G1 X97.31 Y107.371 E3.5917
G1 X97.362 Y106.469 E3.62175
G1 X97.494 Y105.576 E3.65177
G1 X97.704 Y104.698 E3.6818
G1 X97.991 Y103.841 E3.71186
G1 X98.353 Y103.014 E3.74189
G1 X98.786 Y102.222 E3.77191
G1 X99.288 Y101.471 E3.80195
G1 X99.855 Y100.767 E3.83202
G1 X100.481 Y100.117 E3.86203
G1 X101.162 Y99.524 E3.89207
G1 X101.894 Y98.994 E3.92212
G1 X102.669 Y98.531 E3.95215
G1 X103.482 Y98.138 E3.98219
G1 X104.327 Y97.818 E4.01224
G1 X105.196 Y97.575 E4.04225
G1 X106.084 Y97.409 E4.0723
G1 X107.223 Y97.313 E4.11031
G1 X107.83 Y97.3 E4.13051
G1 X126.939 Y97.301 E4.76608
G1 X127.637 Y97.311 E4.78929
G0 F6000 X127.643 Y96.911
G1 F1200 X128.562 Y96.964 E4.81991
G1 X129.473 Y97.097 E4.85053
G1 X130.369 Y97.308 E4.88115
G1 X131.243 Y97.596 E4.91175
G1 X132.09 Y97.959 E4.9424
G1 X132.901 Y98.394 E4.97301
G1 X133.671 Y98.898 E5.00362
G1 X134.395 Y99.467 E5.03425
G1 X135.067 Y100.097 E5.06489
G1 X135.682 Y100.782 E5.0955
G1 X136.235 Y101.518 E5.12612
G1 X136.722 Y102.299 E5.15674
G1 X137.139 Y103.12 E5.18736
G1 X137.484 Y103.974 E5.218
G1 X137.753 Y104.854 E5.2486
G1 X137.945 Y105.755 E5.27924
G1 X138.058 Y106.668 E5.30984
G1 X138.087 Y107.212 E5.32796
G1 X138.1 Y107.83 E5.34852
G1 X138.099 Y126.895 E5.98262
G1 X138.09 Y127.622 E6.00681
G1 X138.039 Y128.541 E6.03742
G1 X137.908 Y129.453 E6.06806
G1 X137.698 Y130.349 E6.09867
G1 X137.412 Y131.224 E6.12929
G1 X137.051 Y132.071 E6.15991
G1 X136.617 Y132.883 E6.19054
G1 X136.115 Y133.655 E6.22116
G1 X135.547 Y134.38 E6.2518
G1 X134.919 Y135.053 E6.28241
G1 X134.235 Y135.669 E6.31303
G1 X133.5 Y136.223 E6.34364
G1 X132.72 Y136.712 E6.37426
G1 X131.9 Y137.131 E6.40489
G1 X131.047 Y137.477 E6.43551
G1 X130.167 Y137.748 E6.46613
G1 X129.267 Y137.941 E6.49675
G1 X128.353 Y138.056 E6.52738
G1 X127.788 Y138.087 E6.5462
G1 X127.17 Y138.1 E6.56676
G1 X108.07 Y138.099 E7.20203
G1 X107.372 Y138.09 E7.22525
G1 X106.453 Y138.038 E7.25587
G1 X105.542 Y137.907 E7.28648
G1 X104.646 Y137.697 E7.31709
G1 X103.771 Y137.41 E7.34771
G1 X102.924 Y137.048 E7.37835
G1 X102.112 Y136.614 E7.40897
G1 X101.341 Y136.112 E7.43957
G1 X100.616 Y135.544 E7.47021
G1 X99.943 Y134.915 E7.50084
G1 X99.328 Y134.231 E7.53144
G1 X98.774 Y133.496 E7.56205
G1 X98.286 Y132.715 E7.59268
G1 X97.867 Y131.895 E7.62331
G1 X97.521 Y131.042 E7.65392
G1 X97.251 Y130.162 E7.68454
G1 X97.058 Y129.261 E7.71519
G1 X96.944 Y128.348 E7.74579
G1 X96.913 Y127.777 E7.76481
G1 X96.9 Y127.158 E7.7854
G1 X96.901 Y108.031 E8.42157
G1 X96.91 Y107.366 E8.44369
G1 X96.962 Y106.446 E8.47434
G1 X97.094 Y105.535 E8.50495
G1 X97.305 Y104.639 E8.53557
G1 X97.592 Y103.764 E8.5662
G1 X97.955 Y102.918 E8.59682
G1 X98.389 Y102.106 E8.62744
G1 X98.892 Y101.335 E8.65806
G1 X99.461 Y100.611 E8.68868
G1 X100.089 Y99.939 E8.71928
G1 X100.774 Y99.323 E8.74992
G1 X101.51 Y98.77 E8.78054
G1 X102.291 Y98.282 E8.81117
G1 X103.111 Y97.864 E8.84178
G1 X103.965 Y97.519 E8.87241
G1 X104.845 Y97.249 E8.90303
G1 X105.745 Y97.057 E8.93364
G1 X106.659 Y96.943 E8.96427
G1 X107.212 Y96.913 E8.98269
G1 X107.83 Y96.9 E9.00325
G1 X126.945 Y96.901 E9.63902
G1 X127.643 Y96.911 E9.66224
G0 F6000 X127.649 Y96.511
G1 F1200 X128.585 Y96.565 E9.69342
G1 X129.513 Y96.697 E9.72459
G1 X130.427 Y96.909 E9.7558
G1 X131.319 Y97.198 E9.78699
G1 X132.184 Y97.561 E9.81819
G1 X133.014 Y97.997 E9.84937
G1 X133.805 Y98.502 E9.88059
G1 X134.549 Y99.073 E9.91178
G1 X135.242 Y99.705 E9.94297
G1 X135.879 Y100.393 E9.97416
G1 X136.454 Y101.134 E10.00535
G1 X136.965 Y101.92 E10.03654
G1 X137.407 Y102.748 E10.06775
G1 X137.776 Y103.61 E10.09894
G1 X138.071 Y104.5 E10.13012
G1 X138.289 Y105.412 E10.16131
G1 X138.429 Y106.34 E10.19253
G1 X138.487 Y107.201 E10.22123
G1 X138.5 Y107.83 E10.24215
G1 X138.499 Y126.9 E10.87643
G1 X138.49 Y127.627 E10.90061
G1 X138.439 Y128.564 E10.93182
G1 X138.307 Y129.492 E10.96299
G1 X138.098 Y130.406 E10.99418
G1 X137.811 Y131.299 E11.02538
G1 X137.449 Y132.165 E11.05659
G1 X137.015 Y132.996 E11.08778
G1 X136.511 Y133.787 E11.11897
G1 X135.942 Y134.532 E11.15015
G1 X135.311 Y135.227 E11.18137
G1 X134.624 Y135.865 E11.21256
G1 X133.885 Y136.442 E11.24374
G1 X133.099 Y136.954 E11.27494
G1 X132.273 Y137.397 E11.30611
G1 X131.411 Y137.769 E11.33734
G1 X130.522 Y138.065 E11.3685
G1 X129.61 Y138.285 E11.39971
G1 X128.683 Y138.426 E11.43089
G1 X127.799 Y138.487 E11.46037
G1 X127.17 Y138.5 E11.48129
G1 X108.065 Y138.499 E12.11673
G1 X107.367 Y138.49 E12.13994
G1 X106.431 Y138.438 E12.17112
G1 X105.502 Y138.306 E12.20233
G1 X104.588 Y138.096 E12.23352
G1 X103.695 Y137.809 E12.26472
G1 X102.83 Y137.446 E12.29592
G1 X101.999 Y137.012 E12.3271
G1 X101.208 Y136.508 E12.3583
G1 X100.463 Y135.938 E12.3895
G1 X99.769 Y135.307 E12.4207
G1 X99.132 Y134.62 E12.45186
G1 X98.555 Y133.88 E12.48307
G1 X98.043 Y133.094 E12.51427
G1 X97.6 Y132.267 E12.54547
G1 X97.229 Y131.406 E12.57665
G1 X96.933 Y130.516 E12.60785
G1 X96.714 Y129.604 E12.63904
G1 X96.573 Y128.677 E12.67023
G1 X96.513 Y127.788 E12.69987
G1 X96.5 Y127.158 E12.72082
G1 X96.501 Y108.025 E13.35719
G1 X96.51 Y107.36 E13.37931
G1 X96.563 Y106.424 E13.41049
G1 X96.695 Y105.495 E13.4417
G1 X96.906 Y104.581 E13.4729
G1 X97.194 Y103.689 E13.50408
G1 X97.557 Y102.824 E13.53528
G1 X97.992 Y101.993 E13.56647
G1 X98.496 Y101.203 E13.59764
G1 X99.066 Y100.458 E13.62884
G1 X99.698 Y99.764 E13.66006
G1 X100.386 Y99.127 E13.69125
G1 X101.126 Y98.551 E13.72244
G1 X101.912 Y98.039 E13.75364
G1 X102.739 Y97.597 E13.78482
G1 X103.601 Y97.227 E13.81602
G1 X104.491 Y96.931 E13.84722
G1 X105.403 Y96.713 E13.87841
G1 X106.33 Y96.572 E13.90959
G1 X107.201 Y96.513 E13.93863
G1 X107.83 Y96.5 E13.95955
G1 X126.951 Y96.501 E14.59552
G1 X127.649 Y96.511 E14.61874
G1 F2700 E9.61874
;MESH:xyzCalibration_cube.stl
G0 F6000 X127.086 Y106.835
G0 X127.086 Y107.914
G0 X126.718 Y126.718
G0 X108.1 Y126.9
;TYPE:WALL-INNER
G1 F2700 E14.61874
G1 F1200 X108.1 Y108.1 E15.24403
G1 X126.9 Y108.1 E15.86932
G1 X126.9 Y126.9 E16.49461
G1 X108.1 Y126.9 E17.1199
G0 F6000 X107.7 Y127.3
;TYPE:WALL-OUTER
G1 F1200 X107.7 Y107.7 E17.7718
G1 X127.3 Y107.7 E18.4237
G1 X127.3 Y127.3 E19.0756
G1 X107.7 Y127.3 E19.7275
G0 F6000 X107.97 Y127.03
G0 X108.21 Y126.51
G0 X108.49 Y126.51
;TYPE:SKIN
G1 F1200 X108.49 Y108.49 E20.32684
G1 X126.51 Y108.49 E20.92619
G1 X126.51 Y126.51 E21.52554
G1 X108.49 Y126.51 E22.12489
G0 F6000 X108.813 Y126.349
G1 F1200 X108.649 Y126.186 E22.13258
G0 F6000 X108.649 Y125.62
G1 F1200 X109.378 Y126.349 E22.16687
G0 F6000 X109.944 Y126.349
G1 F1200 X108.649 Y125.054 E22.22778
G0 F6000 X108.649 Y124.488
G1 F1200 X110.51 Y126.349 E22.31532
G0 F6000 X111.075 Y126.349
G1 F1200 X108.649 Y123.923 E22.42943
G0 F6000 X108.649 Y123.357
G1 F1200 X111.641 Y126.349 E22.57016
G0 F6000 X112.207 Y126.349
G1 F1200 X108.649 Y122.791 E22.73752
G0 F6000 X108.649 Y122.226
G1 F1200 X112.772 Y126.349 E22.93145
G0 F6000 X113.338 Y126.349
G1 F1200 X108.649 Y121.66 E23.15201
G0 F6000 X108.649 Y121.094
G1 F1200 X113.904 Y126.349 E23.39919
G0 F6000 X114.469 Y126.349
G1 F1200 X108.649 Y120.529 E23.67294
G0 F6000 X108.649 Y119.963
G1 F1200 X115.035 Y126.349 E23.97332
G0 F6000 X115.601 Y126.349
G1 F1200 X108.649 Y119.397 E24.30032
G0 F6000 X108.649 Y118.832
G1 F1200 X116.167 Y126.349 E24.65392
G0 F6000 X116.732 Y126.349
G1 F1200 X108.649 Y118.266 E25.03412
G0 F6000 X108.649 Y117.7
G1 F1200 X117.298 Y126.349 E25.44094
G0 F6000 X117.864 Y126.349
G1 F1200 X108.649 Y117.135 E25.87437
G0 F6000 X108.649 Y116.569
G1 F1200 X118.429 Y126.349 E26.33439
G0 F6000 X118.995 Y126.349
G1 F1200 X108.649 Y116.003 E26.82103
G0 F6000 X108.649 Y115.438
G1 F1200 X119.561 Y126.349 E27.33427
G0 F6000 X120.126 Y126.349
G1 F1200 X108.649 Y114.872 E27.87412
G0 F6000 X108.649 Y114.306
G1 F1200 X120.692 Y126.349 E28.44058
G0 F6000 X121.258 Y126.349
G1 F1200 X108.649 Y113.74 E29.03367
G0 F6000 X108.649 Y113.175
G1 F1200 X121.823 Y126.349 E29.65334
G0 F6000 X122.389 Y126.349
G1 F1200 X108.649 Y112.609 E30.29962
G0 F6000 X108.649 Y112.043
G1 F1200 X122.955 Y126.349 E30.97253
G0 F6000 X123.52 Y126.349
G1 F1200 X108.649 Y111.478 E31.67202
G0 F6000 X108.649 Y110.912
G1 F1200 X124.086 Y126.349 E32.39813
G0 F6000 X124.652 Y126.349
G1 F1200 X108.649 Y110.346 E33.15086
G0 F6000 X108.649 Y109.781
G1 F1200 X125.218 Y126.349 E33.93019
G0 F6000 X125.783 Y126.349
G1 F1200 X108.649 Y109.215 E34.73612
G0 F6000 X108.649 Y108.649
G1 F1200 X126.349 Y126.349 E35.56868
G0 F6000 X126.349 Y125.783
G1 F1200 X109.216 Y108.65 E36.37456
G0 F6000 X109.781 Y108.65
G1 F1200 X126.349 Y125.218 E37.15387
G0 F6000 X126.349 Y124.652
G1 F1200 X110.347 Y108.65 E37.90655
G0 F6000 X110.913 Y108.65
G1 F1200 X126.349 Y124.086 E38.63262
G0 F6000 X126.349 Y123.52
G1 F1200 X111.478 Y108.65 E39.33208
G0 F6000 X112.044 Y108.65
G1 F1200 X126.349 Y122.955 E40.00494
G0 F6000 X126.349 Y122.389
G1 F1200 X112.61 Y108.65 E40.65118
G0 F6000 X113.175 Y108.65
G1 F1200 X126.349 Y121.823 E41.27082
G0 F6000 X126.349 Y121.258
G1 F1200 X113.741 Y108.65 E41.86387
G0 F6000 X114.307 Y108.65
G1 F1200 X126.349 Y120.692 E42.43028
G0 F6000 X126.349 Y120.126
G1 F1200 X114.873 Y108.65 E42.97008
G0 F6000 X115.438 Y108.65
G1 F1200 X126.349 Y119.561 E43.4833
G0 F6000 X126.349 Y118.995
G1 F1200 X116.004 Y108.65 E43.9699
G0 F6000 X116.57 Y108.65
G1 F1200 X126.349 Y118.429 E44.42987
G0 F6000 X126.349 Y117.864
G1 F1200 X117.135 Y108.65 E44.86327
G0 F6000 X117.701 Y108.65
G1 F1200 X126.349 Y117.298 E45.27005
G0 F6000 X126.349 Y116.732
G1 F1200 X118.267 Y108.65 E45.6502
G0 F6000 X118.832 Y108.65
G1 F1200 X126.349 Y116.167 E46.00377
G0 F6000 X126.349 Y115.601
G1 F1200 X119.398 Y108.65 E46.33073
G0 F6000 X119.964 Y108.65
G1 F1200 X126.349 Y115.035 E46.63106
G0 F6000 X126.349 Y114.469
G1 F1200 X120.529 Y108.65 E46.90479
G0 F6000 X121.095 Y108.65
G1 F1200 X126.349 Y113.904 E47.15192
G0 F6000 X126.349 Y113.338
G1 F1200 X121.661 Y108.65 E47.37243
G0 F6000 X122.226 Y108.65
G1 F1200 X126.349 Y112.772 E47.56634
G0 F6000 X126.349 Y112.207
G1 F1200 X122.792 Y108.65 E47.73365
G0 F6000 X123.358 Y108.65
G1 F1200 X126.349 Y111.641 E47.87434
G0 F6000 X126.349 Y111.075
G1 F1200 X123.923 Y108.65 E47.98843
G0 F6000 X124.489 Y108.65
G1 F1200 X126.349 Y110.51 E48.07592
G0 F6000 X126.349 Y109.944
G1 F1200 X125.055 Y108.65 E48.13678
G0 F6000 X125.621 Y108.65
G1 F1200 X126.349 Y109.378 E48.17102
G0 F6000 X126.349 Y108.813
G1 F1200 X126.186 Y108.65 E48.17869
G0 F6000 X126.186 Y108.3
G1 F2700 E43.17869
;MESH:NONMESH
G0 F300 X126.186 Y108.3 Z0.4
G0 F6000 X126.186 Y108.21
G0 X108.282 Y108.282
G0 X108.1 Y126.9
;TIME_ELAPSED:83.966675
;LAYER:1
M140 S55
M106 S85
;TYPE:WALL-INNER
;MESH:xyzCalibration_cube.stl
G1 F2700 E48.17869
G1 F1350 X108.1 Y108.1 E48.80398
G1 X126.9 Y108.1 E49.42927
G1 X126.9 Y126.9 E50.05456
G1 X108.1 Y126.9 E50.67985
G0 F7500 X107.7 Y127.3
;TYPE:WALL-OUTER
G1 F1350 X107.7 Y107.7 E51.33175
G1 X127.3 Y107.7 E51.98365
G1 X127.3 Y127.3 E52.63555
G1 X107.7 Y127.3 E53.28745
G0 F7500 X107.97 Y127.03
G0 X108.21 Y126.51
G0 X108.49 Y126.51
;TYPE:SKIN
G1 F1350 X108.49 Y108.49 E53.8868
G1 X126.51 Y108.49 E54.48614
G1 X126.51 Y126.51 E55.08549
G1 X108.49 Y126.51 E55.68484
G0 F7500 X108.21 Y126.51
G0 X108.21 Y109.138
G0 X108.65 Y109.138
G1 F1350 X109.139 Y108.649 E55.70784
G0 F7500 X109.704 Y108.649
G1 F1350 X108.65 Y109.704 E55.75744
G0 F7500 X108.65 Y110.269
G1 F1350 X110.27 Y108.649 E55.83364
G0 F7500 X110.836 Y108.649
G1 F1350 X108.65 Y110.835 E55.93646
G0 F7500 X108.65 Y111.401
G1 F1350 X111.401 Y108.649 E56.06588
G0 F7500 X111.967 Y108.649
G1 F1350 X108.65 Y111.966 E56.22191
G0 F7500 X108.65 Y112.532
G1 F1350 X112.533 Y108.649 E56.40455
G0 F7500 X113.098 Y108.649
G1 F1350 X108.65 Y113.098 E56.61379
G0 F7500 X108.65 Y113.663
G1 F1350 X113.664 Y108.649 E56.84964
G0 F7500 X114.23 Y108.649
G1 F1350 X108.65 Y114.229 E57.1121
G0 F7500 X108.65 Y114.795
G1 F1350 X114.795 Y108.649 E57.40117
G0 F7500 X115.361 Y108.649
G1 F1350 X108.65 Y115.36 E57.71683
G0 F7500 X108.65 Y115.926
G1 F1350 X115.927 Y108.649 E58.05912
G0 F7500 X116.493 Y108.649
G1 F1350 X108.65 Y116.492 E58.42803
G0 F7500 X108.65 Y117.057
G1 F1350 X117.058 Y108.649 E58.82352
G0 F7500 X117.624 Y108.649
G1 F1350 X108.65 Y117.623 E59.24563
G0 F7500 X108.65 Y118.189
G1 F1350 X118.19 Y108.649 E59.69436
G0 F7500 X118.755 Y108.649
G1 F1350 X108.65 Y118.755 E60.16969
G0 F7500 X108.65 Y119.32
G1 F1350 X119.321 Y108.649 E60.67162
G0 F7500 X119.887 Y108.649
G1 F1350 X108.65 Y119.886 E61.20018
G0 F7500 X108.65 Y120.452
G1 F1350 X120.452 Y108.649 E61.75533
G0 F7500 X121.018 Y108.649
G1 F1350 X108.65 Y121.017 E62.33708
G0 F7500 X108.65 Y121.583
G1 F1350 X121.584 Y108.649 E62.94546
G0 F7500 X122.149 Y108.649
G1 F1350 X108.65 Y122.149 E63.58044
G0 F7500 X108.65 Y122.714
G1 F1350 X122.715 Y108.649 E64.24201
G0 F7500 X123.281 Y108.649
G1 F1350 X108.65 Y123.28 E64.93021
G0 F7500 X108.65 Y123.846
G1 F1350 X123.846 Y108.649 E65.645
G0 F7500 X124.412 Y108.649
G1 F1350 X108.65 Y124.411 E66.3864
G0 F7500 X108.65 Y124.977
G1 F1350 X124.978 Y108.649 E67.15442
G0 F7500 X125.543 Y108.649
G1 F1350 X108.65 Y125.543 E67.94904
G0 F7500 X108.65 Y126.108
G1 F1350 X126.109 Y108.649 E68.77026
G0 F7500 X126.349 Y108.975
G1 F1350 X108.975 Y126.349 E69.58747
G0 F7500 X109.541 Y126.349
G1 F1350 X126.349 Y109.541 E70.37807
G0 F7500 X126.349 Y110.107
G1 F1350 X110.107 Y126.349 E71.14205
G0 F7500 X110.672 Y126.349
G1 F1350 X126.349 Y110.672 E71.87944
G0 F7500 X126.349 Y111.238
G1 F1350 X111.238 Y126.349 E72.59022
G0 F7500 X111.804 Y126.349
G1 F1350 X126.349 Y111.804 E73.27437
G0 F7500 X126.349 Y112.369
G1 F1350 X112.369 Y126.349 E73.93195
