;FLAVOR:Marlin
;TIME:506
;Filament used: 0.289697m
;Layer height: 0.2
;MINX:98.69
;MINY:90.537
;MINZ:0.2
;MAXX:127.084
;MAXY:145.26
;MAXZ:6.2
;Generated with Cura_SteamEngine 4.6.1
M140 S50
M105
M190 S50
M104 S200
M105
M109 S200
M82 ;absolute extrusion mode
; Ender 3 Custom Start G-code
G92 E0 ; Reset Extruder
G28 ; Home all axes
G1 Z2.0 F3000 ; Move Z Axis up little to prevent scratching of Heat Bed
G1 X0.1 Y20 Z0.3 F5000.0 ; Move to start position
G1 X0.1 Y200.0 Z0.3 F1500.0 E15 ; Draw the first line
G1 X0.4 Y200.0 Z0.3 F5000.0 ; Move to side a little
G1 X0.4 Y20 Z0.3 F1500.0 E30 ; Draw the second line
G92 E0 ; Reset Extruder
G1 Z2.0 F3000 ; Move Z Axis up little to prevent scratching of Heat Bed
G1 X5 Y20 Z0.3 F5000.0 ; Move over to prevent blob squish
G92 E0
G92 E0
G1 F2700 E-5
;LAYER_COUNT:31
;LAYER:0
M107
G0 F6000 X116.252 Y91.365 Z0.2
;TYPE:SKIRT
G1 F2700 E0
G1 F1200 X117.153 Y91.42 E0.03002
G1 X118.046 Y91.555 E0.06006
G1 X118.924 Y91.769 E0.09012
G1 X119.779 Y92.059 E0.12015
G1 X120.605 Y92.424 E0.15018
G1 X121.396 Y92.86 E0.18022
G1 X122.145 Y93.365 E0.21027
G1 X122.846 Y93.934 E0.2403
G1 X123.494 Y94.562 E0.27031
G1 X124.084 Y95.246 E0.30036
G1 X124.612 Y95.979 E0.3304
G1 X125.072 Y96.756 E0.36043
G1 X125.462 Y97.571 E0.39049
G1 X125.779 Y98.417 E0.42053
G1 X126.019 Y99.287 E0.45055
G1 X126.181 Y100.175 E0.48057
G1 X126.272 Y101.288 E0.51772
G1 X126.284 Y101.887 E0.53764
G1 X126.267 Y108.112 E0.74469
G1 X126.255 Y108.815 E0.76807
G1 X126.229 Y109.377 E0.78678
G1 X126.174 Y110.129 E0.81186
G1 X126.046 Y111.584 E0.86044
G1 X125.895 Y114.114 E0.94474
G1 X125.817 Y116.645 E1.02896
G1 X125.809 Y119.179 E1.11324
G1 X125.875 Y121.749 E1.19875
G1 X126.01 Y124.255 E1.28222
G1 X126.096 Y125.293 E1.31686
G1 X126.175 Y126.403 E1.35388
G1 X126.2 Y126.992 E1.37348
G1 X126.212 Y127.99 E1.40668
G1 X126.195 Y133.703 E1.5967
G1 X126.183 Y134.422 E1.62061
G1 X126.128 Y135.324 E1.65067
G1 X125.993 Y136.217 E1.68071
G1 X125.78 Y137.094 E1.71073
G1 X125.49 Y137.95 E1.74079
G1 X125.126 Y138.776 E1.77081
G1 X124.69 Y139.567 E1.80085
G1 X124.186 Y140.316 E1.83088
G1 X123.617 Y141.018 E1.86093
G1 X122.989 Y141.666 E1.89094
G1 X122.305 Y142.257 E1.92101
G1 X121.573 Y142.785 E1.95103
G1 X120.796 Y143.246 E1.98108
G1 X119.982 Y143.636 E2.0111
G1 X119.136 Y143.953 E2.04115
G1 X118.265 Y144.194 E2.07121
G1 X117.377 Y144.356 E2.10123
G1 X116.237 Y144.449 E2.13927
G1 X115.635 Y144.46 E2.1593
G1 X110.216 Y144.444 E2.33953
G1 X109.533 Y144.432 E2.36225
G1 X108.631 Y144.377 E2.39231
G1 X107.739 Y144.241 E2.42232
G1 X106.861 Y144.027 E2.45238
G1 X106.006 Y143.737 E2.48241
G1 X105.18 Y143.372 E2.51244
G1 X104.389 Y142.935 E2.5425
G1 X103.641 Y142.43 E2.57252
G1 X102.939 Y141.861 E2.60257
G1 X102.291 Y141.232 E2.63261
G1 X101.701 Y140.548 E2.66265
G1 X101.174 Y139.815 E2.69268
G1 X100.714 Y139.038 E2.72271
G1 X100.324 Y138.223 E2.75276
G1 X100.008 Y137.377 E2.7828
G1 X99.768 Y136.507 E2.81282
G1 X99.606 Y135.618 E2.84287
G1 X99.533 Y134.887 E2.86731
G1 X99.511 Y134.544 E2.87874
G1 X99.49 Y133.862 E2.90143
G1 X99.508 Y127.687 E3.10681
G1 X99.52 Y126.98 E3.13033
G1 X99.546 Y126.414 E3.14918
G1 X99.602 Y125.655 E3.17449
G1 X99.735 Y124.144 E3.22494
G1 X99.882 Y121.635 E3.30853
G1 X99.96 Y119.093 E3.39312
G1 X99.967 Y116.558 E3.47744
G1 X99.9 Y113.992 E3.56281
G1 X99.764 Y111.471 E3.64678
G1 X99.603 Y109.428 E3.71494
G1 X99.577 Y108.939 E3.73123
G1 X99.568 Y108.644 E3.74105
G1 X99.563 Y108.305 E3.75232
G1 X99.582 Y102.053 E3.96027
G1 X99.594 Y101.367 E3.98309
G1 X99.649 Y100.465 E4.01314
G1 X99.785 Y99.572 E4.04319
G1 X99.998 Y98.695 E4.0732
G1 X100.289 Y97.84 E4.10324
G1 X100.654 Y97.014 E4.13328
G1 X101.09 Y96.223 E4.16332
G1 X101.595 Y95.474 E4.19336
G1 X102.164 Y94.773 E4.22339
G1 X102.793 Y94.125 E4.25343
G1 X103.477 Y93.535 E4.28347
G1 X104.21 Y93.008 E4.3135
G1 X104.987 Y92.548 E4.34353
G1 X105.802 Y92.158 E4.37358
G1 X106.648 Y91.842 E4.40362
G1 X107.519 Y91.602 E4.43367
G1 X108.407 Y91.439 E4.4637
G1 X109.539 Y91.348 E4.50147
G1 X110.141 Y91.337 E4.5215
G1 X115.407 Y91.351 E4.69664
G1 X116.252 Y91.365 E4.72475
G0 F6000 X116.259 Y90.965
G1 F1200 X117.178 Y91.02 E4.75537
G1 X118.088 Y91.156 E4.78598
G1 X118.984 Y91.37 E4.81662
G1 X119.857 Y91.66 E4.84721
G1 X120.702 Y92.026 E4.87784
G1 X121.512 Y92.463 E4.90845
G1 X122.282 Y92.969 E4.9391
G1 X123.004 Y93.54 E4.96971
G1 X123.674 Y94.172 E5.00035
G1 X124.287 Y94.859 E5.03097
G1 X124.837 Y95.597 E5.06158
G1 X125.322 Y96.379 E5.09219
G1 X125.737 Y97.201 E5.12282
G1 X126.079 Y98.056 E5.15344
G1 X126.346 Y98.937 E5.18406
G1 X126.535 Y99.838 E5.21468
G1 X126.645 Y100.752 E5.2453
G1 X126.672 Y101.278 E5.26282
G1 X126.684 Y101.888 E5.28311
G1 X126.666 Y108.119 E5.49036
G1 X126.654 Y108.822 E5.51374
G1 X126.628 Y109.406 E5.53318
G1 X126.572 Y110.164 E5.55846
G1 X126.445 Y111.607 E5.60664
G1 X126.296 Y114.115 E5.69021
G1 X126.217 Y116.659 E5.77486
G1 X126.209 Y119.17 E5.85838
G1 X126.274 Y121.717 E5.94312
G1 X126.41 Y124.236 E6.02702
G1 X126.495 Y125.264 E6.06133
G1 X126.574 Y126.374 E6.09834
G1 X126.6 Y126.987 E6.11875
G1 X126.612 Y127.991 E6.15215
G1 X126.595 Y133.71 E6.34236
G1 X126.583 Y134.429 E6.36628
G1 X126.527 Y135.348 E6.3969
G1 X126.392 Y136.259 E6.42753
G1 X126.179 Y137.154 E6.45813
G1 X125.889 Y138.028 E6.48876
G1 X125.524 Y138.873 E6.51937
G1 X125.087 Y139.683 E6.54999
G1 X124.581 Y140.453 E6.58063
G1 X124.011 Y141.175 E6.61123
G1 X123.38 Y141.846 E6.64186
G1 X122.693 Y142.459 E6.67249
G1 X121.955 Y143.01 E6.70312
G1 X121.173 Y143.495 E6.73372
G1 X120.351 Y143.911 E6.76437
G1 X119.497 Y144.253 E6.79496
G1 X118.616 Y144.52 E6.82558
G1 X117.715 Y144.71 E6.85621
G1 X116.801 Y144.82 E6.88683
G1 X116.247 Y144.849 E6.90528
G1 X115.634 Y144.86 E6.92567
G1 X110.209 Y144.844 E7.10611
G1 X109.526 Y144.832 E7.12883
G1 X108.607 Y144.776 E7.15945
G1 X107.696 Y144.641 E7.19008
G1 X106.801 Y144.426 E7.2207
G1 X105.927 Y144.135 E7.25133
G1 X105.083 Y143.77 E7.28192
G1 X104.273 Y143.332 E7.31254
G1 X103.504 Y142.826 E7.34316
G1 X102.782 Y142.255 E7.37378
G1 X102.112 Y141.623 E7.40441
G1 X101.499 Y140.936 E7.43504
G1 X100.949 Y140.198 E7.46565
G1 X100.464 Y139.415 E7.49628
G1 X100.05 Y138.593 E7.52689
G1 X99.708 Y137.738 E7.55752
G1 X99.442 Y136.857 E7.58813
G1 X99.253 Y135.955 E7.61878
G1 X99.134 Y134.912 E7.6537
G1 X99.112 Y134.569 E7.66513
G1 X99.09 Y133.861 E7.68869
G1 X99.109 Y127.68 E7.89427
G1 X99.121 Y126.973 E7.91779
G1 X99.147 Y126.385 E7.93737
G1 X99.204 Y125.62 E7.96288
G1 X99.333 Y124.154 E8.01183
G1 X99.483 Y121.6 E8.09692
G1 X99.56 Y119.08 E8.18078
G1 X99.567 Y116.532 E8.26552
G1 X99.502 Y114.022 E8.34903
G1 X99.364 Y111.484 E8.43357
G1 X99.205 Y109.459 E8.50113
G1 X99.177 Y108.951 E8.51805
G1 X99.168 Y108.656 E8.52787
G1 X99.163 Y108.303 E8.53961
G1 X99.182 Y102.046 E8.74772
G1 X99.194 Y101.36 E8.77054
G1 X99.25 Y100.441 E8.80116
G1 X99.385 Y99.53 E8.83179
G1 X99.599 Y98.635 E8.8624
G1 X99.89 Y97.761 E8.89304
G1 X100.256 Y96.916 E8.92367
G1 X100.694 Y96.106 E8.9543
G1 X101.2 Y95.337 E8.98491
G1 X101.771 Y94.615 E9.01553
G1 X102.403 Y93.945 E9.04616
G1 X103.09 Y93.333 E9.07676
G1 X103.828 Y92.782 E9.1074
G1 X104.611 Y92.298 E9.13801
G1 X105.433 Y91.883 E9.16864
G1 X106.287 Y91.541 E9.19924
G1 X107.169 Y91.275 E9.22988
G1 X108.07 Y91.086 E9.2605
G1 X108.984 Y90.976 E9.29112
G1 X109.529 Y90.948 E9.30927
G1 X110.142 Y90.937 E9.32966
G1 X115.408 Y90.951 E9.50481
G1 X116.259 Y90.965 E9.53312
G0 F6000 X116.266 Y90.565
G1 F1200 X117.202 Y90.621 E9.5643
G1 X118.13 Y90.756 E9.59549
G1 X119.043 Y90.971 E9.62669
G1 X119.934 Y91.262 E9.65786
G1 X120.798 Y91.628 E9.68907
G1 X121.627 Y92.066 E9.72026
G1 X122.416 Y92.574 E9.75147
G1 X123.158 Y93.146 E9.78263
G1 X123.85 Y93.78 E9.81385
G1 X124.484 Y94.471 E9.84504
G1 X125.058 Y95.213 E9.87624
G1 X125.566 Y96.001 E9.90742
G1 X126.006 Y96.83 E9.93864
G1 X126.373 Y97.693 E9.96983
G1 X126.665 Y98.584 E10.00101
G1 X126.88 Y99.497 E10.03221
G1 X127.017 Y100.425 E10.06341
G1 X127.072 Y101.267 E10.09148
G1 X127.084 Y101.889 E10.11217
G1 X127.066 Y108.126 E10.31961
G1 X127.054 Y108.829 E10.343
G1 X127.027 Y109.435 E10.36317
G1 X126.971 Y110.199 E10.38865
G1 X126.845 Y111.632 E10.4365
G1 X126.695 Y114.15 E10.52039
G1 X126.617 Y116.672 E10.60432
G1 X126.609 Y119.197 E10.6883
G1 X126.673 Y121.686 E10.77111
G1 X126.807 Y124.181 E10.85421
G1 X126.894 Y125.236 E10.88942
G1 X126.973 Y126.346 E10.92643
G1 X127 Y126.982 E10.94761
G1 X127.012 Y127.993 E10.98124
G1 X126.994 Y133.717 E11.17162
G1 X126.982 Y134.436 E11.19553
G1 X126.927 Y135.372 E11.22672
G1 X126.792 Y136.3 E11.25791
G1 X126.578 Y137.213 E11.2891
G1 X126.287 Y138.105 E11.32031
G1 X125.922 Y138.968 E11.35147
G1 X125.484 Y139.798 E11.38269
G1 X124.977 Y140.587 E11.41388
G1 X124.404 Y141.33 E11.44509
G1 X123.771 Y142.021 E11.47625
G1 X123.081 Y142.656 E11.50744
G1 X122.339 Y143.23 E11.53865
G1 X121.551 Y143.739 E11.56985
G1 X120.723 Y144.179 E11.60103
G1 X119.86 Y144.547 E11.63224
G1 X118.969 Y144.839 E11.66342
G1 X118.056 Y145.055 E11.69463
G1 X117.128 Y145.192 E11.72583
G1 X116.257 Y145.249 E11.75486
G1 X115.633 Y145.26 E11.77562
G1 X110.202 Y145.244 E11.95625
G1 X109.519 Y145.232 E11.97897
G1 X108.583 Y145.176 E12.01016
G1 X107.655 Y145.04 E12.04136
G1 X106.742 Y144.825 E12.07255
G1 X105.85 Y144.534 E12.10376
G1 X104.987 Y144.167 E12.13495
G1 X104.158 Y143.729 E12.16614
G1 X103.369 Y143.221 E12.19735
G1 X102.627 Y142.648 E12.22853
G1 X101.936 Y142.014 E12.25972
G1 X101.301 Y141.323 E12.29093
G1 X100.728 Y140.581 E12.32211
G1 X100.22 Y139.793 E12.3533
G1 X99.781 Y138.964 E12.3845
G1 X99.414 Y138.101 E12.41569
G1 X99.122 Y137.21 E12.44687
G1 X98.907 Y136.297 E12.47807
G1 X98.735 Y134.938 E12.52363
G1 X98.713 Y134.595 E12.53506
G1 X98.69 Y133.86 E12.55952
G1 X98.709 Y127.673 E12.7653
G1 X98.721 Y126.966 E12.78882
G1 X98.748 Y126.356 E12.80913
G1 X98.805 Y125.585 E12.83484
G1 X98.936 Y124.097 E12.88453
G1 X99.083 Y121.598 E12.96779
G1 X99.16 Y119.067 E13.05201
G1 X99.167 Y116.542 E13.13599
G1 X99.102 Y114.055 E13.21873
G1 X98.964 Y111.497 E13.30394
G1 X98.806 Y109.491 E13.37086
G1 X98.777 Y108.963 E13.38845
G1 X98.768 Y108.668 E13.39827
G1 X98.763 Y108.302 E13.41044
G1 X98.782 Y102.039 E13.61875
G1 X98.794 Y101.353 E13.64157
G1 X98.85 Y100.416 E13.67279
G1 X98.986 Y99.488 E13.70399
G1 X99.2 Y98.575 E13.73518
G1 X99.492 Y97.684 E13.76636
G1 X99.858 Y96.821 E13.79754
G1 X100.297 Y95.992 E13.82874
G1 X100.804 Y95.203 E13.85993
G1 X101.377 Y94.46 E13.89114
G1 X102.011 Y93.769 E13.92233
G1 X102.702 Y93.135 E13.95352
G1 X103.444 Y92.561 E13.98472
G1 X104.232 Y92.053 E14.01591
G1 X105.061 Y91.614 E14.04711
G1 X105.924 Y91.247 E14.0783
G1 X106.816 Y90.955 E14.10952
G1 X107.728 Y90.74 E14.14068
G1 X108.656 Y90.604 E14.17188
G1 X109.519 Y90.548 E14.20064
G1 X110.143 Y90.537 E14.2214
G1 X115.409 Y90.551 E14.39655
G1 X116.266 Y90.565 E14.42505
G1 F2700 E9.42505
;MESH:Object 2
G0 F6000 X115.673 Y100.886
G0 X115.67 Y101.965
G0 X115.405 Y108.918
G0 X114.44 Y110.487
G0 X114.399 Y125.317
G0 X115.251 Y126.721
G0 X115.397 Y133.66
;TYPE:WALL-INNER
G1 F2700 E14.42505
G1 F1200 X115.198 Y133.66 E14.43167
G1 X110.49 Y133.646 E14.58826
G1 X110.291 Y133.646 E14.59488
G1 X110.291 Y133.447 E14.59916
G1 X110.309 Y127.319 E14.80298
G1 X111.497 Y125.353 E14.87938
G1 X111.538 Y110.437 E15.37549
G1 X110.362 Y108.462 E15.45194
G1 X110.38 Y102.137 E15.66232
G1 X115.285 Y102.151 E15.82546
G1 X115.484 Y102.151 E15.83208
G1 X115.484 Y102.35 E15.83636
G1 X115.466 Y108.479 E16.04021
G1 X114.392 Y110.257 E16.1093
G1 X114.278 Y110.44 E16.11647
G1 X114.237 Y125.362 E16.61278
G1 X115.414 Y127.336 E16.68922
G1 X115.397 Y133.461 E16.89294
G1 X115.397 Y133.66 E16.89722
G0 F6000 X115.796 Y134.061
;TYPE:WALL-OUTER
G1 F1200 X109.89 Y134.045 E17.09366
G1 X109.909 Y127.207 E17.32109
G1 X111.097 Y125.241 E17.39749
G1 X111.138 Y110.547 E17.88622
G1 X109.962 Y108.572 E17.96267
G1 X109.981 Y101.736 E18.19004
G1 X115.885 Y101.752 E18.3864
G1 X115.866 Y108.591 E18.61387
G1 X114.732 Y110.468 E18.68681
G1 X114.678 Y110.555 E18.69022
G1 X114.637 Y125.252 E19.17904
G1 X115.814 Y127.225 E19.25545
G1 X115.796 Y134.054 E19.48259
G1 X115.796 Y134.061 E19.48282
G0 F6000 X115.527 Y133.79
G0 X115.007 Y133.548
G0 X115.008 Y133.269
;TYPE:SKIN
G1 F1200 X110.683 Y133.257 E19.62667
G1 X110.699 Y127.428 E19.82055
G1 X111.887 Y125.462 E19.89695
G1 X111.928 Y110.33 E20.40024
G1 X110.752 Y108.356 E20.47666
G1 X110.768 Y102.528 E20.6705
G1 X115.092 Y102.54 E20.81432
G1 X115.076 Y108.37 E21.00823
G1 X114.116 Y109.961 E21.07003
G1 X113.888 Y110.329 E21.08443
G1 X113.847 Y125.469 E21.58799
G1 X115.024 Y127.442 E21.6644
G1 X115.008 Y133.269 E21.85821
G0 F6000 X115.007 Y133.548
G0 X111.034 Y133.538
G0 X111.035 Y133.097
G1 F1200 X110.844 Y132.906 E21.86719
G0 F6000 X110.846 Y132.342
G1 F1200 X111.602 Y133.098 E21.90275
G0 F6000 X112.169 Y133.1
G1 F1200 X110.847 Y131.777 E21.96496
G0 F6000 X110.848 Y131.213
G1 F1200 X112.737 Y133.102 E22.05381
G0 F6000 X113.304 Y133.103
G1 F1200 X110.85 Y130.649 E22.16924
G0 F6000 X110.851 Y130.085
G1 F1200 X113.871 Y133.105 E22.31129
G0 F6000 X114.438 Y133.106
G1 F1200 X110.853 Y129.52 E22.47995
G0 F6000 X110.854 Y128.956
G1 F1200 X114.849 Y132.951 E22.66786
G0 F6000 X114.851 Y132.387
G1 F1200 X110.855 Y128.392 E22.85579
G0 F6000 X110.857 Y127.827
G1 F1200 X114.852 Y131.823 E23.04373
G0 F6000 X114.853 Y131.258
G1 F1200 X110.936 Y127.341 E23.22797
G0 F6000 X111.15 Y126.989
G1 F1200 X114.856 Y130.695 E23.40229
G0 F6000 X114.857 Y130.13
G1 F1200 X111.362 Y126.636 E23.56666
G0 F6000 X111.576 Y126.284
G1 F1200 X114.858 Y129.566 E23.72104
G0 F6000 X114.86 Y129.002
G1 F1200 X111.789 Y125.931 E23.86549
G0 F6000 X112.002 Y125.579
G1 F1200 X114.861 Y128.438 E23.99997
G0 F6000 X114.863 Y127.873
G1 F1200 X112.048 Y125.058 E24.13238
G0 F6000 X112.049 Y124.494
G1 F1200 X114.602 Y127.047 E24.25246
G0 F6000 X114.979 Y126.822
G0 X114.144 Y125.422
G0 X113.767 Y125.646
G1 F1200 X112.05 Y123.93 E24.3332
G0 F6000 X112.052 Y123.366
G1 F1200 X113.688 Y125.002 E24.41015
G0 F6000 X113.69 Y124.438
G1 F1200 X112.053 Y122.801 E24.48715
G0 F6000 X112.055 Y122.238
G1 F1200 X113.692 Y123.874 E24.56413
G0 F6000 X113.693 Y123.31
G1 F1200 X112.057 Y121.673 E24.6411
G0 F6000 X112.058 Y121.109
G1 F1200 X113.694 Y122.745 E24.71806
G0 F6000 X113.696 Y122.181
G1 F1200 X112.06 Y120.545 E24.79501
G0 F6000 X112.061 Y119.981
G1 F1200 X113.697 Y121.617 E24.87196
G0 F6000 X113.699 Y121.053
G1 F1200 X112.062 Y119.416 E24.94896
G0 F6000 X112.064 Y118.852
G1 F1200 X113.7 Y120.488 E25.02591
G0 F6000 X113.702 Y119.924
G1 F1200 X112.065 Y118.288 E25.10289
G0 F6000 X112.067 Y117.724
G1 F1200 X113.703 Y119.36 E25.17984
G0 F6000 X113.704 Y118.796
G1 F1200 X112.068 Y117.159 E25.25682
G0 F6000 X112.07 Y116.595
G1 F1200 X113.706 Y118.231 E25.33377
G0 F6000 X113.707 Y117.667
G1 F1200 X112.071 Y116.031 E25.41072
G0 F6000 X112.072 Y115.467
G1 F1200 X113.709 Y117.103 E25.4877
G0 F6000 X113.71 Y116.538
G1 F1200 X112.075 Y114.903 E25.5646
G0 F6000 X112.076 Y114.339
G1 F1200 X113.712 Y115.975 E25.64156
G0 F6000 X113.714 Y115.411
G1 F1200 X112.077 Y113.774 E25.71856
G0 F6000 X112.079 Y113.21
G1 F1200 X113.715 Y114.846 E25.79551
G0 F6000 X113.716 Y114.282
G1 F1200 X112.08 Y112.646 E25.87246
G0 F6000 X112.082 Y112.082
G1 F1200 X113.718 Y113.718 E25.94941
G0 F6000 X113.719 Y113.154
G1 F1200 X112.083 Y111.517 E26.02639
G0 F6000 X112.084 Y110.953
G1 F1200 X113.721 Y112.589 E26.10336
G0 F6000 X113.722 Y112.025
G1 F1200 X112.086 Y110.389 E26.18032
G0 F6000 X111.648 Y110.388
G0 X111.03 Y109.368
G0 X111.406 Y109.144
G1 F1200 X113.723 Y111.461 E26.2893
G0 F6000 X113.725 Y110.896
G1 F1200 X110.911 Y108.082 E26.42166
G0 F6000 X110.913 Y107.519
G1 F1200 X113.726 Y110.332 E26.55398
G0 F6000 X113.924 Y109.965
G1 F1200 X110.914 Y106.954 E26.69558
G0 F6000 X110.916 Y106.39
G1 F1200 X114.139 Y109.613 E26.84718
G0 F6000 X114.351 Y109.26
G1 F1200 X110.917 Y105.826 E27.00871
G0 F6000 X110.918 Y105.262
G1 F1200 X114.564 Y108.907 E27.18018
G0 F6000 X114.777 Y108.555
G1 F1200 X110.921 Y104.698 E27.36158
G0 F6000 X110.922 Y104.134
G1 F1200 X114.915 Y108.127 E27.5494
G0 F6000 X114.916 Y107.562
