;FLAVOR:Marlin
;TIME:5907
;Filament used: 4.44973m
;Layer height: 0.2
;MINX:71.86
;MINY:87.915
;MINZ:0.2
;MAXX:151.955
;MAXY:162.915
;MAXZ:20
;Generated with Cura_SteamEngine 4.6.1
M140 S55
M105
M190 S55
M104 S210
M105
M109 S210
M82 ;absolute extrusion mode
; Ender 3 Custom Start G-code
G92 E0 ; Reset Extruder
G28 ; Home all axes
G1 Z2.0 F3000 ; Move Z Axis up little to prevent scratching of Heat Bed
G1 X0.1 Y20 Z0.3 F5000.0 ; Move to start position
G1 X0.1 Y200.0 Z0.3 F1500.0 E15 ; Draw the first line
G1 X0.4 Y200.0 Z0.3 F5000.0 ; Move to side a little
G1 X0.4 Y20 Z0.3 F1500.0 E30 ; Draw the second line
G92 E0 ; Reset Extruder
G1 Z2.0 F3000 ; Move Z Axis up little to prevent scratching of Heat Bed
G1 X5 Y20 Z0.3 F5000.0 ; Move over to prevent blob squish
G92 E0
G92 E0
G1 F2700 E-5
;LAYER_COUNT:100
;LAYER:0
M107
G0 F6000 X126.015 Y88.726 Z0.2
;TYPE:SKIRT
G1 F2700 E0
G1 F1200 X127.248 Y88.819 E0.04113
G1 X127.761 Y88.889 E0.05835
G1 X128.65 Y89.05 E0.0884
G1 X129.52 Y89.29 E0.11841
G1 X130.366 Y89.605 E0.14844
G1 X131.181 Y89.995 E0.17849
G1 X131.959 Y90.454 E0.20853
G1 X132.692 Y90.981 E0.23856
G1 X133.376 Y91.571 E0.2686
G1 X134.006 Y92.219 E0.29866
G1 X134.575 Y92.919 E0.32867
G1 X135.137 Y93.761 E0.36234
G1 X135.596 Y94.532 E0.39218
G1 X136.183 Y95.546 E0.43115
G1 X137.544 Y97.753 E0.51739
G1 X138.912 Y99.837 E0.6003
G1 X140.371 Y101.926 E0.68505
G1 X141.893 Y103.981 E0.77011
G1 X143.457 Y105.972 E0.85432
G1 X145.069 Y107.908 E0.93811
G1 X146.786 Y109.856 E1.02447
G1 X148.411 Y111.605 E1.10388
G1 X148.996 Y112.293 E1.13392
G1 X149.518 Y113.03 E1.16395
G1 X149.972 Y113.81 E1.19397
G1 X150.356 Y114.628 E1.22403
G1 X150.665 Y115.476 E1.25405
G1 X150.899 Y116.349 E1.28411
G1 X151.055 Y117.238 E1.31413
G1 X151.137 Y118.365 E1.35171
G1 X151.155 Y119.442 E1.38754
G1 X151.154 Y151.319 E2.44777
G1 X151.144 Y152.046 E2.47195
G1 X151.092 Y152.948 E2.502
G1 X150.96 Y153.841 E2.53203
G1 X150.749 Y154.72 E2.56209
G1 X150.462 Y155.576 E2.59212
G1 X150.1 Y156.403 E2.62215
G1 X149.666 Y157.195 E2.65218
G1 X149.164 Y157.946 E2.68223
G1 X148.598 Y158.649 E2.71225
G1 X147.971 Y159.3 E2.74231
G1 X147.29 Y159.892 E2.77232
G1 X146.559 Y160.422 E2.80235
G1 X145.783 Y160.885 E2.83241
G1 X144.97 Y161.278 E2.86244
G1 X144.125 Y161.598 E2.89249
G1 X143.256 Y161.841 E2.92251
G1 X142.368 Y162.006 E2.95255
G1 X141.232 Y162.102 E2.99046
G1 X140.625 Y162.115 E3.01066
G1 X116.016 Y162.114 E3.82916
G1 X115.318 Y162.104 E3.85238
G1 X114.416 Y162.051 E3.88243
G1 X113.523 Y161.919 E3.91245
G1 X112.645 Y161.708 E3.94249
G1 X111.789 Y161.42 E3.97252
G1 X110.962 Y161.058 E4.00255
G1 X110.17 Y160.623 E4.0326
G1 X109.419 Y160.121 E4.06265
G1 X108.716 Y159.554 E4.09269
G1 X108.066 Y158.927 E4.12273
G1 X107.474 Y158.245 E4.15276
G1 X106.944 Y157.514 E4.18279
G1 X106.482 Y156.738 E4.21283
G1 X106.061 Y155.859 E4.24525
G1 X105.532 Y154.601 E4.29064
G1 X104.511 Y152.256 E4.37571
G1 X103.428 Y149.954 E4.46032
G1 X102.297 Y147.71 E4.5439
G1 X101.073 Y145.446 E4.6295
G1 X99.806 Y143.253 E4.71374
G1 X98.477 Y141.098 E4.79795
G1 X97.09 Y138.982 E4.8821
G1 X95.63 Y136.889 E4.96698
G1 X94.121 Y134.848 E5.0514
G1 X92.555 Y132.852 E5.13578
G1 X90.942 Y130.913 E5.21967
G1 X89.241 Y128.982 E5.30526
G1 X87.506 Y127.12 E5.38991
G1 X85.743 Y125.333 E5.4734
G1 X83.912 Y123.577 E5.55778
G1 X82.017 Y121.862 E5.64279
G1 X80.107 Y120.229 E5.72637
G1 X78.105 Y118.611 E5.81198
G1 X77.491 Y118.145 E5.83762
G1 X76.593 Y117.443 E5.87553
G1 X75.907 Y116.856 E5.90556
G1 X75.275 Y116.21 E5.93562
G1 X74.703 Y115.511 E5.96566
G1 X74.195 Y114.765 E5.99568
G1 X73.755 Y113.976 E6.02572
G1 X73.387 Y113.151 E6.05577
G1 X73.093 Y112.297 E6.08581
G1 X72.876 Y111.421 E6.11583
G1 X72.737 Y110.528 E6.14588
G1 X72.681 Y109.752 E6.17176
G1 X72.666 Y109.309 E6.1865
G1 X72.66 Y108.965 E6.19795
G1 X72.66 Y99.453 E6.51432
G1 X72.669 Y98.786 E6.5365
G1 X72.721 Y97.885 E6.56652
G1 X72.853 Y96.991 E6.59658
G1 X73.063 Y96.113 E6.6266
G1 X73.35 Y95.257 E6.65663
G1 X73.712 Y94.429 E6.68669
G1 X74.145 Y93.637 E6.71671
G1 X74.647 Y92.886 E6.74676
G1 X75.213 Y92.183 E6.77677
G1 X75.84 Y91.532 E6.80684
G1 X76.521 Y90.939 E6.83687
G1 X77.252 Y90.409 E6.8669
G1 X78.027 Y89.946 E6.89693
G1 X78.84 Y89.553 E6.92696
G1 X79.685 Y89.233 E6.95701
G1 X80.555 Y88.99 E6.98706
G1 X81.443 Y88.824 E7.0171
G1 X82.582 Y88.728 E7.05512
G1 X83.189 Y88.715 E7.07532
G1 X125.317 Y88.716 E8.4765
G1 X126.015 Y88.726 E8.49972
G0 F6000 X126.021 Y88.326
G1 F1200 X127.302 Y88.422 E8.54244
G1 X127.815 Y88.492 E8.55966
G1 X128.721 Y88.656 E8.59029
G1 X129.609 Y88.898 E8.6209
G1 X130.473 Y89.216 E8.65152
G1 X131.306 Y89.608 E8.68214
G1 X132.102 Y90.071 E8.71277
G1 X132.855 Y90.601 E8.74339
G1 X133.559 Y91.194 E8.77401
G1 X134.209 Y91.847 E8.80465
G1 X134.8 Y92.553 E8.83528
G1 X135.48 Y93.556 E8.87558
G1 X135.943 Y94.331 E8.90561
G1 X136.551 Y95.383 E8.94602
G1 X137.859 Y97.503 E9.02887
G1 X139.258 Y99.634 E9.11366
G1 X140.705 Y101.705 E9.19769
G1 X142.196 Y103.719 E9.28103
G1 X143.781 Y105.736 E9.36635
G1 X145.376 Y107.651 E9.44925
G1 X147.061 Y109.564 E9.53403
G1 X148.704 Y111.332 E9.61431
G1 X149.301 Y112.033 E9.64494
G1 X149.835 Y112.783 E9.67556
G1 X150.301 Y113.577 E9.70618
G1 X150.697 Y114.408 E9.73679
G1 X151.02 Y115.271 E9.76744
G1 X151.266 Y116.158 E9.79806
G1 X151.434 Y117.063 E9.82867
G1 X151.537 Y118.358 E9.87188
G1 X151.555 Y119.442 E9.90794
G1 X151.554 Y151.325 E10.96837
G1 X151.544 Y152.052 E10.99256
G1 X151.491 Y152.971 E11.02317
G1 X151.359 Y153.882 E11.05379
G1 X151.148 Y154.778 E11.0844
G1 X150.861 Y155.653 E11.11503
G1 X150.498 Y156.499 E11.14565
G1 X150.064 Y157.311 E11.17627
G1 X149.56 Y158.082 E11.20691
G1 X148.992 Y158.806 E11.23752
G1 X148.363 Y159.478 E11.26813
G1 X147.678 Y160.093 E11.29875
G1 X146.942 Y160.646 E11.32937
G1 X146.161 Y161.134 E11.36
G1 X145.341 Y161.552 E11.39061
G1 X144.487 Y161.897 E11.42125
G1 X143.607 Y162.166 E11.45185
G1 X142.706 Y162.359 E11.4825
G1 X141.793 Y162.472 E11.5131
G1 X141.243 Y162.502 E11.53142
G1 X140.625 Y162.515 E11.55198
G1 X116.01 Y162.514 E12.37068
G1 X115.312 Y162.504 E12.39389
G1 X114.393 Y162.451 E12.42451
G1 X113.482 Y162.318 E12.45513
G1 X112.586 Y162.107 E12.48575
G1 X111.712 Y161.819 E12.51635
G1 X110.865 Y161.456 E12.547
G1 X110.054 Y161.021 E12.57761
G1 X109.284 Y160.517 E12.60822
G1 X108.56 Y159.948 E12.63885
G1 X107.888 Y159.318 E12.66949
G1 X107.273 Y158.633 E12.7001
G1 X106.72 Y157.897 E12.73072
G1 X106.233 Y157.116 E12.76134
G1 X105.693 Y156.014 E12.80215
G1 X105.216 Y154.879 E12.8431
G1 X104.146 Y152.421 E12.93226
G1 X103.06 Y150.111 E13.01716
G1 X101.945 Y147.901 E13.09949
G1 X100.726 Y145.645 E13.18478
G1 X99.468 Y143.469 E13.26838
G1 X98.134 Y141.305 E13.35293
G1 X96.754 Y139.2 E13.43665
G1 X95.301 Y137.116 E13.52115
G1 X93.812 Y135.104 E13.6044
G1 X92.231 Y133.088 E13.68961
G1 X90.636 Y131.17 E13.77258
G1 X88.965 Y129.274 E13.85664
G1 X87.211 Y127.391 E13.94223
G1 X85.464 Y125.62 E14.02497
G1 X83.632 Y123.864 E14.10937
G1 X81.752 Y122.161 E14.19374
G1 X79.842 Y120.528 E14.27732
G1 X77.862 Y118.929 E14.36197
G1 X77.245 Y118.46 E14.38774
G1 X76.347 Y117.758 E14.42566
G1 X75.647 Y117.16 E14.45628
G1 X75.001 Y116.504 E14.4869
G1 X74.415 Y115.794 E14.51752
G1 X73.893 Y115.035 E14.54816
G1 X73.438 Y114.235 E14.57877
G1 X73.055 Y113.398 E14.60938
G1 X72.746 Y112.531 E14.63999
G1 X72.513 Y111.64 E14.67063
G1 X72.358 Y110.732 E14.70126
G1 X72.281 Y109.766 E14.73349
G1 X72.266 Y109.323 E14.74824
G1 X72.26 Y108.965 E14.76015
G1 X72.26 Y99.448 E15.07668
G1 X72.269 Y98.781 E15.09887
G1 X72.321 Y97.862 E15.12948
G1 X72.453 Y96.951 E15.1601
G1 X72.664 Y96.054 E15.19075
G1 X72.951 Y95.18 E15.22135
G1 X73.314 Y94.333 E15.252
G1 X73.748 Y93.522 E15.28259
G1 X74.251 Y92.751 E15.31321
G1 X74.819 Y92.026 E15.34384
G1 X75.448 Y91.354 E15.37445
G1 X76.133 Y90.739 E15.40507
G1 X76.869 Y90.185 E15.43571
G1 X77.65 Y89.697 E15.46634
G1 X78.47 Y89.279 E15.49695
G1 X79.323 Y88.934 E15.52756
G1 X80.204 Y88.664 E15.5582
G1 X81.104 Y88.472 E15.58881
G1 X82.018 Y88.358 E15.61945
G1 X82.571 Y88.328 E15.63787
G1 X83.189 Y88.315 E15.65843
G1 X125.323 Y88.316 E17.05981
G1 X126.021 Y88.326 E17.08303
G0 F6000 X126.027 Y87.926
G1 F1200 X127.356 Y88.026 E17.12736
G1 X127.869 Y88.096 E17.14458
G1 X128.792 Y88.262 E17.17577
G1 X129.698 Y88.507 E17.20698
G1 X130.579 Y88.827 E17.23816
G1 X131.43 Y89.222 E17.26936
G1 X132.244 Y89.687 E17.30054
G1 X133.016 Y90.22 E17.33175
G1 X133.739 Y90.817 E17.36293
G1 X134.409 Y91.474 E17.39414
G1 X135.02 Y92.185 E17.42532
G1 X135.569 Y92.945 E17.4565
G1 X135.823 Y93.351 E17.47243
G1 X136.289 Y94.131 E17.50265
G1 X136.88 Y95.152 E17.54189
G1 X138.218 Y97.321 E17.62665
G1 X139.576 Y99.392 E17.70902
G1 X141.022 Y101.461 E17.79298
G1 X142.534 Y103.501 E17.87744
G1 X144.07 Y105.457 E17.96015
G1 X145.685 Y107.397 E18.04411
G1 X147.37 Y109.309 E18.12887
G1 X148.997 Y111.06 E18.20837
G1 X149.606 Y111.774 E18.23959
G1 X150.151 Y112.537 E18.27077
G1 X150.63 Y113.343 E18.30196
G1 X151.038 Y114.188 E18.33317
G1 X151.373 Y115.064 E18.36436
G1 X151.631 Y115.965 E18.39553
G1 X151.813 Y116.885 E18.42672
G1 X151.915 Y117.818 E18.45794
G1 X151.937 Y118.351 E18.47568
G1 X151.955 Y119.442 E18.51198
G1 X151.954 Y151.33 E19.57257
G1 X151.944 Y152.057 E19.59676
G1 X151.891 Y152.994 E19.62797
G1 X151.759 Y153.922 E19.65915
G1 X151.548 Y154.836 E19.69035
G1 X151.259 Y155.728 E19.72153
G1 X150.896 Y156.593 E19.75273
G1 X150.461 Y157.424 E19.78393
G1 X149.956 Y158.214 E19.81512
G1 X149.386 Y158.959 E19.84632
G1 X148.755 Y159.653 E19.87751
G1 X148.066 Y160.29 E19.90872
G1 X147.326 Y160.866 E19.93991
G1 X146.54 Y161.377 E19.97109
G1 X145.713 Y161.819 E20.00228
G1 X144.851 Y162.189 E20.03348
G1 X143.961 Y162.484 E20.06467
G1 X143.049 Y162.703 E20.09586
G1 X142.122 Y162.843 E20.12704
G1 X141.254 Y162.902 E20.15598
G1 X140.625 Y162.915 E20.17691
G1 X116.004 Y162.914 E20.9958
G1 X115.306 Y162.904 E21.01902
G1 X114.37 Y162.85 E21.0502
G1 X113.442 Y162.718 E21.08138
G1 X112.528 Y162.506 E21.11259
G1 X111.636 Y162.217 E21.14377
G1 X110.771 Y161.854 E21.17497
G1 X109.941 Y161.418 E21.20616
G1 X109.15 Y160.913 E21.23737
G1 X108.406 Y160.342 E21.26856
G1 X107.713 Y159.71 E21.29976
G1 X107.076 Y159.022 E21.33094
G1 X106.501 Y158.281 E21.36214
G1 X105.99 Y157.495 E21.39332
G1 X105.548 Y156.667 E21.42454
G1 X105.324 Y156.169 E21.4427
G1 X104.795 Y154.911 E21.48809
G1 X103.795 Y152.614 E21.57142
G1 X102.719 Y150.327 E21.65548
G1 X101.557 Y148.023 E21.74131
G1 X100.401 Y145.883 E21.8222
G1 X99.109 Y143.647 E21.9081
G1 X97.819 Y141.555 E21.98984
G1 X96.397 Y139.386 E22.0761
G1 X94.996 Y137.377 E22.15757
G1 X93.491 Y135.343 E22.24172
G1 X91.924 Y133.346 E22.32615
G1 X90.312 Y131.407 E22.41002
G1 X88.656 Y129.527 E22.49335
G1 X86.951 Y127.697 E22.57654
G1 X85.185 Y125.907 E22.66017
G1 X83.351 Y124.148 E22.74469
G1 X81.489 Y122.463 E22.82821
G1 X79.576 Y120.827 E22.91193
G1 X77.634 Y119.259 E22.99495
G1 X76.998 Y118.775 E23.02153
G1 X76.1 Y118.073 E23.05944
G1 X75.387 Y117.465 E23.09061
G1 X74.728 Y116.797 E23.12182
G1 X74.128 Y116.077 E23.15299
G1 X73.591 Y115.307 E23.18422
G1 X73.122 Y114.495 E23.2154
G1 X72.724 Y113.646 E23.24659
G1 X72.4 Y112.766 E23.27778
G1 X72.152 Y111.861 E23.30899
G1 X71.982 Y110.939 E23.34017
G1 X71.881 Y109.779 E23.3789
G1 X71.866 Y109.336 E23.39364
G1 X71.86 Y108.965 E23.40598
G1 X71.86 Y99.443 E23.72269
G1 X71.869 Y98.776 E23.74487
G1 X71.922 Y97.839 E23.77609
G1 X72.054 Y96.911 E23.80726
G1 X72.265 Y95.997 E23.83846
G1 X72.553 Y95.104 E23.86967
G1 X72.915 Y94.239 E23.90086
G1 X73.351 Y93.409 E23.93204
G1 X73.855 Y92.618 E23.96324
G1 X74.425 Y91.873 E23.99444
G1 X75.056 Y91.18 E24.02561
G1 X75.744 Y90.542 E24.05682
G1 X76.484 Y89.966 E24.08801
G1 X77.271 Y89.455 E24.11922
G1 X78.097 Y89.012 E24.15039
G1 X78.959 Y88.642 E24.18159
G1 X79.849 Y88.346 E24.21279
G1 X80.761 Y88.128 E24.24397
G1 X81.689 Y87.987 E24.27519
G1 X82.56 Y87.928 E24.30423
G1 X83.189 Y87.915 E24.32516
G1 X125.329 Y87.916 E25.72674
G1 X126.027 Y87.926 E25.74996
G1 F2700 E20.74996
;MESH:Object 3
G0 F6000 X125.478 Y98.25
G0 X125.478 Y99.405
G0 X83.641 Y99.697
G0 X83.641 Y108.625
G0 X116.192 Y108.58
G0 X116.055 Y151.315
;TYPE:WALL-INNER
G1 F2700 E25.74996
G1 F1200 X116.055 Y135.954 E26.26086
G1 X116.009 Y125.627 E26.60435
G1 X116.01 Y108.961 E27.15866
G1 X116.01 Y108.762 E27.16528
G1 X115.811 Y108.762 E27.16956
G1 X114.873 Y108.762 E27.20076
G1 X107.618 Y108.785 E27.44206
G1 X95.605 Y108.79 E27.84162
G1 X83.658 Y108.807 E28.23897
G1 X83.459 Y108.807 E28.24559
G1 X83.459 Y108.608 E28.24988
G1 X83.459 Y99.515 E28.55231
G1 X125.278 Y99.515 E29.94322
G1 X125.278 Y99.585 E29.94554
G1 X125.788 Y99.585 E29.96251
G1 X125.788 Y99.657 E29.9649
G1 X125.801 Y99.762 E29.96842
G1 X125.788 Y99.815 E29.97023
G1 X125.788 Y101.371 E30.02199
G1 X125.765 Y101.63 E30.03064
G1 X125.765 Y102.513 E30.06
G1 X125.744 Y103.109 E30.07984
G1 X125.627 Y103.187 E30.08452
G1 X125.744 Y103.528 E30.09651
G1 X125.744 Y142.511 E31.39309
G1 X128.868 Y142.511 E31.49699
G1 X129.067 Y142.511 E31.50361
G1 X129.067 Y142.312 E31.50789
G1 X129.064 Y140.51 E31.56783
G1 X129.084 Y140.51 E31.56849
G1 X129.084 Y132.013 E31.8511
G1 X129.064 Y119.327 E32.27304
G1 X129.064 Y119.128 E32.27966
G1 X129.263 Y119.128 E32.28394
G1 X138.067 Y119.128 E32.57677
G1 X140.355 Y119.145 E32.65287
G1 X140.355 Y151.315 E33.72285
G1 X116.055 Y151.315 E34.53107
G0 F6000 X115.655 Y151.715
;TYPE:WALL-OUTER
G1 F1200 X115.655 Y135.955 E35.05525
G1 X115.609 Y125.627 E35.39876
G1 X115.61 Y109.162 E35.94639
G1 X114.874 Y109.162 E35.97087
G1 X107.619 Y109.185 E36.21217
G1 X95.605 Y109.19 E36.61176
G1 X83.059 Y109.208 E37.02904
G1 X83.059 Y99.115 E37.36474
G1 X125.678 Y99.115 E38.78225
G1 X125.678 Y99.185 E38.78458
G1 X126.188 Y99.185 E38.80154
G1 X126.188 Y99.631 E38.81638
G1 X126.208 Y99.786 E38.82157
G1 X126.188 Y99.865 E38.82428
G1 X126.188 Y101.384 E38.87481
G1 X126.165 Y101.647 E38.88359
G1 X126.165 Y102.529 E38.91292
G1 X126.144 Y103.052 E38.93033
G1 X126.144 Y103.323 E38.93934
G1 X126.105 Y103.349 E38.9409
G1 X126.144 Y103.463 E38.94491
G1 X126.144 Y142.111 E40.23035
G1 X128.666 Y142.111 E40.31423
G1 X128.663 Y140.11 E40.38078
G1 X128.684 Y140.11 E40.38148
G1 X128.684 Y132.013 E40.65079
G1 X128.663 Y118.728 E41.09265
G1 X138.07 Y118.728 E41.40553
G1 X140.755 Y118.748 E41.49484
G1 X140.755 Y151.715 E42.59132
G1 X115.655 Y151.715 E43.42615
G0 F6000 X115.925 Y151.445
G0 X116.165 Y150.925
G0 X116.445 Y150.925
;TYPE:SKIN
G1 F1200 X116.445 Y135.954 E43.92409
G1 X116.399 Y125.627 E44.26757
G1 X116.4 Y108.372 E44.84147
G1 X114.873 Y108.372 E44.89226
G1 X107.618 Y108.395 E45.13357
G1 X95.605 Y108.4 E45.53312
G1 X83.849 Y108.417 E45.92413
G1 X83.849 Y99.905 E46.20724
G1 X124.888 Y99.905 E47.5722
G1 X124.888 Y99.975 E47.57453
G1 X125.398 Y99.975 E47.59149
G1 X125.398 Y101.358 E47.63749
G1 X125.375 Y101.613 E47.646
G1 X125.375 Y102.499 E47.67547
G1 X125.361 Y102.896 E47.68869
G1 X125.161 Y103.029 E47.69667
G1 X125.354 Y103.594 E47.71653
G1 X125.354 Y142.901 E49.02389
G1 X129.457 Y142.901 E49.16035
G1 X129.454 Y140.9 E49.22691
G1 X129.474 Y140.9 E49.22757
G1 X129.474 Y132.013 E49.52316
G1 X129.454 Y119.518 E49.93874
G1 X138.065 Y119.518 E50.22515
G1 X139.965 Y119.533 E50.28834
G1 X139.965 Y150.925 E51.33244
G1 X116.445 Y150.925 E52.11472
G0 F6000 X116.823 Y150.764
G1 F1200 X116.605 Y150.546 E52.12498
G0 F6000 X116.605 Y149.98
G1 F1200 X117.388 Y150.764 E52.16183
G0 F6000 X117.954 Y150.764
G1 F1200 X116.605 Y149.415 E52.22528
G0 F6000 X116.605 Y148.849
G1 F1200 X118.52 Y150.764 E52.31536
G0 F6000 X119.085 Y150.764
G1 F1200 X116.605 Y148.283 E52.43203
G0 F6000 X116.605 Y147.718
G1 F1200 X119.651 Y150.764 E52.57531
G0 F6000 X120.217 Y150.764
G1 F1200 X116.605 Y147.152 E52.7452
G0 F6000 X116.605 Y146.586
G1 F1200 X120.783 Y150.764 E52.94173
G0 F6000 X121.348 Y150.764
G1 F1200 X116.605 Y146.021 E53.16482
G0 F6000 X116.605 Y145.455
G1 F1200 X121.914 Y150.764 E53.41454
G0 F6000 X122.48 Y150.764
G1 F1200 X116.605 Y144.889 E53.69088
G0 F6000 X116.605 Y144.324
G1 F1200 X123.045 Y150.764 E53.9938
G0 F6000 X123.611 Y150.764
G1 F1200 X116.605 Y143.758 E54.32334
G0 F6000 X116.605 Y143.192
