;FLAVOR:Marlin
;TIME:8448
;Filament used: 4.71053m
;Layer height: 0.2
;MINX:35.407
;MINY:57.468
;MINZ:0.2
;MAXX:197.407
;MAXY:164.384
;MAXZ:40
;Generated with Cura_SteamEngine 4.6.1
M140 S55
M105
M190 S55
M104 S210
M105
M109 S210
M82 ;absolute extrusion mode
; Ender 3 Custom Start G-code
G92 E0 ; Reset Extruder
G28 ; Home all axes
G1 Z2.0 F3000 ; Move Z Axis up little to prevent scratching of Heat Bed
G1 X0.1 Y20 Z0.3 F5000.0 ; Move to start position
G1 X0.1 Y200.0 Z0.3 F1500.0 E15 ; Draw the first line
G1 X0.4 Y200.0 Z0.3 F5000.0 ; Move to side a little
G1 X0.4 Y20 Z0.3 F1500.0 E30 ; Draw the second line
G92 E0 ; Reset Extruder
G1 Z2.0 F3000 ; Move Z Axis up little to prevent scratching of Heat Bed
G1 X5 Y20 Z0.3 F5000.0 ; Move over to prevent blob squish
G92 E0
G92 E0
G1 F2700 E-5
;LAYER_COUNT:200
;LAYER:0
M107
G0 F6000 X122.453 Y58.451 Z0.2
;TYPE:SKIRT
G1 F2700 E0
G1 F1200 X123.332 Y58.66 E0.03005
G1 X124.188 Y58.947 E0.06008
G1 X125.016 Y59.308 E0.09012
G1 X125.808 Y59.741 E0.12014
G1 X126.258 Y60.03 E0.13793
G1 X128.453 Y61.521 E0.22619
G1 X130.607 Y62.898 E0.31122
G1 X132.762 Y64.191 E0.39481
G1 X135.009 Y65.455 E0.48055
G1 X137.246 Y66.631 E0.56461
G1 X139.521 Y67.746 E0.64888
G1 X141.835 Y68.799 E0.73344
G1 X144.22 Y69.806 E0.81954
G1 X146.544 Y70.708 E0.90246
G1 X148.916 Y71.554 E0.98622
G1 X151.378 Y72.354 E1.07232
G1 X153.774 Y73.059 E1.15539
G1 X156.243 Y73.71 E1.24031
G1 X158.741 Y74.294 E1.32564
G1 X161.218 Y74.797 E1.4097
G1 X163.688 Y75.228 E1.4931
G1 X166.234 Y75.598 E1.57867
G1 X168.755 Y75.892 E1.66309
G1 X171.261 Y76.114 E1.74676
G1 X173.809 Y76.265 E1.83166
G1 X176.364 Y76.346 E1.91668
G1 X177.886 Y76.36 E1.9673
G1 X185.912 Y76.37 E2.23425
G1 X186.579 Y76.382 E2.25644
G1 X187.481 Y76.438 E2.2865
G1 X188.374 Y76.574 E2.31654
G1 X189.251 Y76.788 E2.34657
G1 X190.106 Y77.079 E2.3766
G1 X190.932 Y77.444 E2.40664
G1 X191.722 Y77.881 E2.43667
G1 X192.471 Y78.386 E2.46671
G1 X193.172 Y78.956 E2.49676
G1 X193.82 Y79.585 E2.5268
G1 X194.409 Y80.269 E2.55682
G1 X194.936 Y81.003 E2.58688
G1 X195.396 Y81.78 E2.61691
G1 X195.785 Y82.595 E2.64694
G1 X196.101 Y83.441 E2.67698
G1 X196.341 Y84.312 E2.70703
G1 X196.502 Y85.2 E2.73705
G1 X196.59 Y86.239 E2.77173
G1 X196.6 Y86.538 E2.78168
G1 X196.606 Y86.887 E2.79329
G1 X196.602 Y90.978 E2.92936
G1 X196.581 Y92.362 E2.97539
G1 X196.571 Y93.841 E3.02459
G1 X196.606 Y146.671 E4.78172
G1 X196.607 Y152.763 E4.98434
G1 X196.598 Y153.49 E5.00852
G1 X196.547 Y154.392 E5.03857
G1 X196.416 Y155.286 E5.06862
G1 X196.207 Y156.164 E5.09864
G1 X195.921 Y157.021 E5.12869
G1 X195.56 Y157.849 E5.15873
G1 X195.128 Y158.641 E5.18874
G1 X194.627 Y159.393 E5.21879
G1 X194.061 Y160.097 E5.24884
G1 X193.436 Y160.748 E5.27885
G1 X192.755 Y161.342 E5.30891
G1 X192.024 Y161.873 E5.33896
G1 X191.25 Y162.337 E5.36897
G1 X190.437 Y162.731 E5.39902
G1 X189.593 Y163.051 E5.42904
G1 X188.723 Y163.296 E5.45911
G1 X187.836 Y163.462 E5.48912
G1 X186.685 Y163.56 E5.52754
G1 X186.078 Y163.573 E5.54773
G1 X182.033 Y163.572 E5.68227
G1 X181.334 Y163.562 E5.70552
G1 X180.433 Y163.509 E5.73554
G1 X179.476 Y163.364 E5.76774
G1 X176.737 Y162.815 E5.86065
G1 X174.238 Y162.388 E5.94497
G1 X171.699 Y162.027 E6.03027
G1 X169.198 Y161.743 E6.11398
G1 X166.642 Y161.526 E6.1993
G1 X164.115 Y161.384 E6.28348
G1 X161.58 Y161.313 E6.36783
G1 X159.046 Y161.313 E6.45211
G1 X156.482 Y161.386 E6.53743
G1 X153.976 Y161.529 E6.62091
G1 X151.458 Y161.744 E6.70496
G1 X148.894 Y162.036 E6.79079
G1 X146.412 Y162.389 E6.87418
G1 X143.89 Y162.823 E6.95929
G1 X142.438 Y163.119 E7.00858
G1 X141.04 Y163.386 E7.05592
G1 X140.147 Y163.516 E7.08593
G1 X139.44 Y163.562 E7.1095
G1 X138.801 Y163.577 E7.13076
G1 X134.756 Y163.576 E7.26529
G1 X134.059 Y163.566 E7.28848
G1 X133.157 Y163.513 E7.31853
G1 X132.354 Y163.398 E7.34551
G1 X131.385 Y163.219 E7.37828
G1 X128.854 Y162.785 E7.46369
G1 X126.324 Y162.425 E7.54869
G1 X123.819 Y162.139 E7.63255
G1 X121.299 Y161.925 E7.71667
G1 X118.738 Y161.78 E7.80198
G1 X116.204 Y161.708 E7.8863
G1 X113.671 Y161.708 E7.97054
G1 X111.127 Y161.78 E8.05519
G1 X108.582 Y161.923 E8.13997
G1 X106.074 Y162.137 E8.22369
G1 X103.513 Y162.428 E8.30942
G1 X101.034 Y162.78 E8.3927
G1 X98.517 Y163.211 E8.47763
G1 X97.784 Y163.354 E8.50247
G1 X96.633 Y163.51 E8.5411
G1 X96.134 Y163.549 E8.55775
G1 X95.339 Y163.58 E8.58421
G1 X91.294 Y163.579 E8.71875
G1 X90.595 Y163.569 E8.742
G1 X89.694 Y163.516 E8.77202
G1 X88.885 Y163.4 E8.7992
G1 X87.164 Y163.082 E8.85741
G1 X84.607 Y162.653 E8.94365
G1 X82.089 Y162.306 E9.02819
G1 X79.598 Y162.033 E9.11154
G1 X77.021 Y161.823 E9.19753
G1 X74.505 Y161.692 E9.28133
G1 X71.963 Y161.63 E9.3659
G1 X69.435 Y161.639 E9.44998
G1 X66.859 Y161.723 E9.53571
G1 X64.368 Y161.874 E9.61871
G1 X61.799 Y162.103 E9.70449
G1 X59.302 Y162.396 E9.78811
G1 X56.83 Y162.759 E9.87121
G1 X53.219 Y163.411 E9.99326
G1 X52.324 Y163.532 E10.0233
G1 X51.741 Y163.568 E10.04272
G1 X51.406 Y163.579 E10.05387
G1 X51.071 Y163.584 E10.06502
G1 X47.027 Y163.583 E10.19952
G1 X46.329 Y163.573 E10.22274
G1 X45.427 Y163.52 E10.25279
G1 X44.534 Y163.388 E10.28281
G1 X43.656 Y163.177 E10.31285
G1 X42.8 Y162.889 E10.34289
G1 X41.973 Y162.527 E10.37291
G1 X41.181 Y162.092 E10.40297
G1 X40.43 Y161.59 E10.43301
G1 X39.727 Y161.023 E10.46305
G1 X39.077 Y160.396 E10.49309
G1 X38.485 Y159.714 E10.52313
G1 X37.955 Y158.983 E10.55316
G1 X37.493 Y158.207 E10.58319
G1 X37.1 Y157.394 E10.61323
G1 X36.782 Y156.549 E10.64326
G1 X36.539 Y155.679 E10.6733
G1 X36.406 Y155.011 E10.69596
G1 X36.285 Y154.116 E10.72599
G1 X36.245 Y153.313 E10.75274
G1 X36.24 Y152.842 E10.7684
G1 X36.207 Y98.509 E12.57552
G1 X36.208 Y86.993 E12.95855
G1 X36.218 Y86.304 E12.98147
G1 X36.271 Y85.402 E13.01152
G1 X36.404 Y84.509 E13.04155
G1 X36.615 Y83.631 E13.07158
G1 X36.903 Y82.775 E13.10162
G1 X37.265 Y81.948 E13.13165
G1 X37.7 Y81.156 E13.1617
G1 X38.202 Y80.406 E13.19172
G1 X38.769 Y79.703 E13.22176
G1 X39.396 Y79.053 E13.2518
G1 X40.078 Y78.461 E13.28183
G1 X40.81 Y77.931 E13.31189
G1 X41.586 Y77.469 E13.34193
G1 X42.399 Y77.077 E13.37195
G1 X43.244 Y76.758 E13.40199
G1 X44.114 Y76.515 E13.43203
G1 X45.002 Y76.351 E13.46207
G1 X46.118 Y76.256 E13.49932
G1 X46.391 Y76.248 E13.5084
G1 X46.699 Y76.244 E13.51865
G1 X63.155 Y76.258 E14.06598
G1 X65.768 Y76.223 E14.15289
G1 X68.298 Y76.118 E14.23711
G1 X70.824 Y75.942 E14.32133
G1 X73.378 Y75.69 E14.40669
G1 X75.861 Y75.374 E14.48994
G1 X78.4 Y74.978 E14.57541
G1 X80.886 Y74.519 E14.65949
G1 X83.364 Y73.987 E14.74379
G1 X85.819 Y73.388 E14.82784
G1 X88.288 Y72.711 E14.91299
G1 X90.701 Y71.975 E14.9969
G1 X93.142 Y71.154 E15.08255
G1 X95.502 Y70.286 E15.16619
G1 X97.847 Y69.346 E15.25022
G1 X100.21 Y68.321 E15.33589
G1 X102.492 Y67.254 E15.41967
G1 X104.787 Y66.1 E15.50511
G1 X106.988 Y64.915 E15.58825
G1 X109.205 Y63.638 E15.67335
G1 X111.345 Y62.324 E15.75687
G1 X114.405 Y60.3 E15.8789
G1 X114.708 Y60.09 E15.89116
G1 X115.472 Y59.608 E15.9212
G1 X116.275 Y59.196 E15.95122
G1 X117.112 Y58.856 E15.98127
G1 X117.975 Y58.591 E16.0113
G1 X118.859 Y58.404 E16.04135
G1 X119.755 Y58.296 E16.07136
G1 X120.658 Y58.268 E16.10141
G1 X121.56 Y58.319 E16.13146
G1 X122.453 Y58.451 E16.16149
G0 F6000 X122.37 Y58.029
G1 F1200 X123.269 Y58.228 E16.19211
G1 X124.147 Y58.504 E16.22272
G1 X124.998 Y58.856 E16.25335
G1 X125.815 Y59.28 E16.28397
G1 X126.483 Y59.699 E16.31019
G1 X128.672 Y61.186 E16.39821
G1 X130.823 Y62.561 E16.48312
G1 X132.984 Y63.858 E16.56695
G1 X135.184 Y65.095 E16.65089
G1 X137.43 Y66.275 E16.73528
G1 X139.684 Y67.381 E16.81878
G1 X142.007 Y68.438 E16.90367
G1 X144.355 Y69.429 E16.98844
G1 X146.687 Y70.334 E17.07163
G1 X149.068 Y71.183 E17.15571
G1 X151.467 Y71.963 E17.23961
G1 X153.883 Y72.674 E17.32338
G1 X156.365 Y73.328 E17.40875
G1 X158.807 Y73.899 E17.49216
G1 X161.296 Y74.405 E17.57664
G1 X163.743 Y74.831 E17.65925
G1 X166.271 Y75.199 E17.74422
G1 X168.8 Y75.494 E17.8289
G1 X171.321 Y75.717 E17.91308
G1 X173.808 Y75.865 E17.99594
G1 X176.38 Y75.946 E18.08153
G1 X177.89 Y75.96 E18.13175
G1 X185.92 Y75.97 E18.39883
G1 X186.587 Y75.982 E18.42102
G1 X187.506 Y76.038 E18.45164
G1 X188.416 Y76.174 E18.48225
G1 X189.311 Y76.389 E18.51286
G1 X190.185 Y76.68 E18.5435
G1 X191.029 Y77.046 E18.5741
G1 X191.839 Y77.484 E18.60472
G1 X192.608 Y77.991 E18.63536
G1 X193.33 Y78.562 E18.66598
G1 X193.999 Y79.194 E18.69659
G1 X194.612 Y79.882 E18.72723
G1 X195.162 Y80.62 E18.75785
G1 X195.646 Y81.403 E18.78846
G1 X196.06 Y82.225 E18.81908
G1 X196.402 Y83.08 E18.8497
G1 X196.668 Y83.962 E18.88034
G1 X196.856 Y84.863 E18.91096
G1 X196.99 Y86.226 E18.95651
G1 X197 Y86.525 E18.96646
G1 X197.006 Y86.887 E18.9785
G1 X197.002 Y90.984 E19.11477
G1 X196.981 Y92.368 E19.16081
G1 X196.971 Y93.844 E19.2099
G1 X197.006 Y146.671 E20.96693
G1 X197.007 Y152.768 E21.16972
G1 X196.998 Y153.495 E21.1939
G1 X196.947 Y154.414 E21.22451
G1 X196.816 Y155.326 E21.25516
G1 X196.606 Y156.222 E21.28577
G1 X196.32 Y157.097 E21.31638
G1 X195.959 Y157.944 E21.34701
G1 X195.525 Y158.756 E21.37763
G1 X195.023 Y159.528 E21.40826
G1 X194.455 Y160.253 E21.43889
G1 X193.827 Y160.926 E21.46951
G1 X193.143 Y161.542 E21.50012
G1 X192.408 Y162.096 E21.53074
G1 X191.628 Y162.585 E21.56136
G1 X190.808 Y163.004 E21.59198
G1 X189.955 Y163.35 E21.6226
G1 X189.075 Y163.621 E21.65322
G1 X188.175 Y163.814 E21.68384
G1 X187.261 Y163.929 E21.71448
G1 X186.696 Y163.96 E21.7333
G1 X186.078 Y163.973 E21.75386
G1 X182.027 Y163.972 E21.8886
G1 X181.328 Y163.962 E21.91185
G1 X180.409 Y163.909 E21.94246
G1 X179.397 Y163.756 E21.9765
G1 X176.662 Y163.208 E22.06928
G1 X174.18 Y162.783 E22.15303
G1 X171.634 Y162.421 E22.23856
G1 X169.152 Y162.14 E22.32164
G1 X166.624 Y161.925 E22.40603
G1 X164.116 Y161.784 E22.48958
G1 X161.569 Y161.713 E22.57432
G1 X159.058 Y161.713 E22.65784
G1 X156.514 Y161.786 E22.74249
G1 X153.999 Y161.929 E22.82627
G1 X151.466 Y162.145 E22.91083
G1 X148.959 Y162.43 E22.99475
G1 X146.464 Y162.786 E23.07857
G1 X143.977 Y163.213 E23.1625
G1 X142.514 Y163.512 E23.21216
G1 X141.116 Y163.779 E23.2595
G1 X140.205 Y163.912 E23.29012
G1 X139.452 Y163.962 E23.31522
G1 X138.801 Y163.977 E23.33688
G1 X134.75 Y163.976 E23.47162
G1 X134.053 Y163.966 E23.4948
G1 X133.134 Y163.913 E23.52542
G1 X132.281 Y163.791 E23.55408
G1 X131.386 Y163.626 E23.58435
G1 X128.768 Y163.177 E23.6727
G1 X126.289 Y162.824 E23.75598
G1 X123.776 Y162.538 E23.8401
G1 X121.243 Y162.322 E23.92466
G1 X118.738 Y162.18 E24.00811
G1 X116.193 Y162.108 E24.09279
G1 X113.682 Y162.108 E24.1763
G1 X111.127 Y162.18 E24.26132
G1 X108.637 Y162.32 E24.34426
G1 X106.081 Y162.538 E24.42959
G1 X103.617 Y162.818 E24.51207
G1 X101.081 Y163.178 E24.59726
G1 X98.538 Y163.614 E24.68307
G1 X97.861 Y163.746 E24.70602
G1 X96.664 Y163.909 E24.7462
G1 X96.165 Y163.948 E24.76284
G1 X95.339 Y163.98 E24.79034
G1 X91.288 Y163.979 E24.92507
G1 X90.589 Y163.969 E24.94832
G1 X89.67 Y163.916 E24.97894
G1 X88.813 Y163.793 E25.00774
G1 X87.092 Y163.475 E25.06595
G1 X84.557 Y163.05 E25.15144
G1 X82.062 Y162.706 E25.23521
G1 X79.52 Y162.427 E25.32026
G1 X77.004 Y162.223 E25.40422
G1 X74.51 Y162.092 E25.48728
G1 X71.954 Y162.03 E25.57232
G1 X69.415 Y162.039 E25.65677
G1 X66.932 Y162.12 E25.7394
G1 X64.36 Y162.276 E25.8251
G1 X61.88 Y162.497 E25.90791
G1 X59.336 Y162.796 E25.99311
G1 X56.869 Y163.158 E26.07604
G1 X53.29 Y163.804 E26.197
G1 X52.378 Y163.928 E26.22762
G1 X51.754 Y163.967 E26.24841
G1 X51.419 Y163.978 E26.25956
G1 X51.071 Y163.984 E26.27113
G1 X47.021 Y163.983 E26.40584
G1 X46.323 Y163.973 E26.42906
G1 X45.404 Y163.92 E26.45967
G1 X44.493 Y163.787 E26.49029
G1 X43.597 Y163.576 E26.52091
G1 X42.723 Y163.288 E26.55152
G1 X41.876 Y162.925 E26.58217
G1 X41.065 Y162.49 E26.61278
G1 X40.295 Y161.986 E26.64338
G1 X39.571 Y161.417 E26.67401
G1 X38.899 Y160.787 E26.70465
G1 X38.284 Y160.102 E26.73527
G1 X37.731 Y159.366 E26.76589
G1 X37.244 Y158.585 E26.7965
G1 X36.827 Y157.764 E26.82713
G1 X36.482 Y156.91 E26.85776
G1 X36.213 Y156.03 E26.88837
G1 X36.043 Y155.254 E26.91479
G1 X36.012 Y155.082 E26.9206
G1 X35.888 Y154.17 E26.95121
G1 X35.845 Y153.318 E26.97959
G1 X35.84 Y152.842 E26.99542
G1 X35.807 Y98.509 E28.80254
G1 X35.808 Y86.987 E29.18577
G1 X35.818 Y86.298 E29.20868
G1 X35.871 Y85.379 E29.2393
G1 X36.004 Y84.468 E29.26992
G1 X36.216 Y83.572 E29.30055
G1 X36.504 Y82.698 E29.33115
G1 X36.867 Y81.852 E29.36177
G1 X37.302 Y81.04 E29.39241
G1 X37.806 Y80.27 E29.42302
G1 X38.375 Y79.546 E29.45365
G1 X39.005 Y78.874 E29.48428
G1 X39.69 Y78.26 E29.51488
G1 X40.427 Y77.707 E29.54553
G1 X41.208 Y77.22 E29.57614
G1 X42.029 Y76.803 E29.60677
G1 X42.883 Y76.459 E29.63739
G1 X43.763 Y76.19 E29.66799
G1 X44.664 Y75.998 E29.69863
G1 X45.577 Y75.885 E29.72923
G1 X46.107 Y75.857 E29.74688
G1 X46.699 Y75.844 E29.76658
G1 X63.15 Y75.858 E30.31374
G1 X65.747 Y75.823 E30.40013
G1 X68.287 Y75.718 E30.48468
G1 X70.793 Y75.543 E30.56823
G1 X73.321 Y75.294 E30.65272
G1 X75.826 Y74.975 E30.73671
G1 X78.297 Y74.59 E30.81989
G1 X80.835 Y74.121 E30.90573
G1 X83.257 Y73.601 E30.98812
G1 X85.733 Y72.997 E31.07289
G1 X88.172 Y72.328 E31.15701
G1 X90.584 Y71.592 E31.24088
G1 X92.993 Y70.782 E31.32541
G1 X95.383 Y69.903 E31.41011
G1 X97.688 Y68.979 E31.49271
G1 X100.06 Y67.95 E31.5787
G1 X102.308 Y66.899 E31.66124
G1 X104.569 Y65.762 E31.74541
G1 X106.804 Y64.559 E31.82983
G1 X109.018 Y63.284 E31.91481
G1 X111.117 Y61.995 E31.99674
G1 X114.189 Y59.963 E32.11924
G1 X114.48 Y59.761 E32.13102
G1 X115.258 Y59.269 E32.16164
G1 X116.076 Y58.847 E32.19225
G1 X116.927 Y58.497 E32.22286
G1 X117.806 Y58.222 E32.25349
G1 X118.705 Y58.025 E32.2841
G1 X119.618 Y57.906 E32.31473
G1 X120.538 Y57.867 E32.34535
G1 X121.458 Y57.908 E32.37598
G1 X122.37 Y58.029 E32.40658
G0 F6000 X122.284 Y57.608
G1 F1200 X123.203 Y57.797 E32.43779
G1 X124.102 Y58.064 E32.46898
G1 X124.975 Y58.407 E32.50018
G1 X125.816 Y58.822 E32.53137
G1 X126.708 Y59.368 E32.56615
G1 X128.891 Y60.851 E32.65393
G1 X131.054 Y62.234 E32.73932
G1 X133.164 Y63.5 E32.82116
G1 X135.388 Y64.75 E32.90601
G1 X137.613 Y65.92 E32.98963
G1 X139.86 Y67.022 E33.07287
G1 X142.149 Y68.064 E33.15651
G1 X144.518 Y69.063 E33.24203
G1 X146.806 Y69.952 E33.32367
G1 X149.19 Y70.802 E33.40785
G1 X151.599 Y71.584 E33.49209
G1 X153.993 Y72.289 E33.5751
G1 X156.452 Y72.937 E33.65967
G1 X158.906 Y73.511 E33.7435
G1 X161.373 Y74.012 E33.82723
G1 X163.838 Y74.442 E33.91045
G1 X166.303 Y74.8 E33.9933
G1 X168.842 Y75.097 E34.07832
G1 X171.312 Y75.315 E34.16079
G1 X173.845 Y75.466 E34.24519
G1 X176.396 Y75.546 E34.33008
G1 X177.894 Y75.56 E34.3799
G1 X185.927 Y75.57 E34.64708
G1 X186.594 Y75.582 E34.66927
G1 X187.53 Y75.639 E34.70046
G1 X188.458 Y75.775 E34.73165
G1 X189.371 Y75.99 E34.76285
G1 X190.262 Y76.282 E34.79404
G1 X191.125 Y76.649 E34.82523
G1 X191.954 Y77.088 E34.85643
G1 X192.743 Y77.595 E34.88762
G1 X193.485 Y78.169 E34.91882
G1 X194.176 Y78.803 E34.95001
G1 X194.81 Y79.494 E34.9812
G1 X195.383 Y80.237 E35.01241
G1 X195.89 Y81.025 E35.04358
G1 X196.329 Y81.854 E35.07478
G1 X196.696 Y82.717 E35.10597
G1 X196.987 Y83.609 E35.13718
G1 X197.202 Y84.522 E35.16837
G1 X197.338 Y85.45 E35.19957
G1 X197.39 Y86.212 E35.22497
G1 X197.4 Y86.511 E35.23492
G1 X197.406 Y86.887 E35.24743
G1 X197.402 Y90.99 E35.38389
G1 X197.381 Y92.374 E35.42993
G1 X197.371 Y93.846 E35.47889
G1 X197.406 Y146.671 E37.23586
G1 X197.407 Y152.773 E37.43881
G1 X197.398 Y153.5 E37.46299
G1 X197.347 Y154.437 E37.49421
G1 X197.215 Y155.365 E37.52538
G1 X197.006 Y156.279 E37.55657
G1 X196.719 Y157.172 E37.58776
G1 X196.357 Y158.038 E37.61898
G1 X195.923 Y158.869 E37.65016
G1 X195.419 Y159.66 E37.68136
G1 X194.85 Y160.405 E37.71254
G1 X194.219 Y161.1 E37.74376
G1 X193.532 Y161.738 E37.77494
G1 X192.793 Y162.315 E37.80613
G1 X192.007 Y162.827 E37.83733
G1 X191.181 Y163.27 E37.8685
G1 X190.319 Y163.642 E37.89973
G1 X189.43 Y163.938 E37.93089
G1 X188.518 Y164.158 E37.96209
G1 X187.591 Y164.299 E37.99328
G1 X186.707 Y164.36 E38.02275
G1 X186.078 Y164.373 E38.04368
G1 X182.022 Y164.372 E38.17858
G1 X181.323 Y164.362 E38.20183
G1 X180.386 Y164.308 E38.23305
G1 X179.318 Y164.149 E38.26896
G1 X176.548 Y163.594 E38.36292
G1 X174.129 Y163.18 E38.44455
