;FLAVOR:Marlin
;TIME:2382
;Filament used: 1.84948m
;Layer height: 0.3
;MINX:64.865
;MINY:86.711
;MINZ:0.2
;MAXX:125.389
;MAXY:125.584
;MAXZ:19.7
;Generated with Cura_SteamEngine 4.6.2
M140 S55
M105
M190 S55
M104 S210
M105
M109 S210
M82 ;absolute extrusion mode
; Ender 3 Custom Start G-code
G92 E0 ; Reset Extruder
G28 ; Home all axes
G1 Z2.0 F3000 ; Move Z Axis up little to prevent scratching of Heat Bed
G1 X0.1 Y20 Z0.3 F5000.0 ; Move to start position
G1 X0.1 Y200.0 Z0.3 F1500.0 E15 ; Draw the first line
G1 X0.4 Y200.0 Z0.3 F5000.0 ; Move to side a little
G1 X0.4 Y20 Z0.3 F1500.0 E30 ; Draw the second line
G92 E0 ; Reset Extruder
G1 Z2.0 F3000 ; Move Z Axis up little to prevent scratching of Heat Bed
G1 X5 Y20 Z0.3 F5000.0 ; Move over to prevent blob squish
G92 E0
G92 E0
G1 F1500 E-6.5
;LAYER_COUNT:66
;LAYER:0
M107
G0 F6000 X87.623 Y90.429 Z0.2
;TYPE:SKIRT
G1 F1500 E0
G1 F1200 X90.073 Y89.904 E0.08334
G1 X92.526 Y89.305 E0.16732
G1 X95.029 Y88.618 E0.25365
G1 X96.642 Y88.125 E0.30975
G1 X97.31 Y87.93 E0.33289
G1 X98.187 Y87.715 E0.36293
G1 X99.08 Y87.579 E0.39297
G1 X99.859 Y87.526 E0.41894
G1 X100.498 Y87.511 E0.4402
G1 X104.238 Y87.512 E0.56459
G1 X104.938 Y87.522 E0.58788
G1 X105.839 Y87.575 E0.6179
G1 X106.93 Y87.748 E0.65464
G1 X107.879 Y87.951 E0.68691
G1 X110.471 Y88.471 E0.77484
G1 X113.246 Y88.94 E0.86845
G1 X114.345 Y89.115 E0.90546
G1 X115.46 Y89.357 E0.94341
G1 X115.789 Y89.448 E0.95476
G1 X116.648 Y89.727 E0.9848
G1 X117.324 Y90.008 E1.00915
G1 X117.555 Y90.114 E1.01761
G1 X118.358 Y90.527 E1.04764
G1 X118.763 Y90.771 E1.06336
G1 X119.151 Y91.017 E1.07864
G1 X119.891 Y91.533 E1.10865
G1 X120.822 Y92.34 E1.14963
G1 X121.006 Y92.52 E1.15819
G1 X121.623 Y93.179 E1.18822
G1 X122.109 Y93.794 E1.21429
G1 X122.334 Y94.102 E1.22697
G1 X122.834 Y94.854 E1.25701
G1 X123.142 Y95.403 E1.27795
G1 X123.3 Y95.706 E1.28931
G1 X123.682 Y96.524 E1.31934
G1 X124.018 Y97.464 E1.35254
G1 X124.128 Y97.827 E1.36516
G1 X124.351 Y98.702 E1.39519
G1 X124.496 Y99.593 E1.42521
G1 X124.563 Y100.53 E1.45646
G1 X124.584 Y101.371 E1.48444
G1 X124.586 Y101.755 E1.49721
G1 X124.575 Y102.535 E1.52316
G1 X124.512 Y104.862 E1.60058
G1 X124.514 Y107.467 E1.68722
G1 X124.541 Y108.688 E1.72784
G1 X124.585 Y110.14 E1.77616
G1 X124.589 Y110.503 E1.78823
G1 X124.58 Y111.437 E1.8193
G1 X124.57 Y111.745 E1.82955
G1 X124.5 Y112.645 E1.85957
G1 X124.287 Y113.82 E1.89929
G1 X124.187 Y114.232 E1.91339
G1 X123.936 Y115.099 E1.94341
G1 X123.48 Y116.221 E1.9837
G1 X123.353 Y116.487 E1.9935
G1 X122.736 Y117.595 E2.03568
G1 X122.538 Y117.904 E2.04789
G1 X122.018 Y118.642 E2.07791
G1 X121.147 Y119.629 E2.1217
G1 X120.909 Y119.866 E2.13287
G1 X120.242 Y120.474 E2.16289
G1 X119.655 Y120.928 E2.18757
G1 X119.489 Y121.047 E2.19436
G1 X118.566 Y121.636 E2.23078
G1 X118.122 Y121.887 E2.24774
G1 X117.317 Y122.297 E2.27779
G1 X116.478 Y122.633 E2.30785
G1 X115.614 Y122.894 E2.33787
G1 X114.827 Y123.061 E2.36463
G1 X110.728 Y123.764 E2.50295
G1 X107.489 Y124.425 E2.6129
G1 X107.039 Y124.525 E2.62823
G1 X106.149 Y124.682 E2.65829
G1 X105 Y124.766 E2.69661
G1 X103.896 Y124.784 E2.73333
G1 X100.729 Y124.783 E2.83867
G1 X100.031 Y124.773 E2.86189
G1 X99.129 Y124.72 E2.89194
G1 X98.236 Y124.588 E2.92196
G1 X97.348 Y124.374 E2.95234
G1 X94.933 Y123.677 E3.03595
G1 X92.446 Y123.029 E3.12142
G1 X89.966 Y122.458 E3.20607
G1 X87.482 Y121.96 E3.29033
G1 X85.006 Y121.536 E3.37388
G1 X82.501 Y121.179 E3.45804
G1 X80.214 Y120.932 E3.53455
G1 X78.7 Y120.758 E3.58524
G1 X78.332 Y120.707 E3.59759
G1 X77.473 Y120.551 E3.62663
G1 X77.068 Y120.459 E3.64044
G1 X76.257 Y120.239 E3.66839
G1 X75.956 Y120.144 E3.67889
G1 X75.193 Y119.869 E3.70587
G1 X74.865 Y119.736 E3.71764
G1 X74.096 Y119.387 E3.74573
G1 X73.736 Y119.205 E3.75914
G1 X72.952 Y118.764 E3.78906
G1 X72.529 Y118.501 E3.80563
G1 X72.069 Y118.197 E3.82397
G1 X71.876 Y118.062 E3.8318
G1 X70.895 Y117.282 E3.87348
G1 X70.532 Y116.955 E3.88973
G1 X69.772 Y116.194 E3.92551
G1 X69.462 Y115.849 E3.94093
G1 X69.023 Y115.327 E3.96362
G1 X68.852 Y115.109 E3.97283
G1 X68.358 Y114.421 E4.001
G1 X68.179 Y114.149 E4.01183
G1 X67.864 Y113.638 E4.0318
G1 X67.65 Y113.267 E4.04604
G1 X67.137 Y112.252 E4.08387
G1 X66.477 Y110.729 E4.13908
G1 X66.171 Y109.88 E4.16909
G1 X65.942 Y109.006 E4.19914
G1 X65.765 Y107.902 E4.23633
G1 X65.723 Y107.497 E4.24988
G1 X65.669 Y106.535 E4.28192
G1 X65.665 Y106.083 E4.29696
G1 X65.697 Y105.181 E4.32698
G1 X65.757 Y104.623 E4.34564
G1 X65.844 Y103.981 E4.36719
G1 X65.905 Y103.588 E4.38042
G1 X65.975 Y103.189 E4.39389
G1 X66.171 Y102.308 E4.42391
G1 X66.443 Y101.447 E4.45394
G1 X66.698 Y100.817 E4.47655
G1 X66.847 Y100.481 E4.48877
G1 X66.991 Y100.17 E4.50017
G1 X67.237 Y99.662 E4.51894
G1 X67.702 Y98.809 E4.55126
G1 X67.899 Y98.485 E4.56387
G1 X68.413 Y97.719 E4.59455
G1 X68.484 Y97.623 E4.59852
G1 X69.053 Y96.921 E4.62858
G1 X69.681 Y96.273 E4.65859
G1 X70.19 Y95.823 E4.68119
G1 X70.953 Y95.195 E4.71405
G1 X71.254 Y94.954 E4.72688
G1 X71.609 Y94.682 E4.74175
G1 X72.141 Y94.293 E4.76367
G1 X73.26 Y93.581 E4.80779
G1 X73.678 Y93.352 E4.82364
G1 X74.369 Y93.008 E4.84931
G1 X74.636 Y92.887 E4.85906
G1 X75.472 Y92.551 E4.88903
G1 X75.86 Y92.415 E4.9027
G1 X76.655 Y92.172 E4.93035
G1 X77.118 Y92.051 E4.94627
G1 X78.001 Y91.862 E4.9763
G1 X78.518 Y91.788 E4.99368
G1 X80.048 Y91.61 E5.04491
G1 X82.585 Y91.287 E5.12997
G1 X85.117 Y90.892 E5.2152
G1 X87.623 Y90.429 E5.29996
G0 F6000 X104.943 Y87.122
G1 F1200 X105.863 Y87.175 E5.33061
G1 X107.014 Y87.356 E5.36937
G1 X108.035 Y87.575 E5.4041
G1 X110.546 Y88.078 E5.48927
G1 X113.309 Y88.545 E5.58247
G1 X114.408 Y88.72 E5.61949
G1 X115.567 Y88.972 E5.65894
G1 X115.896 Y89.063 E5.67029
G1 X116.772 Y89.346 E5.70091
G1 X117.491 Y89.645 E5.72681
G1 X117.722 Y89.751 E5.73526
G1 X118.541 Y90.171 E5.76587
G1 X118.977 Y90.433 E5.78279
G1 X119.365 Y90.679 E5.79807
G1 X120.12 Y91.205 E5.82868
G1 X121.102 Y92.054 E5.87185
G1 X121.286 Y92.234 E5.88041
G1 X121.915 Y92.906 E5.91103
G1 X122.432 Y93.558 E5.9387
G1 X122.657 Y93.866 E5.95139
G1 X123.168 Y94.633 E5.98204
G1 X123.497 Y95.218 E6.00437
G1 X123.655 Y95.521 E6.01573
G1 X124.045 Y96.355 E6.04635
G1 X124.4 Y97.348 E6.08143
G1 X124.51 Y97.711 E6.09404
G1 X124.739 Y98.603 E6.12467
G1 X124.889 Y99.511 E6.15528
G1 X124.963 Y100.52 E6.18893
G1 X124.984 Y101.361 E6.21691
G1 X124.986 Y101.76 E6.23019
G1 X124.975 Y102.545 E6.2563
G1 X124.912 Y104.871 E6.33369
G1 X124.914 Y107.457 E6.4197
G1 X124.941 Y108.676 E6.46025
G1 X124.984 Y110.128 E6.50857
G1 X124.989 Y110.506 E6.52114
G1 X124.979 Y111.45 E6.55254
G1 X124.969 Y111.758 E6.56279
G1 X124.9 Y112.676 E6.59341
G1 X124.676 Y113.914 E6.63525
G1 X124.576 Y114.326 E6.64935
G1 X124.32 Y115.211 E6.68
G1 X123.841 Y116.393 E6.72242
G1 X123.714 Y116.659 E6.73222
G1 X123.073 Y117.811 E6.77607
G1 X122.875 Y118.12 E6.78827
G1 X122.345 Y118.873 E6.8189
G1 X121.752 Y119.577 E6.84952
G1 X121.43 Y119.912 E6.86497
G1 X121.192 Y120.149 E6.87614
G1 X120.512 Y120.77 E6.90677
G1 X119.888 Y121.253 E6.93302
G1 X119.722 Y121.372 E6.93981
G1 X118.762 Y121.985 E6.97769
G1 X118.318 Y122.236 E6.99466
G1 X117.498 Y122.653 E7.02525
G1 X116.645 Y122.998 E7.05586
G1 X115.764 Y123.268 E7.0865
G1 X114.895 Y123.455 E7.11607
G1 X110.81 Y124.156 E7.25392
G1 X107.545 Y124.822 E7.36475
G1 X107.126 Y124.915 E7.37903
G1 X106.219 Y125.076 E7.40967
G1 X105.007 Y125.166 E7.45009
G1 X103.896 Y125.184 E7.48705
G1 X100.723 Y125.183 E7.59258
G1 X100.025 Y125.173 E7.6158
G1 X99.106 Y125.12 E7.64642
G1 X98.195 Y124.987 E7.67704
G1 X97.238 Y124.758 E7.70977
G1 X94.846 Y124.068 E7.79257
G1 X92.361 Y123.42 E7.87798
G1 X89.862 Y122.845 E7.96327
G1 X87.449 Y122.361 E8.04513
G1 X84.918 Y121.927 E8.13054
G1 X82.458 Y121.577 E8.21318
G1 X80.171 Y121.33 E8.28969
G1 X78.645 Y121.155 E8.34078
G1 X78.277 Y121.104 E8.35313
G1 X77.384 Y120.941 E8.38333
G1 X76.979 Y120.849 E8.39714
G1 X76.137 Y120.62 E8.42616
G1 X75.836 Y120.525 E8.43666
G1 X75.043 Y120.24 E8.46469
G1 X74.715 Y120.107 E8.47646
G1 X73.916 Y119.744 E8.50565
G1 X73.556 Y119.562 E8.51906
G1 X72.741 Y119.104 E8.55016
G1 X72.318 Y118.841 E8.56673
G1 X71.839 Y118.525 E8.58581
G1 X71.646 Y118.39 E8.59364
G1 X70.627 Y117.58 E8.63694
G1 X70.264 Y117.253 E8.65319
G1 X69.474 Y116.462 E8.69037
G1 X69.164 Y116.117 E8.7058
G1 X68.709 Y115.574 E8.72936
G1 X68.538 Y115.356 E8.73858
G1 X68.023 Y114.641 E8.76788
G1 X67.844 Y114.369 E8.77871
G1 X67.517 Y113.838 E8.79946
G1 X67.303 Y113.467 E8.8137
G1 X66.77 Y112.412 E8.85301
G1 X66.108 Y110.881 E8.90849
G1 X65.795 Y110.015 E8.93912
G1 X65.558 Y109.126 E8.96972
G1 X65.368 Y107.943 E9.00957
G1 X65.326 Y107.538 E9.02311
G1 X65.269 Y106.539 E9.05639
G1 X65.265 Y106.087 E9.07143
G1 X65.297 Y105.167 E9.10205
G1 X65.361 Y104.57 E9.12202
G1 X65.448 Y103.928 E9.14356
G1 X65.511 Y103.519 E9.15733
G1 X65.581 Y103.12 E9.1708
G1 X65.78 Y102.221 E9.20143
G1 X66.055 Y101.343 E9.23203
G1 X66.332 Y100.655 E9.2567
G1 X66.481 Y100.319 E9.26892
G1 X66.631 Y99.996 E9.28077
G1 X66.877 Y99.488 E9.29954
G1 X67.36 Y98.601 E9.33313
G1 X67.557 Y98.277 E9.34574
G1 X68.092 Y97.481 E9.37764
G1 X68.163 Y97.385 E9.38161
G1 X68.742 Y96.669 E9.41224
G1 X69.381 Y96.006 E9.44287
G1 X69.935 Y95.515 E9.46749
G1 X70.703 Y94.882 E9.50059
G1 X71.004 Y94.641 E9.51341
G1 X71.372 Y94.359 E9.52883
G1 X71.904 Y93.97 E9.55075
G1 X73.068 Y93.231 E9.59661
G1 X73.486 Y93.002 E9.61247
G1 X74.204 Y92.643 E9.63916
G1 X74.471 Y92.522 E9.64891
G1 X75.34 Y92.174 E9.68005
G1 X75.728 Y92.038 E9.69372
G1 X76.554 Y91.785 E9.72246
G1 X77.017 Y91.664 E9.73837
G1 X77.917 Y91.471 E9.76899
G1 X78.472 Y91.391 E9.78764
G1 X79.967 Y91.217 E9.8377
G1 X82.55 Y90.888 E9.9243
G1 X85.049 Y90.499 E10.00842
G1 X87.537 Y90.039 E10.09257
G1 X89.999 Y89.511 E10.17632
G1 X92.44 Y88.915 E10.2599
G1 X94.872 Y88.247 E10.34378
G1 X96.53 Y87.741 E10.40144
G1 X97.198 Y87.546 E10.42458
G1 X98.092 Y87.326 E10.4552
G1 X99.002 Y87.185 E10.48583
G1 X99.847 Y87.126 E10.514
G1 X100.498 Y87.111 E10.53566
G1 X104.243 Y87.112 E10.66022
G1 X104.943 Y87.122 E10.68351
G0 F6000 X104.949 Y86.722
G1 F1200 X105.885 Y86.775 E10.71469
G1 X107.098 Y86.965 E10.75552
G1 X108.119 Y87.184 E10.79025
G1 X110.627 Y87.687 E10.87533
G1 X113.372 Y88.15 E10.96792
G1 X114.471 Y88.325 E11.00493
G1 X115.673 Y88.586 E11.04584
G1 X116.002 Y88.677 E11.0572
G1 X116.895 Y88.965 E11.08841
G1 X117.658 Y89.281 E11.11587
G1 X117.889 Y89.387 E11.12433
G1 X118.724 Y89.814 E11.15552
G1 X119.191 Y90.095 E11.17365
G1 X119.579 Y90.341 E11.18893
G1 X120.349 Y90.876 E11.22011
G1 X121.381 Y91.768 E11.26548
G1 X121.565 Y91.948 E11.27404
G1 X122.207 Y92.632 E11.30524
G1 X122.755 Y93.322 E11.33455
G1 X122.98 Y93.63 E11.34724
G1 X123.501 Y94.41 E11.37844
G1 X123.852 Y95.033 E11.40222
G1 X124.01 Y95.336 E11.41358
G1 X124.407 Y96.185 E11.44476
G1 X124.783 Y97.232 E11.48176
G1 X124.893 Y97.595 E11.49437
G1 X125.127 Y98.503 E11.52556
G1 X125.282 Y99.428 E11.55676
G1 X125.363 Y100.51 E11.59284
G1 X125.384 Y101.351 E11.62082
G1 X125.386 Y101.765 E11.63459
G1 X125.375 Y102.556 E11.6609
G1 X125.312 Y104.882 E11.7383
G1 X125.314 Y107.448 E11.82364
G1 X125.341 Y108.664 E11.8641
G1 X125.384 Y110.116 E11.91241
G1 X125.389 Y110.508 E11.92545
G1 X125.379 Y111.463 E11.95722
G1 X125.369 Y111.771 E11.96746
G1 X125.299 Y112.706 E11.99865
G1 X125.065 Y114.009 E12.04268
G1 X124.965 Y114.421 E12.05678
G1 X124.705 Y115.322 E12.08797
G1 X124.202 Y116.565 E12.13257
G1 X124.075 Y116.831 E12.14238
G1 X123.41 Y118.027 E12.18789
G1 X123.212 Y118.336 E12.2001
G1 X122.673 Y119.103 E12.23128
G1 X122.07 Y119.822 E12.26249
G1 X121.712 Y120.196 E12.27971
G1 X121.474 Y120.433 E12.29088
G1 X120.782 Y121.065 E12.32205
G1 X120.121 Y121.578 E12.34988
G1 X119.955 Y121.697 E12.35667
G1 X118.959 Y122.333 E12.39598
G1 X118.515 Y122.584 E12.41294
G1 X117.68 Y123.01 E12.44412
G1 X116.811 Y123.364 E12.47533
G1 X115.916 Y123.642 E12.5065
G1 X114.963 Y123.85 E12.53894
G1 X110.861 Y124.554 E12.67737
G1 X107.655 Y125.208 E12.7862
G1 X107.213 Y125.306 E12.80125
G1 X106.289 Y125.47 E12.83247
G1 X105.014 Y125.566 E12.87499
G1 X103.896 Y125.584 E12.91218
G1 X100.717 Y125.583 E13.01792
G1 X100.019 Y125.573 E13.04114
G1 X99.083 Y125.519 E13.07232
G1 X98.155 Y125.387 E13.10349
G1 X97.127 Y125.143 E13.13864
G1 X94.714 Y124.446 E13.22217
G1 X92.275 Y123.811 E13.306
G1 X89.765 Y123.233 E13.39167
G1 X87.368 Y122.753 E13.47297
G1 X84.866 Y122.324 E13.55741
G1 X82.419 Y121.975 E13.63962
G1 X80.077 Y121.722 E13.71797
G1 X78.59 Y121.551 E13.76775
G1 X78.222 Y121.5 E13.78011
G1 X77.295 Y121.331 E13.81145
G1 X76.89 Y121.239 E13.82526
G1 X76.016 Y121.002 E13.85538
G1 X75.715 Y120.907 E13.86588
G1 X74.893 Y120.611 E13.89494
G1 X74.565 Y120.478 E13.90671
G1 X73.735 Y120.101 E13.93703
G1 X73.375 Y119.919 E13.95044
G1 X72.53 Y119.444 E13.98269
G1 X72.107 Y119.181 E13.99925
G1 X71.61 Y118.853 E14.01906
G1 X71.417 Y118.718 E14.02689
G1 X70.36 Y117.877 E14.07182
G1 X69.997 Y117.55 E14.08807
G1 X69.177 Y116.729 E14.12666
G1 X68.867 Y116.384 E14.14209
G1 X68.394 Y115.821 E14.16654
G1 X68.223 Y115.603 E14.17576
G1 X67.689 Y114.861 E14.20617
G1 X67.51 Y114.589 E14.217
G1 X67.171 Y114.038 E14.23851
G1 X66.957 Y113.667 E14.25276
G1 X66.404 Y112.572 E14.29356
G1 X65.738 Y111.033 E14.34933
G1 X65.418 Y110.152 E14.38051
G1 X65.175 Y109.246 E14.41171
G1 X64.97 Y107.985 E14.4542
G1 X64.928 Y107.58 E14.46774
G1 X64.869 Y106.542 E14.50232
G1 X64.865 Y106.09 E14.51736
G1 X64.897 Y105.153 E14.54854
G1 X64.965 Y104.516 E14.56985
G1 X65.052 Y103.874 E14.59139
G1 X65.117 Y103.45 E14.60566
G1 X65.187 Y103.051 E14.61913
G1 X65.389 Y102.135 E14.65033
G1 X65.667 Y101.24 E14.6815
G1 X65.966 Y100.493 E14.70826
G1 X66.115 Y100.157 E14.72049
G1 X66.271 Y99.822 E14.73278
G1 X66.517 Y99.314 E14.75155
G1 X67.018 Y98.393 E14.78643
G1 X67.215 Y98.069 E14.79904
G1 X67.77 Y97.243 E14.83214
G1 X67.841 Y97.147 E14.83611
G1 X68.43 Y96.418 E14.86728
G1 X69.08 Y95.741 E14.89849
G1 X69.681 Y95.206 E14.92526
G1 X70.453 Y94.57 E14.95852
G1 X70.754 Y94.329 E14.97135
G1 X71.136 Y94.037 E14.98734
G1 X71.668 Y93.648 E15.00926
G1 X72.448 Y93.127 E15.04046
G1 X72.876 Y92.88 E15.0569
G1 X73.294 Y92.651 E15.07275
G1 X74.038 Y92.279 E15.10041
G1 X74.305 Y92.158 E15.11016
G1 X75.207 Y91.796 E15.14249
G1 X75.595 Y91.66 E15.15616
G1 X76.453 Y91.398 E15.186
G1 X76.916 Y91.277 E15.20192
G1 X77.832 Y91.079 E15.23309
G1 X78.426 Y90.994 E15.25305
G1 X79.875 Y90.825 E15.30157
G1 X82.504 Y90.491 E15.38971
G1 X84.957 Y90.108 E15.47229
G1 X87.446 Y89.648 E15.55647
G1 X89.926 Y89.116 E15.64084
G1 X92.344 Y88.526 E15.72362
G1 X94.786 Y87.856 E15.80784
G1 X96.418 Y87.357 E15.8646
G1 X97.086 Y87.162 E15.88775
G1 X97.996 Y86.938 E15.91892
G1 X98.923 Y86.792 E15.95013
G1 X99.835 Y86.726 E15.98054
G1 X100.165 Y86.716 E15.99152
G1 X100.498 Y86.711 E16.0026
G1 X104.249 Y86.712 E16.12736
G1 X104.949 Y86.722 E16.15064
G0 F6000 X93.407 Y106.259
G1 F1200 X93.52 Y106.245 E16.15443
G1 X95.241 Y105.891 E16.21287
G1 X95.565 Y105.899 E16.22365
G1 X95.565 Y106.588 E16.24656
G1 X95.133 Y106.593 E16.26093
G1 X95.077 Y106.603 E16.26283
G1 X93.407 Y106.259 E16.31954
G0 F6000 X93.272 Y106.64
G1 F1200 X92.755 Y106.574 E16.33687
G1 X92.234 Y106.588 E16.35421
G1 X90.614 Y106.264 E16.40916
G1 X92.377 Y105.897 E16.46905
G1 X92.439 Y105.908 E16.47114
G1 X92.96 Y105.917 E16.48848
G1 X93.44 Y105.853 E16.50458
G1 X95.235 Y105.483 E16.56554
G1 X95.326 Y105.498 E16.56861
G1 X95.847 Y105.5 E16.58593
G1 X95.966 Y105.484 E16.58993
G1 X95.965 Y107.027 E16.64125
G1 X95.631 Y106.984 E16.65245
G1 X95.11 Y106.997 E16.66978
G1 X95.055 Y107.007 E16.67164
G1 X93.272 Y106.64 E16.73219
G0 F6000 X93.359 Y105.461
G1 F1200 X95.228 Y105.076 E16.79566
G1 X95.388 Y105.101 E16.80104
G1 X95.878 Y105.096 E16.81734
G1 X96.209 Y105.047 E16.82847
G1 X96.366 Y105.015 E16.8338
G1 X96.365 Y107.504 E16.91658
G1 X96.067 Y107.442 E16.92671
G1 X95.581 Y107.382 E16.94299
G1 X95.092 Y107.401 E16.95927
G1 X95.037 Y107.412 E16.96114
G1 X93.191 Y107.032 E17.02382
G1 X92.706 Y106.972 E17.04008
G1 X92.217 Y106.993 E17.05636
G1 X90.231 Y106.594 E17.12373
G1 X89.745 Y106.534 E17.14002
G1 X89.256 Y106.555 E17.1563
G1 X87.777 Y106.263 E17.20644
G1 X89.113 Y105.988 E17.25181
