;FLAVOR:Marlin
;TIME:2651
;Filament used: 2.02849m
;Layer height: 0.3
;MINX:82.164
;MINY:90.164
;MINZ:0.2
;MAXX:119.581
;MAXY:146.401
;MAXZ:33.2
;Generated with Cura_SteamEngine 4.6.2
M140 S60
M105
M190 S60
M104 S200
M105
M109 S200
M82 ;absolute extrusion mode
; Ender 3 Custom Start G-code
G92 E0 ; Reset Extruder
G28 ; Home all axes
G1 Z2.0 F3000 ; Move Z Axis up little to prevent scratching of Heat Bed
G1 X0.1 Y20 Z0.3 F5000.0 ; Move to start position
G1 X0.1 Y200.0 Z0.3 F1500.0 E15 ; Draw the first line
G1 X0.4 Y200.0 Z0.3 F5000.0 ; Move to side a little
G1 X0.4 Y20 Z0.3 F1500.0 E30 ; Draw the second line
G92 E0 ; Reset Extruder
G1 Z2.0 F3000 ; Move Z Axis up little to prevent scratching of Heat Bed
G1 X5 Y20 Z0.3 F5000.0 ; Move over to prevent blob squish
G92 E0
G92 E0
G1 F1500 E-6.5
;LAYER_COUNT:111
;LAYER:0
M107
G0 F6000 X103.185 Y90.975 Z0.2
;TYPE:SKIRT
G1 F1500 E0
G1 F1200 X104.087 Y91.028 E0.03005
G1 X104.98 Y91.16 E0.06008
G1 X105.858 Y91.371 E0.09011
G1 X106.714 Y91.659 E0.12015
G1 X107.541 Y92.021 E0.15018
G1 X108.333 Y92.456 E0.18023
G1 X109.186 Y93.034 E0.2145
G1 X109.427 Y93.216 E0.22454
G1 X110.391 Y94.044 E0.26681
G1 X110.683 Y94.329 E0.28038
G1 X111.857 Y95.494 E0.33539
G1 X112.529 Y96.186 E0.36747
G1 X113.023 Y96.719 E0.39165
G1 X115 Y98.789 E0.48685
G1 X115.869 Y99.679 E0.52822
G1 X116.471 Y100.353 E0.55828
G1 X117.011 Y101.077 E0.58832
G1 X117.484 Y101.846 E0.61835
G1 X117.888 Y102.653 E0.64836
G1 X118.219 Y103.494 E0.67842
G1 X118.474 Y104.36 E0.70845
G1 X118.651 Y105.246 E0.7385
G1 X118.75 Y106.143 E0.76852
G1 X118.77 Y106.638 E0.78499
G1 X118.781 Y107.415 E0.81084
G1 X118.78 Y110.657 E0.91867
G1 X118.77 Y111.374 E0.94252
G1 X118.717 Y112.276 E0.97257
G1 X118.585 Y113.169 E1.0026
G1 X118.489 Y113.615 E1.01777
G1 X118.339 Y114.233 E1.03892
G1 X117.887 Y115.974 E1.09875
G1 X117.322 Y118.435 E1.18273
G1 X116.822 Y120.916 E1.26691
G1 X116.395 Y123.43 E1.35172
G1 X116.041 Y125.925 E1.43553
G1 X115.751 Y128.478 E1.52099
G1 X115.535 Y131.024 E1.60598
G1 X115.468 Y131.897 E1.6351
G1 X115.408 Y132.478 E1.65453
G1 X115.2 Y133.728 E1.69667
G1 X115.046 Y134.394 E1.71941
G1 X114.673 Y135.638 E1.7626
G1 X114.496 Y136.116 E1.77956
G1 X113.987 Y137.267 E1.82142
G1 X113.731 Y137.761 E1.83992
G1 X113.181 Y138.698 E1.87606
G1 X112.905 Y139.115 E1.89269
G1 X112.11 Y140.162 E1.93642
G1 X111.8 Y140.52 E1.95217
G1 X111.413 Y140.946 E1.97131
G1 X110.582 Y141.75 E2.00977
G1 X110.153 Y142.12 E2.02861
G1 X109.1 Y142.915 E2.07249
G1 X108.816 Y143.102 E2.0838
G1 X108.41 Y143.356 E2.09973
G1 X108.152 Y143.509 E2.10971
G1 X107.454 Y143.887 E2.13611
G1 X107.259 Y143.983 E2.14334
G1 X106.745 Y144.219 E2.16215
G1 X106.404 Y144.364 E2.17447
G1 X105.597 Y144.667 E2.20315
G1 X105.314 Y144.76 E2.21305
G1 X104.286 Y145.039 E2.24848
G1 X102.728 Y145.376 E2.3015
G1 X101.838 Y145.528 E2.33153
G1 X100.938 Y145.6 E2.36156
G1 X100.236 Y145.601 E2.38491
G1 X99.842 Y145.588 E2.39802
G1 X98.941 Y145.519 E2.42807
G1 X98.065 Y145.373 E2.45761
G1 X97.843 Y145.326 E2.46516
G1 X96.969 Y145.1 E2.49519
G1 X96.093 Y144.787 E2.52612
G1 X95.724 Y144.636 E2.53939
G1 X94.677 Y144.136 E2.57798
G1 X94.299 Y143.926 E2.59236
G1 X93.888 Y143.689 E2.60814
G1 X93.564 Y143.494 E2.62072
G1 X92.848 Y143.045 E2.64883
G1 X91.816 Y142.305 E2.69106
G1 X91.451 Y142.007 E2.70673
G1 X91.002 Y141.621 E2.72643
G1 X90.098 Y140.719 E2.7689
G1 X89.833 Y140.419 E2.78222
G1 X89.386 Y139.876 E2.80561
G1 X89.188 Y139.618 E2.81642
G1 X88.858 Y139.162 E2.83515
G1 X88.638 Y138.84 E2.84812
G1 X88.12 Y137.998 E2.881
G1 X87.881 Y137.563 E2.89751
G1 X87.482 Y136.753 E2.92754
G1 X87.2 Y136.038 E2.9531
G1 X87.005 Y135.484 E2.97264
G1 X86.731 Y134.571 E3.00434
G1 X86.622 Y134.135 E3.01929
G1 X86.405 Y132.996 E3.05785
G1 X86.32 Y132.352 E3.07946
G1 X86.257 Y131.728 E3.10032
G1 X86.215 Y131.133 E3.12016
G1 X85.996 Y128.519 E3.2074
G1 X85.711 Y125.986 E3.29218
G1 X85.359 Y123.499 E3.37573
G1 X84.93 Y120.978 E3.46078
G1 X84.432 Y118.483 E3.5454
G1 X83.87 Y116.03 E3.6291
G1 X83.489 Y114.522 E3.68083
G1 X83.307 Y113.827 E3.70473
G1 X83.117 Y112.944 E3.73477
G1 X83.006 Y112.048 E3.7648
G1 X82.979 Y111.55 E3.78139
G1 X82.964 Y110.911 E3.80265
G1 X82.965 Y107.322 E3.92202
G1 X82.975 Y106.624 E3.94523
G1 X83.028 Y105.722 E3.97529
G1 X83.16 Y104.829 E4.00531
G1 X83.371 Y103.951 E4.03534
G1 X83.659 Y103.095 E4.06538
G1 X84.021 Y102.268 E4.09541
G1 X84.589 Y101.262 E4.13383
G1 X84.768 Y100.983 E4.14486
G1 X86.199 Y98.73 E4.23363
G1 X86.625 Y98.024 E4.26106
G1 X86.835 Y97.688 E4.27424
G1 X87.347 Y96.944 E4.30427
G1 X88.071 Y96.089 E4.34154
G1 X88.519 Y95.622 E4.36306
G1 X89.835 Y94.316 E4.42473
G1 X90.322 Y93.845 E4.44726
G1 X90.998 Y93.247 E4.47728
G1 X91.725 Y92.71 E4.50734
G1 X92.496 Y92.24 E4.53737
G1 X93.306 Y91.84 E4.56742
G1 X94.148 Y91.514 E4.59745
G1 X95.015 Y91.263 E4.62747
G1 X95.902 Y91.09 E4.65753
G1 X96.946 Y90.988 E4.69242
G1 X97.186 Y90.977 E4.70041
G1 X97.573 Y90.966 E4.71329
G1 X97.828 Y90.964 E4.72177
G1 X102.487 Y90.965 E4.87673
G1 X103.185 Y90.975 E4.89994
G0 F6000 X103.191 Y90.575
G1 F1200 X104.11 Y90.628 E4.93056
G1 X105.021 Y90.761 E4.96118
G1 X105.917 Y90.972 E4.9918
G1 X106.791 Y91.26 E5.02241
G1 X107.638 Y91.623 E5.05306
G1 X108.449 Y92.058 E5.08366
G1 X109.427 Y92.715 E5.12285
G1 X109.668 Y92.897 E5.1329
G1 X110.67 Y93.757 E5.17681
G1 X110.965 Y94.045 E5.19053
G1 X112.142 Y95.214 E5.2457
G1 X112.822 Y95.914 E5.27816
G1 X113.324 Y96.455 E5.30271
G1 X115.116 Y98.34 E5.38921
G1 X115.286 Y98.51 E5.39721
G1 X116.155 Y99.4 E5.43858
G1 X116.769 Y100.086 E5.4692
G1 X117.321 Y100.822 E5.4998
G1 X117.807 Y101.604 E5.53042
G1 X118.224 Y102.425 E5.56105
G1 X118.568 Y103.279 E5.59167
G1 X118.836 Y104.16 E5.6223
G1 X119.027 Y105.061 E5.65293
G1 X119.138 Y105.975 E5.68356
G1 X119.17 Y106.631 E5.7054
G1 X119.181 Y107.415 E5.73148
G1 X119.18 Y110.663 E5.83951
G1 X119.17 Y111.38 E5.86336
G1 X119.117 Y112.299 E5.89398
G1 X118.985 Y113.21 E5.92459
G1 X118.878 Y113.708 E5.94153
G1 X118.726 Y114.333 E5.96293
G1 X118.28 Y116.05 E6.02193
G1 X117.718 Y118.498 E6.10547
G1 X117.209 Y121.028 E6.1913
G1 X116.792 Y123.476 E6.2739
G1 X116.435 Y125.994 E6.35848
G1 X116.153 Y128.485 E6.44186
G1 X115.932 Y131.082 E6.52855
G1 X115.866 Y131.938 E6.55711
G1 X115.806 Y132.519 E6.57653
G1 X115.59 Y133.818 E6.62033
G1 X115.436 Y134.484 E6.64307
G1 X115.048 Y135.777 E6.68797
G1 X114.871 Y136.255 E6.70492
G1 X114.342 Y137.451 E6.74842
G1 X114.086 Y137.945 E6.76692
G1 X113.514 Y138.918 E6.80446
G1 X113.238 Y139.335 E6.8211
G1 X112.412 Y140.424 E6.86656
G1 X112.102 Y140.782 E6.88231
G1 X111.707 Y141.218 E6.90188
G1 X110.843 Y142.053 E6.94184
G1 X110.414 Y142.423 E6.96068
G1 X109.32 Y143.249 E7.00627
G1 X109.036 Y143.436 E7.01758
G1 X108.614 Y143.7 E7.03414
G1 X108.356 Y143.853 E7.04412
G1 X107.631 Y144.246 E7.07155
G1 X107.436 Y144.342 E7.07877
G1 X106.902 Y144.587 E7.09832
G1 X106.561 Y144.732 E7.11064
G1 X105.722 Y145.047 E7.14045
G1 X105.439 Y145.14 E7.15035
G1 X104.371 Y145.43 E7.18716
G1 X102.813 Y145.767 E7.24018
G1 X101.906 Y145.923 E7.27079
G1 X100.988 Y145.999 E7.30143
G1 X100.222 Y146.001 E7.32691
G1 X99.828 Y145.988 E7.34002
G1 X98.91 Y145.918 E7.37064
G1 X97.983 Y145.764 E7.40189
G1 X97.761 Y145.717 E7.40944
G1 X96.869 Y145.488 E7.44007
G1 X95.941 Y145.157 E7.47284
G1 X95.572 Y145.006 E7.4861
G1 X94.484 Y144.487 E7.52619
G1 X94.099 Y144.273 E7.54084
G1 X93.688 Y144.036 E7.55662
G1 X93.351 Y143.833 E7.56971
G1 X92.635 Y143.384 E7.59782
G1 X91.563 Y142.615 E7.6417
G1 X91.198 Y142.317 E7.65737
G1 X90.738 Y141.922 E7.67754
G1 X89.799 Y140.984 E7.72168
G1 X89.534 Y140.684 E7.735
G1 X89.069 Y140.119 E7.75933
G1 X88.871 Y139.861 E7.77015
G1 X88.528 Y139.388 E7.78958
G1 X88.308 Y139.066 E7.80255
G1 X87.77 Y138.19 E7.83675
G1 X87.531 Y137.755 E7.85325
G1 X87.123 Y136.93 E7.88387
G1 X86.822 Y136.17 E7.91105
G1 X86.627 Y135.616 E7.93059
G1 X86.342 Y134.668 E7.96351
G1 X86.233 Y134.232 E7.97846
G1 X86.008 Y133.048 E8.01855
G1 X85.923 Y132.404 E8.04015
G1 X85.858 Y131.755 E8.06184
G1 X85.819 Y131.195 E8.08052
G1 X85.598 Y128.564 E8.16833
G1 X85.315 Y126.051 E8.25244
G1 X84.957 Y123.517 E8.33756
G1 X84.537 Y121.051 E8.42076
G1 X84.044 Y118.578 E8.50463
G1 X83.483 Y116.131 E8.58813
G1 X83.101 Y114.62 E8.63997
G1 X82.92 Y113.928 E8.66376
G1 X82.725 Y113.028 E8.69439
G1 X82.61 Y112.115 E8.72499
G1 X82.579 Y111.562 E8.74341
G1 X82.564 Y110.911 E8.76507
G1 X82.565 Y107.316 E8.88464
G1 X82.575 Y106.618 E8.90786
G1 X82.628 Y105.699 E8.93848
G1 X82.761 Y104.788 E8.9691
G1 X82.972 Y103.892 E8.99972
G1 X83.26 Y103.018 E9.03032
G1 X83.623 Y102.171 E9.06097
G1 X84.252 Y101.046 E9.10384
G1 X84.431 Y100.767 E9.11487
G1 X85.864 Y98.51 E9.20379
G1 X86.286 Y97.812 E9.23092
G1 X86.496 Y97.476 E9.24409
G1 X87.018 Y96.717 E9.27473
G1 X87.78 Y95.814 E9.31403
G1 X88.003 Y95.578 E9.32483
G1 X88.237 Y95.338 E9.33598
G1 X89.557 Y94.029 E9.39781
G1 X90.044 Y93.558 E9.42034
G1 X90.733 Y92.947 E9.45097
G1 X91.472 Y92.398 E9.48159
G1 X92.256 Y91.916 E9.5122
G1 X93.079 Y91.503 E9.54283
G1 X93.935 Y91.164 E9.57345
G1 X94.817 Y90.9 E9.60407
G1 X95.719 Y90.713 E9.63471
G1 X96.928 Y90.588 E9.67514
G1 X97.168 Y90.577 E9.68313
G1 X97.825 Y90.564 E9.70498
G1 X102.493 Y90.565 E9.86024
G1 X103.191 Y90.575 E9.88346
G0 F6000 X103.197 Y90.175
G1 F1200 X104.133 Y90.229 E9.91464
G1 X105.061 Y90.361 E9.94582
G1 X105.975 Y90.573 E9.97702
G1 X106.867 Y90.862 E10.00821
G1 X107.732 Y91.225 E10.03941
G1 X108.562 Y91.661 E10.07059
G1 X109.668 Y92.396 E10.11476
G1 X109.909 Y92.578 E10.12481
G1 X110.949 Y93.47 E10.17038
G1 X111.247 Y93.761 E10.18423
G1 X112.428 Y94.935 E10.23962
G1 X113.116 Y95.642 E10.27243
G1 X113.662 Y96.231 E10.29914
G1 X115.572 Y98.23 E10.3911
G1 X116.441 Y99.12 E10.43247
G1 X117.067 Y99.819 E10.46368
G1 X117.632 Y100.568 E10.49489
G1 X118.13 Y101.362 E10.52606
G1 X118.559 Y102.196 E10.55725
G1 X118.915 Y103.064 E10.58846
G1 X119.196 Y103.959 E10.61966
G1 X119.4 Y104.874 E10.65084
G1 X119.525 Y105.804 E10.68205
G1 X119.57 Y106.625 E10.70939
G1 X119.581 Y107.415 E10.73567
G1 X119.58 Y110.668 E10.84387
G1 X119.57 Y111.385 E10.86772
G1 X119.517 Y112.322 E10.89893
G1 X119.384 Y113.25 E10.93011
G1 X119.267 Y113.802 E10.94888
G1 X119.113 Y114.434 E10.97052
G1 X118.669 Y116.143 E11.02924
G1 X118.108 Y118.587 E11.11265
G1 X117.6 Y121.108 E11.19818
G1 X117.189 Y123.528 E11.27982
G1 X116.835 Y126.024 E11.36367
G1 X116.547 Y128.566 E11.44876
G1 X116.334 Y131.07 E11.53234
G1 X116.264 Y131.979 E11.56267
G1 X116.204 Y132.56 E11.58209
G1 X115.979 Y133.908 E11.62755
G1 X115.825 Y134.574 E11.65028
G1 X115.423 Y135.916 E11.69688
G1 X115.246 Y136.394 E11.71383
G1 X114.697 Y137.635 E11.75897
G1 X114.441 Y138.129 E11.77747
G1 X113.848 Y139.139 E11.81643
G1 X113.572 Y139.556 E11.83306
G1 X113.021 Y140.316 E11.86428
G1 X112.715 Y140.686 E11.88025
G1 X112.405 Y141.044 E11.896
G1 X112.001 Y141.489 E11.91599
G1 X111.104 Y142.356 E11.95748
G1 X110.675 Y142.726 E11.97633
G1 X109.94 Y143.308 E12.00751
G1 X109.54 Y143.583 E12.02365
G1 X109.256 Y143.77 E12.03496
G1 X108.818 Y144.044 E12.05215
G1 X108.56 Y144.197 E12.06212
G1 X107.808 Y144.605 E12.09058
G1 X107.613 Y144.701 E12.09781
G1 X107.058 Y144.955 E12.11811
G1 X106.717 Y145.1 E12.13043
G1 X105.847 Y145.427 E12.16135
G1 X105.564 Y145.52 E12.17125
G1 X104.456 Y145.821 E12.20944
G1 X102.898 Y146.158 E12.26246
G1 X101.973 Y146.317 E12.29368
G1 X101.039 Y146.397 E12.32485
G1 X100.209 Y146.401 E12.35246
G1 X99.815 Y146.388 E12.36557
G1 X98.88 Y146.317 E12.39676
G1 X97.9 Y146.155 E12.4298
G1 X97.678 Y146.108 E12.43734
G1 X96.769 Y145.875 E12.46856
G1 X95.79 Y145.528 E12.5031
G1 X95.421 Y145.377 E12.51636
G1 X94.292 Y144.838 E12.55797
G1 X93.899 Y144.619 E12.57294
G1 X93.488 Y144.382 E12.58872
G1 X93.139 Y144.172 E12.60226
G1 X92.423 Y143.723 E12.63037
G1 X91.31 Y142.925 E12.67592
G1 X90.945 Y142.627 E12.6916
G1 X90.474 Y142.222 E12.71226
G1 X89.499 Y141.248 E12.75809
G1 X89.234 Y140.948 E12.77141
G1 X88.752 Y140.363 E12.79662
G1 X88.554 Y140.105 E12.80744
G1 X88.197 Y139.613 E12.82765
G1 X87.977 Y139.291 E12.84062
G1 X87.419 Y138.383 E12.87607
G1 X87.18 Y137.948 E12.89258
G1 X86.764 Y137.107 E12.92379
G1 X86.445 Y136.303 E12.95256
G1 X86.25 Y135.749 E12.97209
G1 X85.954 Y134.765 E13.00627
G1 X85.845 Y134.329 E13.02121
G1 X85.612 Y133.1 E13.06282
G1 X85.527 Y132.456 E13.08442
G1 X85.459 Y131.783 E13.10692
G1 X85.417 Y131.188 E13.12676
G1 X85.2 Y128.606 E13.21294
G1 X84.92 Y126.115 E13.29631
G1 X84.565 Y123.603 E13.38069
G1 X84.144 Y121.132 E13.46406
G1 X83.648 Y118.641 E13.54854
G1 X83.083 Y116.179 E13.63256
G1 X82.737 Y114.809 E13.67955
G1 X82.533 Y114.03 E13.70634
G1 X82.334 Y113.113 E13.73755
G1 X82.214 Y112.183 E13.76873
G1 X82.179 Y111.574 E13.78902
G1 X82.164 Y110.911 E13.81108
G1 X82.165 Y107.31 E13.93085
G1 X82.175 Y106.612 E13.95407
G1 X82.229 Y105.676 E13.98525
G1 X82.361 Y104.748 E14.01643
G1 X82.573 Y103.834 E14.04763
G1 X82.862 Y102.942 E14.07882
G1 X83.225 Y102.077 E14.11002
G1 X83.661 Y101.247 E14.1412
G1 X83.916 Y100.83 E14.15746
G1 X84.084 Y100.568 E14.16781
G1 X85.508 Y98.325 E14.25618
G1 X85.947 Y97.6 E14.28437
G1 X86.157 Y97.264 E14.29755
G1 X86.688 Y96.491 E14.32874
G1 X87.49 Y95.539 E14.37014
G1 X87.955 Y95.054 E14.39249
G1 X89.279 Y93.741 E14.45451
G1 X89.766 Y93.27 E14.47704
G1 X90.467 Y92.647 E14.50823
G1 X91.219 Y92.087 E14.53942
G1 X92.016 Y91.592 E14.57062
G1 X92.852 Y91.167 E14.60182
G1 X93.721 Y90.815 E14.633
G1 X94.617 Y90.538 E14.66419
G1 X95.534 Y90.339 E14.6954
G1 X96.909 Y90.189 E14.74141
G1 X97.149 Y90.178 E14.7494
G1 X97.567 Y90.166 E14.76331
G1 X97.822 Y90.164 E14.77179
G1 X102.499 Y90.165 E14.92735
G1 X103.197 Y90.175 E14.95056
G1 F1500 E8.45056
G0 F6000 X109.242 Y106.604
G0 X109.242 Y111.398
G0 X108.789 Y111.851
G0 X100.607 Y115.841
G1 F1500 E14.95056
G1 F1200 X101.126 Y115.841 E14.96783
G1 X101.053 Y116.372 E14.98565
G1 X101.059 Y116.923 E15.00398
G1 X101.074 Y117.001 E15.00662
G1 X100.869 Y117.959 E15.03921
G1 X100.643 Y116.908 E15.07496
G1 X100.674 Y116.466 E15.0897
G1 X100.607 Y115.841 E15.11061
G0 F6000 X100.2 Y115.772
G1 F1200 X100.13 Y115.441 E15.12186
G1 X101.618 Y115.441 E15.17135
G1 X101.519 Y115.909 E15.18726
G1 X101.451 Y116.426 E15.2046
G1 X101.463 Y116.947 E15.22194
G1 X101.478 Y117.023 E15.22451
G1 X101.059 Y118.984 E15.29121
G1 X100.99 Y119.501 E15.30856
G1 X101 Y120.022 E15.32589
G1 X101.014 Y120.095 E15.32836
G1 X100.869 Y120.782 E15.35171
G1 X100.707 Y120.025 E15.37746
G1 X100.734 Y119.513 E15.39451
G1 X100.659 Y118.885 E15.41555
G1 X100.242 Y116.942 E15.48165
G1 X100.273 Y116.411 E15.49934
G1 X100.2 Y115.772 E15.52073
G0 F6000 X99.808 Y115.855
G1 F1200 X99.635 Y115.041 E15.54841
G1 X102.11 Y115.041 E15.63073
G1 X101.91 Y115.991 E15.66302
G1 X101.849 Y116.477 E15.67931
G1 X101.867 Y116.966 E15.69558
G1 X101.883 Y117.042 E15.69817
G1 X101.45 Y119.068 E15.76707
G1 X101.387 Y119.553 E15.78334
G1 X101.404 Y120.042 E15.79961
G1 X101.419 Y120.116 E15.80212
G1 X100.982 Y122.186 E15.87249
G1 X100.92 Y122.672 E15.88879
G1 X100.938 Y123.161 E15.90506
G1 X100.952 Y123.232 E15.90747
G1 X100.871 Y123.622 E15.92072
G1 X100.671 Y122.689 E15.95245
G1 X100.69 Y122.594 E15.95568
G1 X100.704 Y122.105 E15.97195
G1 X100.642 Y121.637 E15.98765
G1 X100.299 Y120.027 E16.0424
G1 X100.314 Y119.953 E16.04491
G1 X100.332 Y119.464 E16.06118
G1 X100.268 Y118.969 E16.07779
G1 X99.832 Y116.939 E16.14684
G1 X99.851 Y116.849 E16.1499
G1 X99.872 Y116.36 E16.16618
G1 X99.808 Y115.855 E16.18311
G0 F6000 X99.417 Y115.939
G1 F1200 X99.141 Y114.641 E16.22725
G1 X102.604 Y114.641 E16.34243
G1 X102.302 Y116.074 E16.39114
G1 X102.247 Y116.526 E16.40628
G1 X102.273 Y116.981 E16.42144
G1 X102.289 Y117.054 E16.42393
G1 X101.841 Y119.151 E16.49525
G1 X101.786 Y119.603 E16.51039
G1 X101.81 Y120.058 E16.52555
G1 X101.825 Y120.128 E16.52793
G1 X101.373 Y122.269 E16.60071
G1 X101.318 Y122.721 E16.61585
G1 X101.344 Y123.176 E16.63101
G1 X101.358 Y123.244 E16.63332
G1 X101.031 Y124.817 E16.68675
G1 X100.977 Y125.27 E16.70193
G1 X101.004 Y125.724 E16.71705
G1 X101.058 Y125.994 E16.72621
G1 X101.169 Y126.426 E16.74105
G1 X101.113 Y126.848 E16.75521
G1 X101.132 Y127.304 E16.77039
