;FLAVOR:Marlin
;TIME:6254
;Filament used: 5.68758m
;Layer height: 0.3
;MINX:67.31
;MINY:72.652
;MINZ:0.2
;MAXX:144.785
;MAXY:138.966
;MAXZ:19.7
;Generated with Cura_SteamEngine 4.6.2
M140 S55
M105
M190 S55
M104 S210
M105
M109 S210
M82 ;absolute extrusion mode
; Ender 3 Custom Start G-code
G92 E0 ; Reset Extruder
G28 ; Home all axes
G1 Z2.0 F3000 ; Move Z Axis up little to prevent scratching of Heat Bed
G1 X0.1 Y20 Z0.3 F5000.0 ; Move to start position
G1 X0.1 Y200.0 Z0.3 F1500.0 E15 ; Draw the first line
G1 X0.4 Y200.0 Z0.3 F5000.0 ; Move to side a little
G1 X0.4 Y20 Z0.3 F1500.0 E30 ; Draw the second line
G92 E0 ; Reset Extruder
G1 Z2.0 F3000 ; Move Z Axis up little to prevent scratching of Heat Bed
G1 X5 Y20 Z0.3 F5000.0 ; Move over to prevent blob squish
G92 E0
G92 E0
G1 F1500 E-6.5
;LAYER_COUNT:66
;LAYER:0
M107
G0 F6000 X87.924 Y73.463 Z0.2
;TYPE:SKIRT
G1 F1500 E0
G1 F1200 X88.826 Y73.516 E0.03005
G1 X89.489 Y73.606 E0.05231
G1 X92.176 Y74.063 E0.14296
G1 X94.647 Y74.414 E0.22597
G1 X97.151 Y74.698 E0.30979
G1 X99.723 Y74.916 E0.39564
G1 X102.25 Y75.058 E0.47982
G1 X104.781 Y75.129 E0.56403
G1 X107.315 Y75.127 E0.64832
G1 X109.884 Y75.054 E0.7338
G1 X112.389 Y74.911 E0.81725
G1 X114.928 Y74.694 E0.902
G1 X117.459 Y74.405 E0.98673
G1 X119.988 Y74.044 E1.0717
G1 X121.338 Y73.822 E1.1172
G1 X122.534 Y73.615 E1.15757
G1 X123.43 Y73.501 E1.18762
G1 X123.891 Y73.473 E1.20298
G1 X124.242 Y73.46 E1.21466
G1 X124.62 Y73.453 E1.22723
G1 X133.191 Y73.454 E1.51231
G1 X133.889 Y73.463 E1.53552
G1 X134.79 Y73.514 E1.56554
G1 X135.684 Y73.646 E1.5956
G1 X136.562 Y73.855 E1.62561
G1 X137.419 Y74.142 E1.65567
G1 X138.246 Y74.503 E1.68569
G1 X139.039 Y74.936 E1.71574
G1 X139.79 Y75.437 E1.74576
G1 X140.494 Y76.003 E1.77581
G1 X141.145 Y76.629 E1.80585
G1 X141.738 Y77.31 E1.83588
G1 X142.268 Y78.041 E1.86591
G1 X142.732 Y78.816 E1.89596
G1 X143.126 Y79.629 E1.926
G1 X143.446 Y80.473 E1.95603
G1 X143.69 Y81.343 E1.98608
G1 X143.856 Y82.231 E2.01613
G1 X143.953 Y83.374 E2.05428
G1 X143.966 Y83.982 E2.0745
G1 X143.965 Y100.453 E2.62233
G1 X143.985 Y113.803 E3.06636
G1 X143.976 Y114.547 E3.0911
G1 X143.925 Y115.449 E3.12115
G1 X143.795 Y116.343 E3.1512
G1 X143.586 Y117.221 E3.18122
G1 X143.3 Y118.078 E3.21127
G1 X142.94 Y118.906 E3.2413
G1 X142.507 Y119.699 E3.27135
G1 X142.006 Y120.45 E3.30137
G1 X141.441 Y121.155 E3.33142
G1 X140.816 Y121.806 E3.36144
G1 X140.135 Y122.4 E3.39149
G1 X139.405 Y122.931 E3.42152
G1 X138.63 Y123.395 E3.45156
G1 X138.021 Y123.699 E3.4742
G1 X137.588 Y123.897 E3.49004
G1 X135.151 Y125.047 E3.57966
G1 X132.875 Y126.2 E3.66452
G1 X130.686 Y127.39 E3.74739
G1 X128.465 Y128.681 E3.83284
G1 X126.306 Y130.015 E3.91725
G1 X124.193 Y131.407 E4.0014
G1 X122.092 Y132.877 E4.08669
G1 X120.102 Y134.355 E4.16914
G1 X119.609 Y134.744 E4.19002
G1 X118.388 Y135.679 E4.24117
G1 X117.648 Y136.196 E4.2712
G1 X117.144 Y136.496 E4.29071
G1 X116.698 Y136.744 E4.30768
G1 X115.89 Y137.147 E4.33771
G1 X115.05 Y137.478 E4.36774
G1 X114.533 Y137.639 E4.38575
G1 X114.157 Y137.746 E4.39875
G1 X113.278 Y137.955 E4.4288
G1 X112.384 Y138.085 E4.45885
G1 X111.631 Y138.133 E4.48394
G1 X110.636 Y138.159 E4.51705
G1 X110.213 Y138.161 E4.53112
G1 X109.43 Y138.148 E4.55717
G1 X107.423 Y138.091 E4.62395
G1 X104.878 Y138.089 E4.70859
G1 X103.39 Y138.122 E4.7581
G1 X102.023 Y138.162 E4.80358
G1 X101.578 Y138.166 E4.81838
G1 X100.688 Y138.149 E4.84799
G1 X100.311 Y138.132 E4.86054
G1 X99.411 Y138.051 E4.8906
G1 X98.707 Y137.931 E4.91435
G1 X98.402 Y137.868 E4.92471
G1 X97.526 Y137.646 E4.95477
G1 X96.455 Y137.258 E4.99265
G1 X96.172 Y137.137 E5.00289
G1 X95.171 Y136.642 E5.04003
G1 X94.976 Y136.532 E5.04748
G1 X94.363 Y136.157 E5.07138
G1 X94.13 Y136.003 E5.08067
G1 X93.422 Y135.491 E5.10973
G1 X93.261 Y135.364 E5.11655
G1 X91.178 Y133.76 E5.20399
G1 X89.112 Y132.26 E5.28891
G1 X87.027 Y130.835 E5.3729
G1 X84.899 Y129.466 E5.45706
G1 X82.736 Y128.16 E5.5411
G1 X80.506 Y126.9 E5.62629
G1 X78.265 Y125.714 E5.71062
G1 X75.999 Y124.595 E5.79468
G1 X75.251 Y124.254 E5.82202
G1 X73.97 Y123.65 E5.86912
G1 X73.171 Y123.229 E5.89916
G1 X72.412 Y122.739 E5.92921
G1 X71.7 Y122.184 E5.95924
G1 X71.04 Y121.568 E5.98926
G1 X70.436 Y120.896 E6.01932
G1 X69.895 Y120.173 E6.04935
G1 X69.419 Y119.405 E6.0794
G1 X69.013 Y118.599 E6.10942
G1 X68.681 Y117.759 E6.13946
G1 X68.423 Y116.893 E6.16951
G1 X68.244 Y116.008 E6.19955
G1 X68.125 Y114.74 E6.24191
G1 X68.11 Y114.101 E6.26316
G1 X68.112 Y84.183 E7.25824
G1 X68.121 Y83.523 E7.28019
G1 X68.173 Y82.621 E7.31025
G1 X68.305 Y81.728 E7.34027
G1 X68.515 Y80.85 E7.3703
G1 X68.803 Y79.993 E7.40037
G1 X69.164 Y79.166 E7.43038
G1 X69.598 Y78.374 E7.46042
G1 X70.1 Y77.623 E7.49046
G1 X70.666 Y76.92 E7.52048
G1 X71.293 Y76.269 E7.55054
G1 X71.974 Y75.676 E7.58058
G1 X72.705 Y75.146 E7.61061
G1 X73.481 Y74.683 E7.64066
G1 X74.294 Y74.29 E7.6707
G1 X75.139 Y73.971 E7.70074
G1 X76.008 Y73.727 E7.73076
G1 X76.896 Y73.562 E7.7608
G1 X78.005 Y73.467 E7.79782
G1 X78.644 Y73.452 E7.81908
G1 X87.226 Y73.453 E8.10452
G1 X87.924 Y73.463 E8.12773
G1 F1500 E1.62773
G0 F6000 X124.228 Y73.06
G1 F1500 E8.12773
G1 F1200 X124.62 Y73.053 E8.14077
G1 X133.196 Y73.054 E8.42601
G1 X133.894 Y73.063 E8.44923
G1 X134.813 Y73.115 E8.47985
G1 X135.724 Y73.246 E8.51046
G1 X136.62 Y73.456 E8.54107
G1 X137.495 Y73.743 E8.57169
G1 X138.342 Y74.105 E8.60233
G1 X139.154 Y74.539 E8.63295
G1 X139.925 Y75.041 E8.66355
G1 X140.65 Y75.609 E8.69419
G1 X141.323 Y76.238 E8.72482
G1 X141.938 Y76.922 E8.75542
G1 X142.492 Y77.657 E8.78603
G1 X142.98 Y78.438 E8.81666
G1 X143.399 Y79.258 E8.84729
G1 X143.745 Y80.111 E8.8779
G1 X144.015 Y80.991 E8.90852
G1 X144.208 Y81.892 E8.93917
G1 X144.322 Y82.805 E8.96977
G1 X144.353 Y83.363 E8.98836
G1 X144.366 Y83.982 E9.00895
G1 X144.365 Y100.453 E9.55678
G1 X144.385 Y113.808 E10.00097
G1 X144.376 Y114.552 E10.02571
G1 X144.325 Y115.471 E10.05633
G1 X144.194 Y116.383 E10.08697
G1 X143.985 Y117.279 E10.11757
G1 X143.699 Y118.154 E10.14819
G1 X143.338 Y119.001 E10.17881
G1 X142.905 Y119.814 E10.20945
G1 X142.402 Y120.585 E10.24007
G1 X141.835 Y121.31 E10.27068
G1 X141.207 Y121.984 E10.30132
G1 X140.523 Y122.6 E10.33194
G1 X139.788 Y123.155 E10.36257
G1 X139.008 Y123.643 E10.39317
G1 X138.187 Y124.063 E10.42384
G1 X137.667 Y124.301 E10.44286
G1 X135.338 Y125.4 E10.52852
G1 X133.095 Y126.536 E10.61214
G1 X130.872 Y127.745 E10.69631
G1 X128.654 Y129.033 E10.78162
G1 X126.531 Y130.346 E10.86464
G1 X124.396 Y131.752 E10.94967
G1 X122.354 Y133.181 E11.03256
G1 X120.34 Y134.677 E11.11601
G1 X119.853 Y135.062 E11.13665
G1 X118.632 Y135.997 E11.1878
G1 X117.877 Y136.524 E11.21843
G1 X117.338 Y136.845 E11.23929
G1 X116.892 Y137.093 E11.25627
G1 X116.069 Y137.505 E11.28688
G1 X115.213 Y137.844 E11.3175
G1 X114.642 Y138.024 E11.33741
G1 X114.266 Y138.131 E11.35041
G1 X113.371 Y138.345 E11.38102
G1 X112.46 Y138.479 E11.41165
G1 X111.642 Y138.532 E11.43891
G1 X110.647 Y138.558 E11.47202
G1 X110.207 Y138.561 E11.48665
G1 X109.419 Y138.548 E11.51286
G1 X107.412 Y138.491 E11.57964
G1 X104.843 Y138.489 E11.66509
G1 X103.453 Y138.52 E11.71133
G1 X102.035 Y138.562 E11.75852
G1 X101.572 Y138.566 E11.77392
G1 X100.999 Y138.558 E11.79298
G1 X100.67 Y138.548 E11.80392
G1 X100.293 Y138.531 E11.81647
G1 X99.375 Y138.45 E11.84713
G1 X98.626 Y138.323 E11.87239
G1 X98.321 Y138.26 E11.88275
G1 X97.428 Y138.035 E11.91338
G1 X96.298 Y137.625 E11.95336
G1 X96.015 Y137.504 E11.9636
G1 X94.974 Y136.99 E12.00221
G1 X94.779 Y136.88 E12.00966
G1 X94.142 Y136.491 E12.03449
G1 X93.909 Y136.337 E12.04378
G1 X93.174 Y135.804 E12.07397
G1 X93.067 Y135.719 E12.07852
G1 X90.922 Y134.068 E12.16855
G1 X88.92 Y132.615 E12.25082
G1 X86.807 Y131.17 E12.33596
G1 X84.681 Y129.803 E12.42003
G1 X82.512 Y128.493 E12.50431
G1 X80.301 Y127.243 E12.58878
G1 X78.08 Y126.068 E12.67236
G1 X75.848 Y124.966 E12.75515
G1 X75.08 Y124.616 E12.78322
G1 X73.799 Y124.012 E12.83032
G1 X72.984 Y123.583 E12.86096
G1 X72.21 Y123.086 E12.89155
G1 X71.481 Y122.523 E12.92219
G1 X70.804 Y121.899 E12.95281
G1 X70.184 Y121.219 E12.98342
G1 X69.625 Y120.487 E13.01405
G1 X69.132 Y119.71 E13.04466
G1 X68.708 Y118.892 E13.0753
G1 X68.356 Y118.041 E13.10593
G1 X68.08 Y117.163 E13.13654
G1 X67.881 Y116.264 E13.16717
G1 X67.761 Y115.352 E13.19776
G1 X67.725 Y114.752 E13.21775
G1 X67.715 Y114.429 E13.2285
G1 X67.71 Y114.101 E13.23941
G1 X67.712 Y84.177 E14.23469
G1 X67.721 Y83.517 E14.25664
G1 X67.774 Y82.598 E14.28726
G1 X67.906 Y81.687 E14.31788
G1 X68.116 Y80.791 E14.34848
G1 X68.404 Y79.916 E14.37912
G1 X68.766 Y79.07 E14.40973
G1 X69.201 Y78.258 E14.44037
G1 X69.704 Y77.487 E14.47099
G1 X70.272 Y76.763 E14.50159
G1 X70.901 Y76.091 E14.53221
G1 X71.586 Y75.476 E14.56282
G1 X72.322 Y74.922 E14.59346
G1 X73.103 Y74.435 E14.62408
G1 X73.923 Y74.017 E14.65469
G1 X74.777 Y73.672 E14.68532
G1 X75.657 Y73.402 E14.71594
G1 X76.557 Y73.21 E14.74655
G1 X77.471 Y73.096 E14.77718
G1 X77.993 Y73.067 E14.79457
G1 X78.317 Y73.057 E14.80535
G1 X78.644 Y73.052 E14.81623
G1 X87.232 Y73.053 E15.10187
G1 X87.93 Y73.063 E15.12508
G1 X88.849 Y73.116 E15.1557
G1 X89.556 Y73.212 E15.17943
G1 X92.187 Y73.66 E15.2682
G1 X94.716 Y74.019 E15.35316
G1 X97.229 Y74.303 E15.43727
G1 X99.744 Y74.517 E15.52122
G1 X102.249 Y74.658 E15.60467
G1 X104.792 Y74.729 E15.68929
G1 X107.304 Y74.727 E15.77284
G1 X109.849 Y74.654 E15.85752
G1 X112.368 Y74.511 E15.94143
G1 X114.881 Y74.296 E16.02532
G1 X117.428 Y74.006 E16.11058
G1 X119.917 Y73.65 E16.19421
G1 X121.288 Y73.424 E16.24043
G1 X122.466 Y73.221 E16.28018
G1 X123.379 Y73.103 E16.3108
G1 X124.228 Y73.06 E16.33908
G1 F1500 E9.83908
G0 F6000 X87.936 Y72.663
G1 F1500 E16.33908
G1 F1200 X88.872 Y72.717 E16.37026
G1 X89.623 Y72.818 E16.39546
G1 X92.238 Y73.263 E16.48369
G1 X94.781 Y73.624 E16.56912
G1 X97.236 Y73.902 E16.65129
G1 X99.766 Y74.117 E16.73574
G1 X102.282 Y74.258 E16.81956
G1 X104.803 Y74.329 E16.90344
G1 X107.327 Y74.327 E16.98739
G1 X109.817 Y74.256 E17.07024
G1 X112.349 Y74.111 E17.15459
G1 X114.836 Y73.9 E17.23761
G1 X117.363 Y73.611 E17.3222
G1 X119.839 Y73.257 E17.40539
G1 X121.203 Y73.032 E17.45137
G1 X122.398 Y72.826 E17.49171
G1 X123.328 Y72.706 E17.52289
G1 X123.862 Y72.674 E17.54069
G1 X124.213 Y72.661 E17.55237
G1 X124.62 Y72.653 E17.56591
G1 X133.201 Y72.654 E17.85131
G1 X133.899 Y72.663 E17.87453
G1 X134.835 Y72.715 E17.90571
G1 X135.764 Y72.847 E17.93692
G1 X136.678 Y73.057 E17.96811
G1 X137.571 Y73.344 E17.99931
G1 X138.436 Y73.707 E18.03051
G1 X139.267 Y74.141 E18.06169
G1 X140.058 Y74.645 E18.09289
G1 X140.803 Y75.215 E18.12409
G1 X141.497 Y75.846 E18.15528
G1 X142.134 Y76.533 E18.18644
G1 X142.711 Y77.273 E18.21765
G1 X143.223 Y78.059 E18.24885
G1 X143.666 Y78.886 E18.28006
G1 X144.037 Y79.747 E18.31124
G1 X144.333 Y80.637 E18.34244
G1 X144.552 Y81.549 E18.37363
G1 X144.693 Y82.476 E18.40482
G1 X144.753 Y83.352 E18.43402
G1 X144.766 Y83.982 E18.45498
G1 X144.765 Y100.453 E19.00281
G1 X144.785 Y113.813 E19.44716
G1 X144.776 Y114.557 E19.47191
G1 X144.725 Y115.494 E19.50312
G1 X144.594 Y116.422 E19.53429
G1 X144.384 Y117.336 E19.56549
G1 X144.098 Y118.229 E19.59667
G1 X143.736 Y119.095 E19.62789
G1 X143.302 Y119.926 E19.65907
G1 X142.799 Y120.717 E19.69025
G1 X142.23 Y121.463 E19.72146
G1 X141.6 Y122.158 E19.75266
G1 X140.912 Y122.796 E19.78386
G1 X140.173 Y123.373 E19.81505
G1 X139.388 Y123.886 E19.84624
G1 X138.354 Y124.427 E19.88505
G1 X137.812 Y124.675 E19.90488
G1 X135.511 Y125.761 E19.9895
G1 X133.261 Y126.901 E20.0734
G1 X131.057 Y128.099 E20.15683
G1 X128.887 Y129.36 E20.24031
G1 X126.74 Y130.687 E20.32425
G1 X124.64 Y132.07 E20.40789
G1 X122.559 Y133.526 E20.49236
G1 X120.592 Y134.987 E20.57385
G1 X120.096 Y135.379 E20.59488
G1 X118.875 Y136.314 E20.64603
G1 X118.107 Y136.852 E20.67722
G1 X117.533 Y137.195 E20.69946
G1 X117.087 Y137.443 E20.71643
G1 X116.248 Y137.863 E20.74764
G1 X115.377 Y138.211 E20.77884
G1 X114.752 Y138.409 E20.80064
G1 X114.376 Y138.516 E20.81364
G1 X113.464 Y138.734 E20.84483
G1 X112.536 Y138.873 E20.87604
G1 X111.652 Y138.932 E20.90551
G1 X110.657 Y138.958 E20.93861
G1 X110.201 Y138.961 E20.95378
G1 X109.407 Y138.948 E20.98019
G1 X107.399 Y138.891 E21.04701
G1 X104.852 Y138.889 E21.13172
G1 X103.473 Y138.92 E21.1776
G1 X102.047 Y138.962 E21.22505
G1 X101.566 Y138.966 E21.24105
G1 X100.993 Y138.958 E21.26011
G1 X100.651 Y138.948 E21.27149
G1 X100.274 Y138.931 E21.28404
G1 X99.34 Y138.849 E21.31522
G1 X98.545 Y138.715 E21.34204
G1 X98.24 Y138.652 E21.35239
G1 X97.33 Y138.423 E21.38361
G1 X96.141 Y137.993 E21.42566
G1 X95.858 Y137.872 E21.43589
G1 X94.777 Y137.339 E21.47598
G1 X94.582 Y137.229 E21.48343
G1 X93.922 Y136.825 E21.50917
G1 X93.689 Y136.671 E21.51846
G1 X92.925 Y136.118 E21.54982
G1 X92.767 Y135.993 E21.55653
G1 X90.689 Y134.393 E21.64375
G1 X88.666 Y132.924 E21.72691
G1 X86.587 Y131.504 E21.81065
G1 X84.464 Y130.138 E21.89461
G1 X82.329 Y128.849 E21.97756
G1 X80.139 Y127.611 E22.06123
G1 X77.88 Y126.415 E22.14625
G1 X75.671 Y125.325 E22.22818
G1 X74.91 Y124.977 E22.25601
G1 X73.629 Y124.373 E22.30311
G1 X72.798 Y123.938 E22.33431
G1 X72.008 Y123.433 E22.3655
G1 X71.263 Y122.862 E22.39671
G1 X70.57 Y122.231 E22.42789
G1 X69.933 Y121.542 E22.4591
G1 X69.358 Y120.802 E22.49027
G1 X68.847 Y120.015 E22.52148
G1 X68.405 Y119.188 E22.55266
G1 X68.035 Y118.326 E22.58386
G1 X67.74 Y117.436 E22.61505
G1 X67.522 Y116.524 E22.64624
G1 X67.383 Y115.596 E22.67745
G1 X67.325 Y114.764 E22.70519
G1 X67.315 Y114.441 E22.71593
G1 X67.31 Y114.101 E22.72724
G1 X67.312 Y84.172 E23.72269
G1 X67.321 Y83.512 E23.74464
G1 X67.374 Y82.576 E23.77582
G1 X67.506 Y81.647 E23.80703
G1 X67.717 Y80.733 E23.83823
G1 X68.005 Y79.841 E23.86941
G1 X68.368 Y78.976 E23.90061
G1 X68.803 Y78.145 E23.9318
G1 X69.308 Y77.355 E23.96299
G1 X69.878 Y76.61 E23.99419
G1 X70.509 Y75.916 E24.02539
G1 X71.198 Y75.279 E24.05659
G1 X71.938 Y74.703 E24.08778
G1 X72.724 Y74.192 E24.11897
G1 X73.551 Y73.75 E24.15015
G1 X74.413 Y73.379 E24.18137
G1 X75.303 Y73.084 E24.21255
G1 X76.215 Y72.865 E24.24375
G1 X77.142 Y72.725 E24.27493
G1 X77.981 Y72.667 E24.3029
G1 X78.305 Y72.657 E24.31368
G1 X78.644 Y72.652 E24.32496
G1 X87.238 Y72.653 E24.6108
G1 X87.936 Y72.663 E24.63402
G1 F1500 E18.13402
;MESH:Object 3
G0 F6000 X88.448 Y83.495
G0 X88.439 Y105.301
G0 X87.934 Y106.374
G0 X87.004 Y106.736
G0 X87.005 Y84.434
G0 X79.093 Y84.434
G0 X79.092 Y113.649
G0 X97.798 Y114.003
G0 X98.165 Y117.698
G0 X99.807 Y121.828
G0 X99.824 Y126.181
G0 X100.103 Y126.769
G0 X100.634 Y127.136
G0 X101.25 Y127.185
G0 X101.56 Y114.003
G0 X110.493 Y114.003
G0 X110.643 Y127.367
;TYPE:WALL-INNER
G1 F1500 E24.63402
G1 F1200 X110.643 Y127.355 E24.63441
G1 X110.643 Y120.003 E24.87894
G1 X110.665 Y119.436 E24.89782
G1 X110.665 Y113.831 E25.08424
G1 X101.388 Y113.831 E25.39279
G1 X101.388 Y119.448 E25.57961
G1 X101.432 Y119.998 E25.59797
G1 X101.432 Y127.356 E25.84269
G1 X101.432 Y127.367 E25.84306
G1 X101.055 Y127.367 E25.8556
G1 X101.044 Y127.367 E25.85596
G1 X100.771 Y127.349 E25.86506
G1 X100.572 Y127.296 E25.87191
G1 X100.352 Y127.179 E25.8802
G1 X100.126 Y127.033 E25.88914
G1 X99.969 Y126.876 E25.89653
G1 X99.831 Y126.676 E25.90461
G1 X99.729 Y126.439 E25.91319
G1 X99.654 Y126.211 E25.92118
G1 X99.636 Y125.897 E25.93164
G1 X99.636 Y121.861 E26.06587
G1 X98.581 Y119.217 E26.16056
G1 X97.994 Y117.732 E26.21367
G1 X97.968 Y113.831 E26.34342
G1 X79.109 Y113.831 E26.97067
G1 X78.91 Y113.831 E26.97729
G1 X78.91 Y113.632 E26.98157
G1 X78.911 Y84.252 E27.95875
G1 X86.988 Y84.252 E28.2274
G1 X87.187 Y84.252 E28.23401
G1 X87.187 Y84.451 E28.2383
G1 X87.186 Y106.355 E28.96683
G1 X87.186 Y106.554 E28.97345
G1 X87.385 Y106.554 E28.97773
G1 X124.691 Y106.555 E30.21853
G1 X124.89 Y106.555 E30.22515
G1 X124.89 Y106.356 E30.22943
G1 X124.89 Y84.253 E30.96458
G1 X132.967 Y84.253 E31.23322
G1 X133.166 Y84.253 E31.23984
G1 X133.166 Y84.452 E31.24412
G1 X133.165 Y100.452 E31.77629
G1 X133.186 Y113.633 E32.21469
G1 X133.186 Y113.832 E32.22131
G1 X132.987 Y113.832 E32.22559
G1 X114.302 Y113.831 E32.84705
G1 X114.103 Y113.831 E32.85367
G1 X114.103 Y114.03 E32.85796
G1 X114.103 Y117.687 E32.97959
