;FLAVOR:Marlin
;TIME:4335
;Filament used: 2.84681m
;Layer height: 0.2
;MINX:70.871
;MINY:61.903
;MINZ:0.2
;MAXX:170.371
;MAXY:183.903
;MAXZ:10
;Generated with Cura_SteamEngine 4.6.1
M140 S55
M105
M190 S55
M104 S200
M105
M109 S200
M82 ;absolute extrusion mode
; Ender 3 Custom Start G-code
G92 E0 ; Reset Extruder
G28 ; Home all axes
G1 Z2.0 F3000 ; Move Z Axis up little to prevent scratching of Heat Bed
G1 X0.1 Y20 Z0.3 F5000.0 ; Move to start position
G1 X0.1 Y200.0 Z0.3 F1500.0 E15 ; Draw the first line
G1 X0.4 Y200.0 Z0.3 F5000.0 ; Move to side a little
G1 X0.4 Y20 Z0.3 F1500.0 E30 ; Draw the second line
G92 E0 ; Reset Extruder
G1 Z2.0 F3000 ; Move Z Axis up little to prevent scratching of Heat Bed
G1 X5 Y20 Z0.3 F5000.0 ; Move over to prevent blob squish
G92 E0
G92 E0
G1 F2700 E-5
;LAYER_COUNT:50
;LAYER:0
M107
G0 F6000 X134.509 Y62.714 Z0.2
;TYPE:SKIRT
G1 F2700 E0
G1 F1200 X135.411 Y62.767 E0.03005
G1 X136.304 Y62.899 E0.06008
G1 X137.182 Y63.11 E0.09011
G1 X138.038 Y63.398 E0.12015
G1 X138.865 Y63.76 E0.15018
G1 X139.657 Y64.195 E0.18023
G1 X140.408 Y64.697 E0.21027
G1 X141.111 Y65.264 E0.24031
G1 X141.761 Y65.891 E0.27035
G1 X142.353 Y66.573 E0.30039
G1 X142.883 Y67.304 E0.33042
G1 X143.345 Y68.08 E0.36046
G1 X143.738 Y68.893 E0.39049
G1 X144.056 Y69.738 E0.42052
G1 X144.299 Y70.608 E0.45056
G1 X144.464 Y71.496 E0.4806
G1 X144.525 Y72.035 E0.49865
G1 X144.586 Y72.755 E0.52268
G1 X144.696 Y74.272 E0.57327
G1 X144.947 Y76.762 E0.6565
G1 X145.279 Y79.325 E0.74246
G1 X145.678 Y81.845 E0.82732
G1 X146.137 Y84.298 E0.91033
G1 X146.679 Y86.795 E0.99531
G1 X147.284 Y89.247 E1.07931
G1 X147.966 Y91.712 E1.16438
G1 X148.722 Y94.168 E1.24985
G1 X149.527 Y96.546 E1.33335
G1 X150.412 Y98.934 E1.41805
G1 X151.353 Y101.266 E1.50169
G1 X152.383 Y103.625 E1.5873
G1 X153.461 Y105.917 E1.67155
G1 X154.598 Y108.165 E1.75534
G1 X155.817 Y110.416 E1.84048
G1 X157.085 Y112.606 E1.92464
G1 X158.42 Y114.77 E2.00921
G1 X159.817 Y116.896 E2.09383
G1 X161.268 Y118.975 E2.17815
G1 X162.784 Y121.021 E2.26284
G1 X164.349 Y123.012 E2.34707
G1 X165.957 Y124.942 E2.43063
G1 X166.421 Y125.471 E2.45403
G1 X167.103 Y126.267 E2.48889
G1 X167.659 Y126.978 E2.51891
G1 X168.151 Y127.735 E2.54894
G1 X168.574 Y128.533 E2.57898
G1 X168.924 Y129.366 E2.60903
G1 X169.199 Y130.226 E2.63906
G1 X169.398 Y131.107 E2.6691
G1 X169.517 Y132.002 E2.69913
G1 X169.548 Y132.471 E2.71477
G1 X169.562 Y132.801 E2.72575
G1 X169.571 Y133.233 E2.74012
G1 X169.57 Y172.293 E4.03927
G1 X169.561 Y173.02 E4.06345
G1 X169.51 Y173.922 E4.0935
G1 X169.379 Y174.816 E4.12355
G1 X169.17 Y175.694 E4.15357
G1 X168.884 Y176.551 E4.18362
G1 X168.523 Y177.379 E4.21366
G1 X168.091 Y178.171 E4.24366
G1 X167.59 Y178.923 E4.27372
G1 X167.024 Y179.627 E4.30376
G1 X166.399 Y180.278 E4.33378
G1 X165.718 Y180.872 E4.36383
G1 X164.987 Y181.403 E4.39389
G1 X164.213 Y181.867 E4.4239
G1 X163.4 Y182.261 E4.45395
G1 X162.556 Y182.581 E4.48397
G1 X161.686 Y182.826 E4.51403
G1 X160.799 Y182.992 E4.54405
G1 X159.648 Y183.09 E4.58247
G1 X159.041 Y183.103 E4.60266
G1 X129.932 Y183.102 E5.57083
G1 X129.233 Y183.092 E5.59408
G1 X128.332 Y183.039 E5.6241
G1 X127.438 Y182.907 E5.65416
G1 X126.56 Y182.696 E5.68419
G1 X125.704 Y182.408 E5.71423
G1 X124.877 Y182.046 E5.74426
G1 X124.085 Y181.612 E5.77429
G1 X123.334 Y181.109 E5.80436
G1 X122.631 Y180.542 E5.8344
G1 X121.981 Y179.915 E5.86443
G1 X121.389 Y179.233 E5.89447
G1 X120.86 Y178.502 E5.92448
G1 X120.397 Y177.726 E5.95454
G1 X120.005 Y176.913 E5.98456
G1 X119.589 Y175.757 E6.02542
G1 X119.417 Y175.169 E6.0458
G1 X118.653 Y172.681 E6.13236
G1 X117.849 Y170.302 E6.21588
G1 X116.952 Y167.878 E6.30185
G1 X116.018 Y165.556 E6.38509
G1 X115.008 Y163.239 E6.46916
G1 X113.915 Y160.912 E6.55467
G1 X112.775 Y158.656 E6.63874
G1 X111.555 Y156.398 E6.7241
G1 X110.299 Y154.226 E6.80755
G1 X108.957 Y152.052 E6.89253
G1 X107.581 Y149.951 E6.97606
G1 X106.104 Y147.835 E7.06189
G1 X104.619 Y145.828 E7.14493
G1 X103.027 Y143.801 E7.23065
G1 X101.421 Y141.869 E7.31421
G1 X99.727 Y139.948 E7.3994
G1 X97.988 Y138.08 E7.48428
G1 X96.226 Y136.295 E7.56771
G1 X94.398 Y134.543 E7.65192
G1 X92.499 Y132.825 E7.73709
G1 X90.556 Y131.164 E7.82211
G1 X88.609 Y129.592 E7.90534
G1 X86.573 Y128.043 E7.99043
G1 X84.507 Y126.56 E8.07502
G1 X82.401 Y125.137 E8.15955
G1 X80.277 Y123.789 E8.24322
G1 X78.021 Y122.443 E8.3306
G1 X76.795 Y121.738 E8.37764
G1 X76.033 Y121.253 E8.40768
G1 X75.317 Y120.703 E8.43771
G1 X74.652 Y120.092 E8.46775
G1 X74.044 Y119.424 E8.49779
G1 X73.497 Y118.706 E8.52781
G1 X73.016 Y117.941 E8.55787
G1 X72.605 Y117.137 E8.5879
G1 X72.266 Y116.3 E8.61793
G1 X72.002 Y115.436 E8.64798
G1 X71.816 Y114.553 E8.678
G1 X71.686 Y113.212 E8.72281
G1 X71.671 Y112.573 E8.74407
G1 X71.672 Y73.439 E10.04567
G1 X71.681 Y72.774 E10.06779
G1 X71.733 Y71.872 E10.09784
G1 X71.865 Y70.979 E10.12786
G1 X72.075 Y70.101 E10.15789
G1 X72.362 Y69.244 E10.18795
G1 X72.724 Y68.417 E10.21797
G1 X73.157 Y67.625 E10.248
G1 X73.659 Y66.874 E10.27804
G1 X74.226 Y66.17 E10.30811
G1 X74.852 Y65.52 E10.33812
G1 X75.533 Y64.927 E10.36815
G1 X76.265 Y64.397 E10.39821
G1 X77.04 Y63.934 E10.42824
G1 X77.853 Y63.541 E10.45827
G1 X78.698 Y63.221 E10.48833
G1 X79.567 Y62.978 E10.51834
G1 X80.455 Y62.812 E10.54838
G1 X81.594 Y62.716 E10.5864
G1 X82.201 Y62.703 E10.6066
G1 X133.811 Y62.704 E12.32315
G1 X134.509 Y62.714 E12.34637
G0 F6000 X134.515 Y62.314
G1 F1200 X135.434 Y62.367 E12.37699
G1 X136.345 Y62.5 E12.40761
G1 X137.241 Y62.711 E12.43822
G1 X138.115 Y62.999 E12.46883
G1 X138.962 Y63.362 E12.49948
G1 X139.773 Y63.797 E12.53009
G1 X140.543 Y64.301 E12.5607
G1 X141.267 Y64.87 E12.59132
G1 X141.939 Y65.5 E12.62196
G1 X142.554 Y66.185 E12.65258
G1 X143.107 Y66.921 E12.6832
G1 X143.594 Y67.702 E12.71381
G1 X144.011 Y68.523 E12.74444
G1 X144.356 Y69.377 E12.77507
G1 X144.625 Y70.257 E12.80568
G1 X144.817 Y71.158 E12.83632
G1 X144.924 Y72.001 E12.86458
G1 X144.985 Y72.726 E12.88878
G1 X145.095 Y74.239 E12.93924
G1 X145.347 Y76.742 E13.02291
G1 X145.671 Y79.243 E13.10679
G1 X146.067 Y81.746 E13.19107
G1 X146.535 Y84.245 E13.27563
G1 X147.073 Y86.72 E13.35987
G1 X147.671 Y89.149 E13.44308
G1 X148.35 Y91.603 E13.52776
G1 X149.097 Y94.028 E13.61216
G1 X149.905 Y96.415 E13.69598
G1 X150.787 Y98.794 E13.78036
G1 X151.726 Y101.123 E13.86389
G1 X152.74 Y103.444 E13.94813
G1 X153.816 Y105.731 E14.03219
G1 X154.95 Y107.973 E14.11576
G1 X156.172 Y110.231 E14.20115
G1 X157.422 Y112.39 E14.28413
G1 X158.768 Y114.57 E14.36934
G1 X160.146 Y116.669 E14.45286
G1 X161.585 Y118.73 E14.53646
G1 X163.105 Y120.781 E14.62137
G1 X164.656 Y122.754 E14.70484
G1 X166.281 Y124.705 E14.78929
G1 X166.725 Y125.21 E14.81165
G1 X167.407 Y126.006 E14.84652
G1 X167.975 Y126.731 E14.87715
G1 X168.478 Y127.502 E14.90777
G1 X168.912 Y128.314 E14.93839
G1 X169.274 Y129.16 E14.969
G1 X169.562 Y130.035 E14.99964
G1 X169.772 Y130.931 E15.03025
G1 X169.904 Y131.842 E15.06086
G1 X169.947 Y132.454 E15.08127
G1 X169.961 Y132.784 E15.09225
G1 X169.971 Y133.233 E15.10719
G1 X169.97 Y172.298 E16.4065
G1 X169.961 Y173.025 E16.43068
G1 X169.91 Y173.944 E16.46129
G1 X169.779 Y174.856 E16.49194
G1 X169.569 Y175.752 E16.52255
G1 X169.283 Y176.627 E16.55316
G1 X168.922 Y177.474 E16.58379
G1 X168.488 Y178.286 E16.61441
G1 X167.986 Y179.058 E16.64504
G1 X167.418 Y179.783 E16.67567
G1 X166.79 Y180.456 E16.70629
G1 X166.106 Y181.072 E16.7369
G1 X165.371 Y181.626 E16.76751
G1 X164.591 Y182.115 E16.79813
G1 X163.771 Y182.534 E16.82876
G1 X162.918 Y182.88 E16.85938
G1 X162.038 Y183.151 E16.89
G1 X161.138 Y183.344 E16.92062
G1 X160.224 Y183.459 E16.95126
G1 X159.659 Y183.49 E16.97008
G1 X159.041 Y183.503 E16.99064
G1 X129.926 Y183.502 E17.95901
G1 X129.227 Y183.492 E17.98226
G1 X128.308 Y183.439 E18.01287
G1 X127.397 Y183.306 E18.0435
G1 X126.501 Y183.095 E18.07411
G1 X125.627 Y182.807 E18.10472
G1 X124.781 Y182.444 E18.13534
G1 X123.969 Y182.009 E18.16598
G1 X123.199 Y181.505 E18.19658
G1 X122.475 Y180.936 E18.22721
G1 X121.803 Y180.307 E18.25783
G1 X121.188 Y179.621 E18.28847
G1 X120.635 Y178.885 E18.31909
G1 X120.148 Y178.104 E18.3497
G1 X119.731 Y177.283 E18.38033
G1 X119.386 Y176.429 E18.41096
G1 X119.205 Y175.869 E18.43054
G1 X119.021 Y175.24 E18.45233
G1 X118.278 Y172.821 E18.5365
G1 X117.467 Y170.421 E18.62076
G1 X116.594 Y168.06 E18.70448
G1 X115.644 Y165.699 E18.78913
G1 X114.637 Y163.39 E18.87291
G1 X113.553 Y161.084 E18.95766
G1 X112.424 Y158.847 E19.041
G1 X111.214 Y156.609 E19.12562
G1 X109.954 Y154.431 E19.20931
G1 X108.615 Y152.259 E19.29418
G1 X107.245 Y150.17 E19.37727
G1 X105.786 Y148.079 E19.46207
G1 X104.282 Y146.046 E19.54618
G1 X102.721 Y144.059 E19.63022
G1 X101.115 Y142.126 E19.71381
G1 X99.452 Y140.24 E19.79744
G1 X97.693 Y138.351 E19.88329
G1 X95.947 Y136.582 E19.96596
G1 X94.118 Y134.829 E20.05022
G1 X92.234 Y133.125 E20.13471
G1 X90.329 Y131.496 E20.21808
G1 X88.322 Y129.876 E20.30386
G1 X86.344 Y128.37 E20.38655
G1 X84.272 Y126.884 E20.47136
G1 X82.193 Y125.479 E20.55481
G1 X80.037 Y124.111 E20.63974
G1 X77.87 Y122.818 E20.72367
G1 X76.596 Y122.085 E20.77256
G1 X75.819 Y121.591 E20.80318
G1 X75.087 Y121.032 E20.83381
G1 X74.407 Y120.412 E20.86442
G1 X73.783 Y119.735 E20.89504
G1 X73.22 Y119.007 E20.92565
G1 X72.722 Y118.232 E20.95629
G1 X72.294 Y117.417 E20.98691
G1 X71.937 Y116.568 E21.01754
G1 X71.656 Y115.692 E21.04814
G1 X71.452 Y114.794 E21.07877
G1 X71.327 Y113.882 E21.10939
G1 X71.286 Y113.224 E21.13131
G1 X71.276 Y112.901 E21.14206
G1 X71.271 Y112.573 E21.15297
G1 X71.272 Y73.434 E22.45474
G1 X71.281 Y72.769 E22.47686
G1 X71.333 Y71.849 E22.50751
G1 X71.465 Y70.938 E22.53813
G1 X71.676 Y70.042 E22.56874
G1 X71.963 Y69.167 E22.59937
G1 X72.326 Y68.321 E22.62999
G1 X72.76 Y67.509 E22.66061
G1 X73.263 Y66.738 E22.69123
G1 X73.832 Y66.014 E22.72186
G1 X74.46 Y65.342 E22.75245
G1 X75.145 Y64.726 E22.78309
G1 X75.881 Y64.173 E22.81371
G1 X76.662 Y63.685 E22.84434
G1 X77.482 Y63.267 E22.87495
G1 X78.336 Y62.922 E22.90559
G1 X79.216 Y62.652 E22.9362
G1 X80.116 Y62.46 E22.96681
G1 X81.03 Y62.346 E22.99744
G1 X81.583 Y62.316 E23.01586
G1 X82.201 Y62.303 E23.03642
G1 X133.817 Y62.304 E24.75318
G1 X134.515 Y62.314 E24.7764
G0 F6000 X134.521 Y61.914
G1 F1200 X135.457 Y61.968 E24.80758
G1 X136.385 Y62.1 E24.83876
G1 X137.299 Y62.312 E24.86996
G1 X138.191 Y62.601 E24.90115
G1 X139.056 Y62.964 E24.93235
G1 X139.886 Y63.4 E24.96353
G1 X140.677 Y63.905 E24.99475
G1 X141.421 Y64.476 E25.02594
G1 X142.114 Y65.108 E25.05713
G1 X142.751 Y65.796 E25.08832
G1 X143.326 Y66.537 E25.11951
G1 X143.837 Y67.323 E25.1507
G1 X144.279 Y68.151 E25.18191
G1 X144.648 Y69.013 E25.2131
G1 X144.943 Y69.903 E25.24429
G1 X145.161 Y70.815 E25.27547
G1 X145.322 Y71.967 E25.31416
G1 X145.384 Y72.697 E25.33853
G1 X145.493 Y74.202 E25.38872
G1 X145.744 Y76.691 E25.47192
G1 X146.069 Y79.201 E25.5561
G1 X146.461 Y81.682 E25.63964
G1 X146.926 Y84.159 E25.72347
G1 X147.464 Y86.638 E25.80784
G1 X148.051 Y89.019 E25.8894
G1 X148.742 Y91.516 E25.97557
G1 X149.475 Y93.897 E26.05843
G1 X150.283 Y96.285 E26.14228
G1 X151.157 Y98.642 E26.22589
G1 X152.093 Y100.962 E26.3091
G1 X153.105 Y103.279 E26.39319
G1 X154.184 Y105.573 E26.47751
G1 X155.315 Y107.809 E26.56085
G1 X156.512 Y110.02 E26.64448
G1 X157.766 Y112.185 E26.72769
G1 X159.109 Y114.363 E26.8128
G1 X160.465 Y116.426 E26.89491
G1 X161.918 Y118.509 E26.97938
G1 X163.425 Y120.541 E27.06352
G1 X164.962 Y122.497 E27.14626
G1 X166.588 Y124.448 E27.23073
G1 X167.028 Y124.95 E27.25293
G1 X167.71 Y125.746 E27.2878
G1 X168.29 Y126.484 E27.31902
G1 X168.804 Y127.268 E27.3502
G1 X169.25 Y128.093 E27.38139
G1 X169.623 Y128.953 E27.41257
G1 X169.923 Y129.842 E27.44378
G1 X170.145 Y130.753 E27.47496
G1 X170.289 Y131.68 E27.50616
G1 X170.347 Y132.437 E27.53142
G1 X170.361 Y132.767 E27.5424
G1 X170.371 Y133.233 E27.5579
G1 X170.37 Y172.303 E28.85738
G1 X170.361 Y173.03 E28.88156
G1 X170.31 Y173.967 E28.91277
G1 X170.178 Y174.895 E28.94395
G1 X169.969 Y175.809 E28.97513
G1 X169.682 Y176.702 E29.00633
G1 X169.32 Y177.568 E29.03755
G1 X168.886 Y178.399 E29.06873
G1 X168.382 Y179.19 E29.09992
G1 X167.813 Y179.935 E29.1311
G1 X167.182 Y180.63 E29.16232
G1 X166.495 Y181.268 E29.19351
G1 X165.756 Y181.845 E29.22469
G1 X164.97 Y182.357 E29.25589
G1 X164.144 Y182.8 E29.28707
G1 X163.282 Y183.172 E29.31829
G1 X162.393 Y183.468 E29.34946
G1 X161.481 Y183.688 E29.38066
G1 X160.554 Y183.829 E29.41185
G1 X159.67 Y183.89 E29.44132
G1 X159.041 Y183.903 E29.46224
G1 X129.921 Y183.902 E30.43078
G1 X129.222 Y183.892 E30.45403
G1 X128.285 Y183.838 E30.48525
G1 X127.357 Y183.706 E30.51642
G1 X126.443 Y183.494 E30.54763
G1 X125.551 Y183.205 E30.57882
G1 X124.686 Y182.842 E30.61002
G1 X123.856 Y182.406 E30.6412
G1 X123.066 Y181.901 E30.67238
G1 X122.321 Y181.33 E30.7036
G1 X121.628 Y180.698 E30.7348
G1 X120.991 Y180.01 E30.76598
G1 X120.416 Y179.269 E30.79718
G1 X119.905 Y178.483 E30.82836
G1 X119.463 Y177.655 E30.85958
G1 X119.094 Y176.794 E30.89073
G1 X118.821 Y175.981 E30.91926
G1 X118.657 Y175.419 E30.93873
G1 X117.889 Y172.919 E31.02572
G1 X117.088 Y170.551 E31.10886
G1 X116.223 Y168.212 E31.19181
G1 X115.265 Y165.83 E31.2772
G1 X114.28 Y163.57 E31.3592
G1 X113.192 Y161.255 E31.44427
G1 X112.058 Y159.01 E31.52793
G1 X110.883 Y156.835 E31.61015
G1 X109.602 Y154.62 E31.69525
G1 X108.3 Y152.509 E31.77775
G1 X106.899 Y150.373 E31.86271
G1 X105.453 Y148.3 E31.94677
G1 X103.978 Y146.307 E32.02924
G1 X102.415 Y144.316 E32.11343
G1 X100.806 Y142.381 E32.19713
G1 X99.126 Y140.475 E32.28163
G1 X97.432 Y138.657 E32.36428
G1 X95.668 Y136.869 E32.44782
G1 X93.836 Y135.114 E32.5322
G1 X91.954 Y133.411 E32.61662
G1 X90.081 Y131.81 E32.69857
G1 X88.096 Y130.207 E32.78343
G1 X86.091 Y128.681 E32.86724
G1 X84.061 Y127.225 E32.95033
G1 X81.976 Y125.816 E33.03403
G1 X79.823 Y124.449 E33.11885
G1 X77.597 Y123.121 E33.20506
G1 X76.397 Y122.431 E33.2511
G1 X75.604 Y121.929 E33.28232
G1 X74.858 Y121.362 E33.31348
G1 X74.162 Y120.733 E33.34468
G1 X73.522 Y120.047 E33.37589
G1 X72.944 Y119.309 E33.40707
G1 X72.43 Y118.524 E33.43827
G1 X71.985 Y117.699 E33.46945
G1 X71.612 Y116.838 E33.50066
G1 X71.313 Y115.949 E33.53186
G1 X71.092 Y115.038 E33.56303
G1 X70.948 Y114.111 E33.59424
G1 X70.886 Y113.236 E33.62341
G1 X70.876 Y112.913 E33.63416
G1 X70.871 Y112.573 E33.64547
G1 X70.872 Y73.428 E34.94744
G1 X70.881 Y72.763 E34.96956
G1 X70.934 Y71.827 E35.00074
G1 X71.066 Y70.898 E35.03195
G1 X71.277 Y69.984 E35.06315
G1 X71.565 Y69.092 E35.09432
G1 X71.928 Y68.227 E35.12552
G1 X72.363 Y67.396 E35.15672
G1 X72.867 Y66.606 E35.18789
G1 X73.437 Y65.861 E35.21909
G1 X74.069 Y65.167 E35.25031
G1 X74.757 Y64.53 E35.28149
G1 X75.497 Y63.954 E35.31268
G1 X76.283 Y63.442 E35.34388
G1 X77.11 Y63 E35.37507
G1 X77.972 Y62.63 E35.40627
G1 X78.862 Y62.334 E35.43747
G1 X79.774 Y62.116 E35.46865
G1 X80.701 Y61.975 E35.49984
G1 X81.572 Y61.916 E35.52888
G1 X82.201 Y61.903 E35.5498
G1 X133.823 Y61.904 E37.26676
G1 X134.521 Y61.914 E37.28997
G1 F2700 E32.28997
;MESH:Object 3
G0 F6000 X133.952 Y72.238
G0 X133.952 Y73.323
G0 X133.589 Y168.685
G0 X155.153 Y168.685
G0 X155.153 Y133.685
G0 X158.589 Y133.685
G0 X158.589 Y172.121
G0 X129.973 Y172.303
;TYPE:WALL-INNER
G1 F2700 E37.28997
G1 F1200 X129.973 Y172.103 E37.29663
G1 X129.987 Y167.303 E37.45628
G1 X129.971 Y167.303 E37.45681
G1 X129.972 Y77.502 E40.4436
G1 X129.972 Y77.303 E40.45022
G1 X129.773 Y77.303 E40.4545
G1 X86.271 Y77.303 E41.90138
G1 X86.271 Y112.303 E43.06549
G1 X82.471 Y112.303 E43.19188
G1 X82.471 Y73.503 E44.48237
G1 X133.573 Y73.503 E46.18203
G1 X133.772 Y73.503 E46.18865
G1 X133.772 Y73.702 E46.19293
G1 X133.771 Y168.304 E49.33941
G1 X133.771 Y168.503 E49.34603
G1 X133.97 Y168.503 E49.35031
G1 X154.971 Y168.503 E50.0488
G1 X154.971 Y133.503 E51.21291
G1 X158.771 Y133.503 E51.3393
G1 X158.771 Y172.303 E52.62979
G1 X130.173 Y172.303 E53.58096
G1 X129.973 Y172.303 E53.58527
G0 F6000 X129.572 Y172.703
;TYPE:WALL-OUTER
G1 F1200 X129.586 Y167.703 E53.75157
G1 X129.571 Y167.703 E53.75207
G1 X129.572 Y77.703 E56.74548
G1 X86.671 Y77.703 E58.17238
G1 X86.671 Y112.703 E59.33648
G1 X82.071 Y112.703 E59.48948
G1 X82.071 Y73.103 E60.80658
