;FLAVOR:Marlin
;TIME:8236
;Filament used: 5.70133m
;Layer height: 0.2
;MINX:56.894
;MINY:84.393
;MINZ:0.2
;MAXX:170.262
;MAXY:145.607
;MAXZ:19.2
;Generated with Cura_SteamEngine 4.6.1
M140 S55
M105
M190 S55
M104 S205
M105
M109 S205
M82 ;absolute extrusion mode
; Ender 3 Custom Start G-code
G92 E0 ; Reset Extruder
G28 ; Home all axes
G1 Z2.0 F3000 ; Move Z Axis up little to prevent scratching of Heat Bed
G1 X0.1 Y20 Z0.3 F5000.0 ; Move to start position
G1 X0.1 Y200.0 Z0.3 F1500.0 E15 ; Draw the first line
G1 X0.4 Y200.0 Z0.3 F5000.0 ; Move to side a little
G1 X0.4 Y20 Z0.3 F1500.0 E30 ; Draw the second line
G92 E0 ; Reset Extruder
G1 Z2.0 F3000 ; Move Z Axis up little to prevent scratching of Heat Bed
G1 X5 Y20 Z0.3 F5000.0 ; Move over to prevent blob squish
G92 E0
G92 E0
G1 F2700 E-5
;LAYER_COUNT:95
;LAYER:0
M107
G1 F300 Z0.4
G0 F6000 X142.635 Y85.204 Z0.4
;TYPE:SKIRT
G1 F300 Z0.2
G1 F2700 E0
G1 F1200 X143.494 Y85.253 E0.02862
G1 X144.336 Y85.341 E0.05677
G1 X144.825 Y85.404 E0.07317
G1 X145.715 Y85.559 E0.10322
G1 X146.728 Y85.837 E0.13816
G1 X147.469 Y86.087 E0.16417
G1 X148.004 Y86.283 E0.18312
G1 X148.837 Y86.631 E0.21315
G1 X149.773 Y87.133 E0.24847
G1 X150.198 Y87.39 E0.26499
G1 X150.479 Y87.566 E0.27602
G1 X150.919 Y87.852 E0.29347
G1 X151.61 Y88.343 E0.32167
G1 X152.511 Y89.042 E0.3596
G1 X154.634 Y90.641 E0.44799
G1 X156.68 Y92.094 E0.53146
G1 X158.809 Y93.518 E0.61665
G1 X160.952 Y94.865 E0.70084
G1 X163.188 Y96.184 E0.78718
G1 X164.013 Y96.657 E0.81881
G1 X164.776 Y97.141 E0.84886
G1 X165.267 Y97.506 E0.86921
G1 X165.564 Y97.741 E0.88181
G1 X166.247 Y98.332 E0.91185
G1 X166.875 Y98.982 E0.94191
G1 X167.442 Y99.684 E0.97192
G1 X167.946 Y100.433 E1.00195
G1 X168.381 Y101.225 E1.032
G1 X168.745 Y102.051 E1.06203
G1 X169.034 Y102.907 E1.09208
G1 X169.246 Y103.785 E1.12212
G1 X169.38 Y104.678 E1.15215
G1 X169.431 Y105.443 E1.17765
G1 X169.462 Y106.673 E1.21858
G1 X169.46 Y108.213 E1.2698
G1 X169.442 Y109.189 E1.30226
G1 X169.398 Y110.172 E1.33499
G1 X169.349 Y111.036 E1.36377
G1 X169.273 Y113.619 E1.44972
G1 X169.271 Y116.12 E1.53291
G1 X169.38 Y119.551 E1.64708
G1 X169.429 Y120.537 E1.67991
G1 X169.44 Y120.864 E1.6908
G1 X169.462 Y122.173 E1.73434
G1 X169.46 Y123.714 E1.78559
G1 X169.451 Y124.377 E1.80765
G1 X169.399 Y125.279 E1.8377
G1 X169.267 Y126.172 E1.86772
G1 X169.057 Y127.051 E1.89778
G1 X168.77 Y127.907 E1.92781
G1 X168.408 Y128.734 E1.95783
G1 X167.974 Y129.527 E1.9879
G1 X167.472 Y130.278 E2.01795
G1 X166.906 Y130.981 E2.04796
G1 X166.28 Y131.632 E2.078
G1 X165.911 Y131.965 E2.09453
G1 X165.701 Y132.146 E2.10376
G1 X164.992 Y132.705 E2.13378
G1 X164.576 Y132.988 E2.15052
G1 X164.319 Y133.154 E2.1607
G1 X163.862 Y133.433 E2.1785
G1 X161.913 Y134.551 E2.25324
G1 X159.733 Y135.887 E2.33828
G1 X157.626 Y137.259 E2.4219
G1 X155.546 Y138.7 E2.50606
G1 X153.49 Y140.211 E2.59093
G1 X152.671 Y140.852 E2.62552
G1 X151.547 Y141.707 E2.67249
G1 X150.935 Y142.138 E2.69739
G1 X150.272 Y142.565 E2.72362
G1 X149.817 Y142.843 E2.74135
G1 X149.026 Y143.279 E2.77139
G1 X148.007 Y143.717 E2.80828
G1 X147.227 Y143.998 E2.83586
G1 X146.739 Y144.16 E2.85296
G1 X145.87 Y144.406 E2.883
G1 X144.86 Y144.591 E2.91715
G1 X144.398 Y144.652 E2.93265
G1 X144.064 Y144.691 E2.94383
G1 X143.496 Y144.747 E2.96282
G1 X142.644 Y144.795 E2.9912
G1 X141.812 Y144.806 E3.01887
G1 X73.207 Y144.807 E5.30068
G1 X73.061 Y144.806 E5.30554
G1 X72.362 Y144.796 E5.32879
G1 X71.495 Y144.747 E5.35767
G1 X70.954 Y144.693 E5.37576
G1 X70.664 Y144.659 E5.38547
G1 X70.175 Y144.596 E5.40187
G1 X69.285 Y144.441 E5.43191
G1 X68.272 Y144.163 E5.46685
G1 X67.531 Y143.913 E5.49286
G1 X66.996 Y143.717 E5.51181
G1 X66.163 Y143.369 E5.54184
G1 X65.227 Y142.867 E5.57717
G1 X64.534 Y142.443 E5.60419
G1 X64.091 Y142.156 E5.62174
G1 X63.356 Y141.631 E5.65179
G1 X62.546 Y140.927 E5.68748
G1 X62.18 Y140.573 E5.70442
G1 X61.96 Y140.353 E5.71476
G1 X61.602 Y139.985 E5.73184
G1 X61.001 Y139.311 E5.76188
G1 X60.386 Y138.47 E5.79653
G1 X60.111 Y138.051 E5.8132
G1 X59.924 Y137.755 E5.82484
G1 X59.646 Y137.298 E5.84263
G1 X59.211 Y136.506 E5.87269
G1 X58.78 Y135.5 E5.90909
G1 X58.504 Y134.733 E5.9362
G1 X58.341 Y134.243 E5.95338
G1 X58.095 Y133.374 E5.98342
G1 X57.906 Y132.342 E6.01831
G1 X57.809 Y131.564 E6.04439
G1 X57.753 Y130.996 E6.06337
G1 X57.705 Y130.144 E6.09175
G1 X57.694 Y129.311 E6.11946
G1 X57.694 Y100.561 E7.07569
G1 X57.704 Y99.866 E7.09881
G1 X57.751 Y99.023 E7.12689
G1 X57.802 Y98.5 E7.14437
G1 X57.838 Y98.186 E7.15488
G1 X57.904 Y97.674 E7.17205
G1 X58.059 Y96.784 E7.2021
G1 X58.335 Y95.779 E7.23676
G1 X58.583 Y95.042 E7.26262
G1 X58.779 Y94.505 E7.28164
G1 X59.126 Y93.671 E7.31168
G1 X59.649 Y92.697 E7.34845
G1 X60.057 Y92.034 E7.37434
G1 X60.344 Y91.591 E7.3919
G1 X60.869 Y90.856 E7.42194
G1 X61.581 Y90.037 E7.45804
G1 X62.13 Y89.477 E7.48412
G1 X62.503 Y89.113 E7.50145
G1 X63.177 Y88.511 E7.53151
G1 X64.035 Y87.882 E7.5669
G1 X64.453 Y87.608 E7.58352
G1 X64.742 Y87.426 E7.59488
G1 X65.202 Y87.146 E7.61279
G1 X65.993 Y86.711 E7.64281
G1 X67.01 Y86.277 E7.67959
G1 X67.774 Y86.002 E7.7066
G1 X68.255 Y85.842 E7.72346
G1 X69.123 Y85.596 E7.75347
G1 X70.142 Y85.408 E7.78793
G1 X70.605 Y85.347 E7.80346
G1 X70.936 Y85.309 E7.81454
G1 X71.504 Y85.253 E7.83353
G1 X72.356 Y85.205 E7.86191
G1 X73.188 Y85.194 E7.88958
G1 X141.793 Y85.193 E10.1714
G1 X141.94 Y85.194 E10.17629
G1 X142.635 Y85.204 E10.1994
G0 F6000 X142.641 Y84.804
G1 F1200 X143.533 Y84.855 E10.22912
G1 X144.387 Y84.944 E10.25768
G1 X144.876 Y85.007 E10.27408
G1 X145.784 Y85.164 E10.30472
G1 X146.853 Y85.457 E10.34159
G1 X147.291 Y85.602 E10.35694
G1 X147.606 Y85.712 E10.36803
G1 X148.141 Y85.908 E10.38698
G1 X148.991 Y86.262 E10.41761
G1 X149.98 Y86.79 E10.4549
G1 X150.405 Y87.047 E10.47142
G1 X150.697 Y87.23 E10.48288
G1 X151.137 Y87.516 E10.50033
G1 X151.855 Y88.027 E10.52964
G1 X152.757 Y88.726 E10.5676
G1 X154.861 Y90.312 E10.65523
G1 X156.913 Y91.769 E10.73894
G1 X159.014 Y93.174 E10.823
G1 X161.162 Y94.525 E10.9074
G1 X163.41 Y95.85 E10.99419
G1 X164.212 Y96.31 E11.02494
G1 X164.99 Y96.803 E11.05558
G1 X165.515 Y97.192 E11.07731
G1 X165.812 Y97.427 E11.08991
G1 X166.509 Y98.029 E11.12054
G1 X167.15 Y98.69 E11.15116
G1 X167.732 Y99.403 E11.18177
G1 X168.25 Y100.164 E11.21239
G1 X168.7 Y100.968 E11.24304
G1 X169.078 Y101.807 E11.27364
G1 X169.382 Y102.676 E11.30426
G1 X169.61 Y103.568 E11.33489
G1 X169.759 Y104.476 E11.36549
G1 X169.83 Y105.431 E11.39734
G1 X169.862 Y106.674 E11.4387
G1 X169.86 Y108.219 E11.49008
G1 X169.842 Y109.207 E11.52295
G1 X169.798 Y110.195 E11.55584
G1 X169.746 Y111.106 E11.58619
G1 X169.673 Y113.596 E11.66905
G1 X169.671 Y116.108 E11.7526
G1 X169.779 Y119.518 E11.86607
G1 X169.829 Y120.517 E11.89934
G1 X169.84 Y120.857 E11.91065
G1 X169.862 Y122.174 E11.95446
G1 X169.86 Y123.72 E12.00588
G1 X169.851 Y124.383 E12.02794
G1 X169.799 Y125.302 E12.05855
G1 X169.667 Y126.213 E12.08917
G1 X169.456 Y127.109 E12.11978
G1 X169.168 Y127.984 E12.15042
G1 X168.806 Y128.83 E12.18103
G1 X168.372 Y129.642 E12.21165
G1 X167.868 Y130.413 E12.24229
G1 X167.3 Y131.137 E12.27289
G1 X166.671 Y131.81 E12.30353
G1 X166.172 Y132.268 E12.32606
G1 X165.962 Y132.449 E12.33528
G1 X165.24 Y133.019 E12.36588
G1 X164.793 Y133.324 E12.38388
G1 X164.536 Y133.49 E12.39405
G1 X164.061 Y133.78 E12.41256
G1 X162.115 Y134.897 E12.48719
G1 X159.965 Y136.214 E12.57105
G1 X157.842 Y137.596 E12.6553
G1 X155.765 Y139.036 E12.73936
G1 X153.724 Y140.535 E12.82359
G1 X152.913 Y141.171 E12.85787
G1 X151.789 Y142.026 E12.90484
G1 X151.153 Y142.474 E12.93071
G1 X150.481 Y142.906 E12.95729
G1 X150.026 Y143.184 E12.97502
G1 X149.22 Y143.63 E13.00566
G1 X148.144 Y144.092 E13.04461
G1 X147.353 Y144.377 E13.07257
G1 X146.865 Y144.539 E13.08967
G1 X145.979 Y144.791 E13.12031
G1 X144.913 Y144.988 E13.15636
G1 X144.451 Y145.049 E13.17186
G1 X144.103 Y145.089 E13.18351
G1 X143.535 Y145.145 E13.2025
G1 X142.65 Y145.195 E13.23198
G1 X141.812 Y145.206 E13.25985
G1 X73.207 Y145.207 E15.54167
G1 X73.055 Y145.206 E15.54672
G1 X72.356 Y145.196 E15.56997
G1 X71.455 Y145.145 E15.59999
G1 X70.613 Y145.056 E15.62815
G1 X70.124 Y144.993 E15.64455
G1 X69.216 Y144.836 E15.6752
G1 X68.147 Y144.543 E15.71206
G1 X67.709 Y144.398 E15.72741
G1 X67.394 Y144.288 E15.73851
G1 X66.859 Y144.092 E15.75746
G1 X66.009 Y143.738 E15.78808
G1 X65.02 Y143.21 E15.82537
G1 X64.595 Y142.953 E15.84189
G1 X64.317 Y142.778 E15.85281
G1 X63.874 Y142.491 E15.87037
G1 X63.123 Y141.958 E15.901
G1 X62.268 Y141.214 E15.9387
G1 X61.673 Y140.632 E15.96638
G1 X61.315 Y140.264 E15.98346
G1 X60.702 Y139.577 E16.01408
G1 X60.051 Y138.689 E16.0507
G1 X59.776 Y138.27 E16.06737
G1 X59.582 Y137.963 E16.07945
G1 X59.304 Y137.506 E16.09724
G1 X58.86 Y136.699 E16.12788
G1 X58.405 Y135.638 E16.16627
G1 X58.125 Y134.859 E16.19381
G1 X57.962 Y134.369 E16.21098
G1 X57.71 Y133.483 E16.24162
G1 X57.509 Y132.394 E16.27845
G1 X57.449 Y131.934 E16.29388
G1 X57.411 Y131.603 E16.30496
G1 X57.355 Y131.035 E16.32394
G1 X57.305 Y130.15 E16.35343
G1 X57.294 Y129.311 E16.38133
G1 X57.294 Y100.555 E17.33776
G1 X57.304 Y99.86 E17.36088
G1 X57.353 Y98.984 E17.39006
G1 X57.404 Y98.461 E17.40754
G1 X57.441 Y98.135 E17.41845
G1 X57.507 Y97.623 E17.43562
G1 X57.664 Y96.716 E17.46624
G1 X57.955 Y95.654 E17.50286
G1 X58.1 Y95.215 E17.51824
G1 X58.208 Y94.905 E17.52916
G1 X58.404 Y94.368 E17.54817
G1 X58.756 Y93.517 E17.5788
G1 X59.308 Y92.489 E17.61761
G1 X59.722 Y91.817 E17.64386
G1 X60.009 Y91.374 E17.66142
G1 X60.542 Y90.623 E17.69205
G1 X61.294 Y89.759 E17.73014
G1 X61.851 Y89.191 E17.7566
G1 X62.224 Y88.827 E17.77394
G1 X62.91 Y88.213 E17.80456
G1 X63.816 Y87.548 E17.84194
G1 X64.234 Y87.274 E17.85856
G1 X64.534 Y87.084 E17.87037
G1 X64.994 Y86.804 E17.88828
G1 X65.8 Y86.36 E17.91889
G1 X66.873 Y85.901 E17.95771
G1 X67.647 Y85.623 E17.98506
G1 X68.128 Y85.463 E18.00192
G1 X69.014 Y85.21 E18.03257
G1 X70.089 Y85.012 E18.06892
G1 X70.552 Y84.951 E18.08446
G1 X70.897 Y84.911 E18.09601
G1 X71.465 Y84.855 E18.11499
G1 X72.35 Y84.805 E18.14447
G1 X73.188 Y84.794 E18.17235
G1 X141.793 Y84.793 E20.45416
G1 X141.946 Y84.794 E20.45925
G1 X142.641 Y84.804 E20.48237
G0 F6000 X142.646 Y84.404
G1 F1200 X143.573 Y84.457 E20.51325
G1 X144.439 Y84.547 E20.54221
G1 X144.928 Y84.61 E20.55861
G1 X145.852 Y84.77 E20.58979
G1 X146.979 Y85.077 E20.62864
G1 X147.417 Y85.222 E20.64399
G1 X147.744 Y85.336 E20.65551
G1 X148.279 Y85.532 E20.67446
G1 X149.145 Y85.892 E20.70565
G1 X150.187 Y86.448 E20.74493
G1 X150.612 Y86.705 E20.76145
G1 X150.915 Y86.895 E20.77335
G1 X151.355 Y87.181 E20.7908
G1 X152.1 Y87.711 E20.82121
G1 X152.991 Y88.402 E20.85871
G1 X155.11 Y89.998 E20.94695
G1 X157.12 Y91.426 E21.02895
G1 X159.243 Y92.846 E21.1139
G1 X161.382 Y94.19 E21.19793
G1 X163.555 Y95.472 E21.28184
G1 X164.411 Y95.963 E21.31466
G1 X165.204 Y96.464 E21.34586
G1 X165.764 Y96.879 E21.36904
G1 X166.061 Y97.114 E21.38164
G1 X166.771 Y97.727 E21.41284
G1 X167.426 Y98.398 E21.44403
G1 X168.021 Y99.122 E21.4752
G1 X168.553 Y99.894 E21.50638
G1 X169.017 Y100.709 E21.53757
G1 X169.41 Y101.561 E21.56878
G1 X169.729 Y102.443 E21.59997
G1 X169.972 Y103.349 E21.63117
G1 X170.137 Y104.272 E21.66236
G1 X170.23 Y105.419 E21.70063
G1 X170.262 Y106.674 E21.74239
G1 X170.26 Y108.224 E21.79394
G1 X170.242 Y109.224 E21.82721
G1 X170.197 Y110.218 E21.8603
G1 X170.146 Y111.105 E21.88985
G1 X170.073 Y113.608 E21.97314
G1 X170.071 Y116.126 E22.05689
G1 X170.177 Y119.485 E22.16866
G1 X170.228 Y120.497 E22.20236
G1 X170.24 Y120.85 E22.21411
G1 X170.262 Y122.174 E22.25815
G1 X170.26 Y123.725 E22.30974
G1 X170.251 Y124.388 E22.33179
G1 X170.198 Y125.325 E22.36301
G1 X170.066 Y126.253 E22.39418
G1 X169.855 Y127.167 E22.42538
G1 X169.567 Y128.06 E22.45659
G1 X169.204 Y128.924 E22.48776
G1 X168.769 Y129.755 E22.51896
G1 X168.264 Y130.546 E22.55017
G1 X167.694 Y131.291 E22.58137
G1 X167.063 Y131.984 E22.61254
G1 X166.434 Y132.571 E22.64116
G1 X166.224 Y132.752 E22.65038
G1 X165.488 Y133.334 E22.68159
G1 X165.01 Y133.66 E22.70083
G1 X164.753 Y133.826 E22.71101
G1 X164.26 Y134.127 E22.73022
G1 X162.317 Y135.242 E22.80473
G1 X160.187 Y136.547 E22.88781
G1 X158.067 Y137.927 E22.97195
G1 X155.99 Y139.367 E23.05601
G1 X153.973 Y140.849 E23.13925
G1 X153.156 Y141.489 E23.17377
G1 X152.032 Y142.344 E23.22074
G1 X151.372 Y142.809 E23.2476
G1 X150.689 Y143.248 E23.2746
G1 X150.234 Y143.526 E23.29234
G1 X149.414 Y143.98 E23.32351
G1 X148.282 Y144.468 E23.36451
G1 X147.479 Y144.757 E23.39289
G1 X146.991 Y144.919 E23.41
G1 X146.089 Y145.176 E23.44119
G1 X144.965 Y145.384 E23.47921
G1 X144.503 Y145.445 E23.49471
G1 X144.142 Y145.487 E23.5068
G1 X143.574 Y145.543 E23.52578
G1 X142.656 Y145.595 E23.55636
G1 X141.812 Y145.606 E23.58444
G1 X73.207 Y145.607 E25.86625
G1 X73.05 Y145.606 E25.87147
G1 X72.351 Y145.596 E25.89472
G1 X71.415 Y145.543 E25.9259
G1 X70.561 Y145.453 E25.95446
G1 X70.072 Y145.39 E25.97086
G1 X69.148 Y145.23 E26.00205
G1 X68.021 Y144.923 E26.0409
G1 X67.583 Y144.778 E26.05625
G1 X67.256 Y144.664 E26.06777
G1 X66.721 Y144.468 E26.08672
G1 X65.855 Y144.108 E26.11791
G1 X64.813 Y143.552 E26.15719
G1 X64.388 Y143.295 E26.17371
G1 X64.099 Y143.114 E26.18505
G1 X63.656 Y142.827 E26.20261
G1 X62.891 Y142.284 E26.23381
G1 X61.99 Y141.502 E26.27349
G1 X61.386 Y140.911 E26.3016
G1 X61.028 Y140.543 E26.31867
G1 X60.404 Y139.844 E26.34984
G1 X59.717 Y138.909 E26.38843
G1 X59.442 Y138.49 E26.4051
G1 X59.24 Y138.171 E26.41766
G1 X58.962 Y137.714 E26.43545
G1 X58.509 Y136.892 E26.46666
G1 X58.029 Y135.775 E26.5071
G1 X57.745 Y134.985 E26.53502
G1 X57.582 Y134.495 E26.5522
G1 X57.325 Y133.593 E26.58339
G1 X57.112 Y132.446 E26.62219
G1 X57.052 Y131.986 E26.63762
G1 X57.013 Y131.642 E26.64914
G1 X56.957 Y131.074 E26.66812
G1 X56.905 Y130.156 E26.6987
G1 X56.894 Y129.311 E26.72681
G1 X56.894 Y100.55 E27.68341
G1 X56.904 Y99.855 E27.70652
G1 X56.955 Y98.945 E27.73684
G1 X57.006 Y98.422 E27.75432
G1 X57.044 Y98.084 E27.76563
G1 X57.11 Y97.572 E27.7828
G1 X57.27 Y96.647 E27.81402
G1 X57.575 Y95.528 E27.8526
G1 X57.72 Y95.089 E27.86797
G1 X57.832 Y94.767 E27.87931
G1 X58.028 Y94.23 E27.89833
G1 X58.387 Y93.364 E27.92951
G1 X58.966 Y92.28 E27.97038
G1 X59.386 Y91.599 E27.99699
G1 X59.673 Y91.156 E28.01455
G1 X60.216 Y90.391 E28.04575
G1 X61.007 Y89.48 E28.08588
G1 X61.571 Y88.904 E28.11269
G1 X61.944 Y88.54 E28.13003
G1 X62.643 Y87.915 E28.16121
G1 X63.597 Y87.213 E28.20061
G1 X64.015 Y86.939 E28.21723
G1 X64.326 Y86.743 E28.22946
G1 X64.786 Y86.463 E28.24737
G1 X65.607 Y86.01 E28.27856
G1 X66.736 Y85.525 E28.31943
G1 X67.521 Y85.243 E28.34717
G1 X68.002 Y85.083 E28.36403
G1 X68.904 Y84.825 E28.39523
G1 X70.037 Y84.615 E28.43356
G1 X70.5 Y84.554 E28.44909
G1 X70.858 Y84.513 E28.46108
G1 X71.426 Y84.457 E28.48006
G1 X72.344 Y84.405 E28.51064
G1 X73.188 Y84.394 E28.53871
G1 X141.793 Y84.393 E30.82053
G1 X141.951 Y84.394 E30.82578
G1 X142.646 Y84.404 E30.8489
G1 F2700 E25.8489
G1 F300 Z0.4
;MESH:Back-cover.stl
G0 F6000 X142.469 Y134.006 Z0.4
;TYPE:WALL-INNER
G1 F300 Z0.2
G1 F2700 E30.8489
G1 F1200 X72.534 Y134.007 E33.17495
G1 X71.612 Y133.901 E33.20581
G1 X70.761 Y133.604 E33.23579
G1 X70.004 Y133.129 E33.26552
G1 X69.371 Y132.496 E33.29529
G1 X68.896 Y131.739 E33.32502
G1 X68.598 Y130.887 E33.35504
G1 X68.494 Y129.969 E33.38576
G1 X68.493 Y100.034 E34.38141
G1 X68.599 Y99.112 E34.41227
G1 X68.896 Y98.261 E34.44225
G1 X69.371 Y97.504 E34.47198
G1 X70.004 Y96.871 E34.50175
G1 X70.761 Y96.396 E34.53148
G1 X71.613 Y96.098 E34.5615
G1 X72.531 Y95.994 E34.59223
G1 X142.466 Y95.993 E36.91827
G1 X143.388 Y96.099 E36.94914
G1 X144.239 Y96.396 E36.97912
G1 X144.996 Y96.871 E37.00884
G1 X145.629 Y97.504 E37.03862
G1 X146.104 Y98.261 E37.06834
G1 X146.402 Y99.113 E37.09836
G1 X146.506 Y100.031 E37.12909
G1 X146.507 Y104.297 E37.27098
G1 X146.584 Y104.789 E37.28754
G1 X146.832 Y105.279 E37.30581
G1 X147.221 Y105.668 E37.32411
G1 X147.71 Y105.916 E37.34234
G1 X148.203 Y105.994 E37.35894
G1 X158.346 Y105.993 E37.6963
G1 X158.421 Y105.993 E37.69879
G1 X158.662 Y106.056 E37.70708
G1 X158.662 Y106.131 E37.70957
G1 X158.661 Y108.445 E37.78654
G1 X158.423 Y108.506 E37.79471
