;FLAVOR:Marlin
;TIME:3778
;Filament used: 2.90969m
;Layer height: 0.2
;MINX:64.564
;MINY:93.851
;MINZ:0.24
;MAXX:146.392
;MAXY:132.125
;MAXZ:31.09
;Generated with Cura_SteamEngine 4.6.1
M140 S55
M105
M190 S55
M104 S210
M105
M109 S210
M82 ;absolute extrusion mode
; Ender 3 Custom Start G-code
G92 E0 ; Reset Extruder
G28 ; Home all axes
G1 Z2.0 F3000 ; Move Z Axis up little to prevent scratching of Heat Bed
G1 X0.1 Y20 Z0.3 F5000.0 ; Move to start position
G1 X0.1 Y200.0 Z0.3 F1500.0 E15 ; Draw the first line
G1 X0.4 Y200.0 Z0.3 F5000.0 ; Move to side a little
G1 X0.4 Y20 Z0.3 F1500.0 E30 ; Draw the second line
G92 E0 ; Reset Extruder
G1 Z2.0 F3000 ; Move Z Axis up little to prevent scratching of Heat Bed
G1 X5 Y20 Z0.3 F5000.0 ; Move over to prevent blob squish
G92 E0
G92 E0
G1 F2700 E-5
;LAYER_COUNT:150
;LAYER:-6
M107
G0 F9000 X71.942 Y97.978 Z0.24
;TYPE:SUPPORT-INTERFACE
G1 F2700 E0
G1 F1125 X73.078 Y97.217 E0.10915
G1 X73.901 Y96.743 E0.18496
G1 X74.058 Y96.66 E0.19914
G1 X74.866 Y96.27 E0.27075
G1 X75.022 Y96.202 E0.28434
G1 X76.171 Y95.761 E0.38258
G1 X77.089 Y95.477 E0.45928
G1 X77.251 Y95.433 E0.47268
G1 X78.281 Y95.201 E0.55696
G1 X79.376 Y95.033 E0.64539
G1 X80.497 Y94.937 E0.7352
G1 X81.231 Y94.916 E0.79382
G1 X109.273 Y94.919 E3.03225
G1 X110.775 Y94.999 E3.15232
G1 X110.946 Y95.018 E3.16605
G1 X111.885 Y95.149 E3.24173
G1 X112.059 Y95.179 E3.25583
G1 X112.903 Y95.361 E3.32475
G1 X113.562 Y95.46 E3.37794
G1 X114.018 Y95.479 E3.41438
G1 X130.248 Y95.477 E4.70992
G1 X131.234 Y95.513 E4.78868
G1 X131.394 Y95.525 E4.80149
G1 X132.296 Y95.623 E4.87392
G1 X132.453 Y95.646 E4.88658
G1 X133.369 Y95.812 E4.96089
G1 X134.434 Y96.076 E5.04848
G1 X135.313 Y96.358 E5.12217
G1 X135.451 Y96.408 E5.13388
G1 X136.268 Y96.738 E5.20422
G1 X136.465 Y96.827 E5.22147
G1 X137.762 Y97.489 E5.33771
G1 X137.829 Y97.53 E5.34398
G1 X138.628 Y98.025 E5.41901
G1 X138.791 Y98.135 E5.43471
G1 X139.507 Y98.655 E5.50534
G1 X139.633 Y98.754 E5.51814
G1 X140.332 Y99.343 E5.5911
G1 X140.439 Y99.441 E5.60268
G1 X141.186 Y100.177 E5.68639
G1 X141.79 Y100.861 E5.75923
G1 X141.925 Y101.027 E5.77631
G1 X142.679 Y102.04 E5.87711
G1 X142.781 Y102.19 E5.89159
G1 X143.306 Y103.027 E5.97046
G1 X143.376 Y103.149 E5.98169
G1 X143.809 Y103.967 E6.05557
G1 X143.876 Y104.105 E6.06782
G1 X144.235 Y104.921 E6.13898
G1 X144.305 Y105.1 E6.15432
G1 X144.597 Y105.921 E6.22388
G1 X144.652 Y106.097 E6.2386
G1 X144.954 Y107.223 E6.33166
G1 X144.98 Y107.349 E6.34192
G1 X145.144 Y108.225 E6.41307
G1 X145.176 Y108.44 E6.43042
G1 X145.272 Y109.281 E6.49799
G1 X145.287 Y109.485 E6.51431
G1 X145.327 Y110.543 E6.59883
G1 X145.328 Y116.468 E7.07179
G1 X145.287 Y117.562 E7.15918
G1 X145.278 Y117.667 E7.16759
G1 X145.179 Y118.553 E7.23875
G1 X145.151 Y118.743 E7.25408
G1 X144.992 Y119.601 E7.32374
G1 X144.946 Y119.804 E7.34035
G1 X144.726 Y120.646 E7.40982
G1 X144.682 Y120.794 E7.42215
G1 X144.388 Y121.652 E7.49455
G1 X144.329 Y121.808 E7.50786
G1 X143.972 Y122.645 E7.5805
G1 X143.901 Y122.798 E7.59396
G1 X143.498 Y123.578 E7.66404
G1 X143.401 Y123.751 E7.67987
G1 X142.95 Y124.49 E7.74898
G1 X142.836 Y124.661 E7.76539
G1 X142.319 Y125.383 E7.83627
G1 X141.646 Y126.199 E7.92071
G1 X141.536 Y126.322 E7.93388
G1 X140.906 Y126.974 E8.00625
G1 X140.795 Y127.081 E8.01856
G1 X140.119 Y127.686 E8.09097
G1 X140.003 Y127.783 E8.10304
G1 X139.162 Y128.426 E8.18755
G1 X138.404 Y128.927 E8.26008
G1 X138.252 Y129.02 E8.2743
G1 X137.483 Y129.452 E8.34471
G1 X137.292 Y129.55 E8.36185
G1 X136.516 Y129.912 E8.4302
G1 X136.349 Y129.983 E8.44468
G1 X135.524 Y130.298 E8.51518
G1 X135.348 Y130.359 E8.53004
G1 X134.498 Y130.614 E8.60088
G1 X134.326 Y130.659 E8.61507
G1 X133.314 Y130.88 E8.69776
G1 X132.428 Y131.009 E8.76923
G1 X132.204 Y131.032 E8.78721
G1 X130.663 Y131.113 E8.91038
G1 X80.222 Y131.112 E12.9368
G1 X79.098 Y131.067 E13.0266
G1 X78.181 Y130.965 E13.10025
G1 X78.006 Y130.94 E13.11436
G1 X77.117 Y130.776 E13.18652
G1 X76.994 Y130.748 E13.19659
G1 X76.1 Y130.514 E13.27036
G1 X75.937 Y130.465 E13.28394
G1 X75.095 Y130.178 E13.35495
G1 X74.929 Y130.115 E13.36913
G1 X74.126 Y129.774 E13.43876
G1 X73.937 Y129.686 E13.45541
G1 X73.026 Y129.212 E13.53738
G1 X72.247 Y128.737 E13.61021
G1 X72.096 Y128.637 E13.62467
G1 X71.382 Y128.126 E13.69476
G1 X71.234 Y128.013 E13.70962
G1 X70.543 Y127.437 E13.78143
G1 X70.43 Y127.336 E13.79353
G1 X69.781 Y126.711 E13.86545
G1 X69.661 Y126.586 E13.87928
G1 X69.058 Y125.915 E13.95129
G1 X68.961 Y125.797 E13.96349
G1 X68.403 Y125.075 E14.03633
G1 X68.299 Y124.928 E14.0507
G1 X67.806 Y124.185 E14.12188
G1 X67.733 Y124.064 E14.13316
G1 X67.281 Y123.259 E14.20685
G1 X67.209 Y123.12 E14.21935
G1 X66.826 Y122.304 E14.29131
G1 X66.761 Y122.15 E14.30465
G1 X66.437 Y121.303 E14.37704
G1 X66.38 Y121.138 E14.39097
G1 X66.13 Y120.303 E14.46055
G1 X66.084 Y120.13 E14.47484
G1 X65.882 Y119.229 E14.54855
G1 X65.86 Y119.105 E14.5586
G1 X65.725 Y118.191 E14.63235
G1 X65.708 Y118.031 E14.64519
G1 X65.633 Y116.958 E14.73105
G1 X65.625 Y116.457 E14.77105
G1 X65.628 Y110.494 E15.24704
G1 X65.69 Y109.166 E15.35316
G1 X65.709 Y108.964 E15.36936
G1 X65.829 Y108.013 E15.44588
G1 X65.857 Y107.844 E15.45955
G1 X66.032 Y106.972 E15.53054
G1 X66.078 Y106.787 E15.54576
G1 X66.529 Y105.288 E15.67072
G1 X66.586 Y105.134 E15.68382
G1 X66.921 Y104.293 E15.75609
G1 X66.99 Y104.135 E15.76985
G1 X67.38 Y103.325 E15.84161
G1 X67.45 Y103.194 E15.85347
G1 X68.03 Y102.198 E15.94547
G1 X68.097 Y102.095 E15.95528
G1 X68.602 Y101.35 E16.02712
G1 X68.712 Y101.199 E16.04204
G1 X69.277 Y100.484 E16.11478
G1 X69.38 Y100.364 E16.1274
G1 X70.122 Y99.559 E16.21479
G1 X70.295 Y99.387 E16.23427
G1 X70.988 Y98.744 E16.30973
G1 X71.118 Y98.633 E16.32338
G1 X71.826 Y98.064 E16.39588
G1 X71.942 Y97.978 E16.40741
G0 F9000 X72 Y97.939
G1 F1125 X72 Y128.568 E18.85235
G0 F9000 X73.6 Y129.51
G1 F1125 X73.6 Y96.916 E21.45414
G0 F9000 X75.2 Y96.133
G1 F1125 X75.2 Y130.213 E24.17455
G0 F9000 X76.8 Y130.697
G1 F1125 X76.8 Y95.566 E26.97886
G0 F9000 X78.4 Y95.182
G1 F1125 X78.4 Y130.989 E29.83713
G0 F9000 X80 Y131.103
G1 F1125 X80 Y94.979 E32.72071
G0 F9000 X81.6 Y94.917
G1 F1125 X81.6 Y131.112 E35.60995
G0 F9000 X83.2 Y131.112
G1 F1125 X83.2 Y94.917 E38.49919
G0 F9000 X84.8 Y94.917
G1 F1125 X84.8 Y131.112 E41.38843
G0 F9000 X86.4 Y131.112
G1 F1125 X86.4 Y94.917 E44.27767
G0 F9000 X88 Y94.917
G1 F1125 X88 Y131.112 E47.16691
G0 F9000 X89.6 Y131.112
G1 F1125 X89.6 Y94.917 E50.05615
G0 F9000 X91.2 Y94.918
G1 F1125 X91.2 Y131.112 E52.94532
G0 F9000 X92.8 Y131.112
G1 F1125 X92.8 Y94.918 E55.83448
G0 F9000 X94.4 Y94.918
G1 F1125 X94.4 Y131.112 E58.72364
G0 F9000 X96 Y131.112
G1 F1125 X96 Y94.918 E61.6128
G0 F9000 X97.6 Y94.918
G1 F1125 X97.6 Y131.112 E64.50196
G0 F9000 X99.2 Y131.112
G1 F1125 X99.2 Y94.918 E67.39112
G0 F9000 X100.8 Y94.919
G1 F1125 X100.8 Y131.112 E70.2802
G0 F9000 X102.4 Y131.112
G1 F1125 X102.4 Y94.919 E73.16929
G0 F9000 X104 Y94.919
G1 F1125 X104 Y131.112 E76.05837
G0 F9000 X105.6 Y131.112
G1 F1125 X105.6 Y94.919 E78.94745
G0 F9000 X107.2 Y94.919
G1 F1125 X107.2 Y131.112 E81.83653
G0 F9000 X108.8 Y131.112
G1 F1125 X108.8 Y94.919 E84.72561
G0 F9000 X110.4 Y94.98
G1 F1125 X110.4 Y131.112 E87.60983
G0 F9000 X112 Y131.112
G1 F1125 X112 Y95.169 E90.47895
G0 F9000 X113.6 Y95.462
G1 F1125 X113.6 Y131.112 E93.32469
G0 F9000 X115.2 Y131.112
G1 F1125 X115.2 Y95.478 E96.16915
G0 F9000 X116.8 Y95.478
G1 F1125 X116.8 Y131.112 E99.01361
G0 F9000 X118.4 Y131.112
G1 F1125 X118.4 Y95.478 E101.85807
G0 F9000 X120 Y95.478
G1 F1125 X120 Y131.112 E104.70253
G0 F9000 X121.6 Y131.112
G1 F1125 X121.6 Y95.478 E107.54699
G0 F9000 X123.2 Y95.477
G1 F1125 X123.2 Y131.112 E110.39153
G0 F9000 X124.8 Y131.112
G1 F1125 X124.8 Y95.477 E113.23607
G0 F9000 X126.4 Y95.477
G1 F1125 X126.4 Y131.112 E116.08061
G0 F9000 X128 Y131.112
G1 F1125 X128 Y95.477 E118.92515
G0 F9000 X129.6 Y95.477
G1 F1125 X129.6 Y131.112 E121.76969
G0 F9000 X131.2 Y131.085
G1 F1125 X131.2 Y95.512 E124.60928
G0 F9000 X132.8 Y95.709
G1 F1125 X132.8 Y130.955 E127.42277
G0 F9000 X134.4 Y130.64
G1 F1125 X134.4 Y96.068 E130.18245
G0 F9000 X136 Y96.63
G1 F1125 X136 Y130.117 E132.85553
G0 F9000 X137.6 Y129.387
G1 F1125 X137.6 Y97.407 E135.40831
G0 F9000 X139.2 Y98.433
G1 F1125 X139.2 Y128.397 E137.80017
G0 F9000 X140.8 Y127.077
G1 F1125 X140.8 Y99.797 E139.97778
G0 F9000 X142.4 Y101.666
G1 F1125 X142.4 Y125.27 E141.86195
G0 F9000 X144 Y122.58
G1 F1125 X144 Y104.387 E143.31419
G1 F2700 E138.31419
G0 F9000 X144.846 Y103.666
G0 X144.223 Y102.486
G0 X143.485 Y101.337
G0 X142.597 Y100.167
G0 X141.176 Y98.672
G0 X140.153 Y97.81
G0 X138.386 Y96.623
G0 X136.694 Y95.762
G0 X134.746 Y95.058
G0 X132.617 Y94.594
G0 X131.29 Y94.45
G0 X109.148 Y93.851
G0 X80.276 Y93.884
G0 X78.087 Y94.154
G0 X76.799 Y94.453
G0 X75.528 Y94.861
G0 X73.574 Y95.713
G0 X72.217 Y96.501
G0 X71.275 Y97.153
G0 X69.676 Y98.51
G0 X70.4 Y99.289
G1 F2700 E143.31419
G1 F1125 X70.4 Y127.307 E145.55071
G0 F9000 X68.8 Y125.588
G1 F1125 X68.8 Y101.087 E147.50649
G0 F9000 X67.2 Y103.698
G1 F1125 X67.2 Y123.1 E149.05524
G0 F300 X67.2 Y123.1 Z0.54
G0 F9000 X68.299 Y124.927
;TIME_ELAPSED:111.227821
;LAYER:-5
M140 S55
;TYPE:SUPPORT
G1 F1125 X68.402 Y125.074 E149.07315
G1 X68.96 Y125.796 E149.1642
G1 X69.058 Y125.913 E149.17943
G1 X69.66 Y126.585 E149.26945
G1 X69.78 Y126.709 E149.28667
G1 X70.429 Y127.335 E149.37664
G1 X70.543 Y127.436 E149.39184
G1 X71.233 Y128.011 E149.48146
G1 X71.381 Y128.125 E149.5001
G1 X71.996 Y128.564 E149.57549
G1 X68.182 Y124.75 E150.11369
G1 X67.806 Y124.184 E150.18149
G1 X67.732 Y124.063 E150.19564
G1 X67.281 Y123.258 E150.28771
G1 X67.208 Y123.119 E150.30338
G1 X66.826 Y122.303 E150.39328
G1 X66.761 Y122.149 E150.40996
G1 X66.615 Y121.77 E150.45049
G1 X74.978 Y130.133 E151.63059
G1 X75.094 Y130.176 E151.64294
G1 X75.936 Y130.464 E151.73173
G1 X76.1 Y130.513 E151.74881
G1 X76.994 Y130.746 E151.841
G1 X77.01 Y130.75 E151.84264
G1 X65.994 Y119.735 E153.39705
G1 X65.881 Y119.228 E153.44888
G1 X65.86 Y119.104 E153.46143
G1 X65.724 Y118.19 E153.55363
G1 X65.708 Y118.034 E153.56928
G1 X78.695 Y131.021 E155.40188
G1 X79.098 Y131.066 E155.44234
G1 X80.197 Y131.109 E155.55209
G1 X65.625 Y116.537 E157.60835
G1 X65.625 Y116.456 E157.61644
G1 X65.625 Y115.122 E157.74954
G1 X81.613 Y131.111 E160.00569
G1 X83.027 Y131.111 E160.14678
G1 X65.625 Y113.709 E162.60239
G1 X65.626 Y112.295 E162.74348
G1 X84.441 Y131.111 E165.39855
G1 X85.856 Y131.111 E165.53974
G1 X65.627 Y110.882 E168.39427
G1 X65.627 Y110.493 E168.43309
G1 X65.673 Y109.513 E168.53098
G1 X87.27 Y131.111 E171.57862
G1 X88.684 Y131.111 E171.71971
G1 X65.801 Y108.227 E174.94882
G1 X65.828 Y108.011 E174.97054
G1 X65.857 Y107.843 E174.98755
G1 X66.019 Y107.031 E175.07017
G1 X90.098 Y131.111 E178.46804
G1 X91.513 Y131.111 E178.60923
G1 X66.334 Y105.932 E182.16226
G1 X66.528 Y105.286 E182.22957
G1 X66.586 Y105.133 E182.24589
G1 X66.689 Y104.873 E182.2738
G1 X92.927 Y131.111 E185.97626
G1 X94.341 Y131.111 E186.11735
G1 X67.111 Y103.881 E189.9598
G1 X67.38 Y103.323 E190.02161
G1 X67.45 Y103.193 E190.03634
G1 X67.592 Y102.947 E190.06468
G1 X95.755 Y131.111 E194.03886
G1 X97.169 Y131.111 E194.17995
G1 X68.119 Y102.06 E198.27928
G1 X68.602 Y101.349 E198.36505
G1 X68.694 Y101.221 E198.38078
G1 X98.584 Y131.111 E202.59858
G1 X99.998 Y131.111 E202.73967
G1 X69.319 Y100.432 E207.06881
G1 X69.38 Y100.363 E207.078
G1 X69.995 Y99.694 E207.16867
G1 X101.412 Y131.111 E211.60195
G1 X102.826 Y131.111 E211.74304
G1 X70.714 Y98.998 E216.27446
G1 X70.987 Y98.743 E216.31173
G1 X71.117 Y98.632 E216.32879
G1 X71.475 Y98.345 E216.37457
G1 X104.24 Y131.111 E220.99814
G1 X105.655 Y131.111 E221.13933
G1 X72.288 Y97.744 E225.84777
G1 X73.078 Y97.215 E225.94264
G1 X73.139 Y97.181 E225.94961
G1 X107.07 Y131.111 E230.73757
G1 X108.484 Y131.111 E230.87866
G1 X74.041 Y96.668 E235.73894
G1 X74.057 Y96.659 E235.74077
G1 X74.866 Y96.269 E235.83038
G1 X74.998 Y96.211 E235.84477
G1 X109.898 Y131.111 E240.76954
G1 X111.312 Y131.111 E240.91062
G1 X76.02 Y95.819 E245.89071
G1 X76.17 Y95.76 E245.90679
G1 X77.088 Y95.476 E246.00267
G0 F9000 X77.091 Y95.476
G1 F1125 X112.726 Y131.111 E251.03116
G1 X114.141 Y131.111 E251.17234
G1 X78.239 Y95.21 E256.23843
G1 X78.28 Y95.2 E256.24265
G1 X79.375 Y95.032 E256.35318
G1 X79.468 Y95.024 E256.3625
G1 X115.555 Y131.111 E261.45476
G1 X116.969 Y131.111 E261.59585
G1 X80.786 Y94.928 E266.70166
G1 X81.231 Y94.914 E266.74609
G1 X82.187 Y94.915 E266.84148
G1 X118.383 Y131.111 E271.94913
G1 X119.798 Y131.111 E272.09031
G1 X83.601 Y94.915 E277.19803
G1 X85.016 Y94.915 E277.33922
G1 X121.212 Y131.111 E282.44687
G1 X122.626 Y131.111 E282.58796
G1 X86.431 Y94.916 E287.69546
G1 X87.845 Y94.916 E287.83655
G1 X124.04 Y131.111 E292.94406
G1 X125.454 Y131.111 E293.08515
G1 X89.259 Y94.916 E298.19265
G1 X90.674 Y94.917 E298.33384
G1 X126.869 Y131.111 E303.44128
G1 X128.283 Y131.111 E303.58237
G1 X92.088 Y94.917 E308.6898
G1 X93.502 Y94.917 E308.83089
G1 X129.697 Y131.111 E313.93833
G1 X130.662 Y131.112 E314.03461
G1 X131.089 Y131.089 E314.07728
G1 X94.917 Y94.917 E319.18154
G1 X96.331 Y94.917 E319.32263
G1 X132.423 Y131.009 E324.4156
G0 F9000 X132.427 Y131.009
G1 F1125 X133.313 Y130.879 E324.50495
G1 X133.637 Y130.809 E324.53803
G1 X97.746 Y94.917 E329.60271
G1 X99.16 Y94.917 E329.7438
G1 X134.773 Y130.53 E334.76918
G1 X135.347 Y130.359 E334.82894
G1 X135.523 Y130.297 E334.84756
G1 X135.835 Y130.178 E334.88088
G1 X100.575 Y94.918 E339.85644
G1 X101.989 Y94.918 E339.99753
G1 X136.834 Y129.763 E344.91454
G1 X137.291 Y129.549 E344.96489
G1 X137.482 Y129.452 E344.98626
G1 X137.773 Y129.288 E345.01959
G1 X103.403 Y94.918 E349.86957
G1 X104.818 Y94.919 E350.01076
G1 X138.657 Y128.758 E354.78581
G1 X139.161 Y128.426 E354.84603
G1 X139.488 Y128.175 E354.88716
G1 X106.232 Y94.919 E359.57994
G1 X107.647 Y94.919 E359.72113
G1 X140.273 Y127.545 E364.32501
G1 X140.794 Y127.08 E364.39469
G1 X140.905 Y126.973 E364.41008
G1 X141.009 Y126.866 E364.42496
G1 X109.061 Y94.919 E368.9331
G1 X109.272 Y94.919 E368.95416
G1 X110.543 Y94.987 E369.08116
G1 X141.695 Y126.139 E373.47704
G1 X142.317 Y125.382 E373.5748
G1 X142.332 Y125.362 E373.5773
G1 X112.175 Y95.204 E377.83285
G1 X112.902 Y95.36 E377.90704
G1 X113.561 Y95.459 E377.97353
G1 X113.856 Y95.472 E378.00299
G1 X142.919 Y124.534 E382.10403
G1 X142.949 Y124.489 E382.10942
G1 X143.399 Y123.75 E382.19576
G1 X143.454 Y123.655 E382.20671
G1 X115.277 Y95.478 E386.18279
G1 X116.691 Y95.478 E386.32388
G1 X143.935 Y122.722 E390.1683
G1 X143.971 Y122.644 E390.17687
G1 X144.328 Y121.808 E390.26758
G1 X144.357 Y121.73 E390.27588
G1 X118.105 Y95.478 E393.98032
G1 X119.52 Y95.478 E394.12151
G1 X144.717 Y120.675 E397.67708
G1 X144.725 Y120.645 E397.68018
G1 X144.945 Y119.803 E397.76701
G1 X144.991 Y119.6 E397.78778
G1 X145.002 Y119.546 E397.79328
G1 X120.934 Y95.478 E401.18954
G1 X122.347 Y95.477 E401.33053
G1 X145.202 Y118.332 E404.55561
G1 X145.277 Y117.667 E404.62239
G1 X145.286 Y117.562 E404.6329
G1 X145.306 Y117.022 E404.68682
G1 X123.762 Y95.477 E407.72698
G1 X125.176 Y95.477 E407.86807
G1 X145.327 Y115.628 E410.7116
G1 X145.327 Y114.214 E410.85269
G1 X126.59 Y95.477 E413.49668
G1 X128.004 Y95.477 E413.63777
G1 X145.327 Y112.8 E416.08223
G1 X145.327 Y111.386 E416.22332
G1 X129.418 Y95.477 E418.46825
G1 X130.246 Y95.477 E418.55087
G1 X130.855 Y95.499 E418.61168
G1 X145.304 Y109.948 E420.65059
G1 X145.286 Y109.485 E420.69682
G1 X145.271 Y109.281 E420.71723
G1 X145.175 Y108.439 E420.80179
G1 X145.169 Y108.4 E420.80573
G1 X132.409 Y95.64 E422.6063
G1 X132.452 Y95.646 E422.61063
G1 X133.368 Y95.812 E422.70352
G1 X134.203 Y96.019 E422.78936
G1 X144.787 Y106.603 E424.28287
G1 X144.651 Y106.097 E424.33516
G1 X144.596 Y105.92 E424.35365
G1 X144.304 Y105.099 E424.4406
G1 X144.234 Y104.92 E424.45977
G1 X144.011 Y104.413 E424.51504
G1 X136.393 Y96.795 E425.59002
G1 X136.464 Y96.826 E425.59775
G1 X137.761 Y97.488 E425.74305
G1 X137.827 Y97.529 E425.7508
G1 X138.626 Y98.024 E425.84459
G1 X138.79 Y98.134 E425.86429
G1 X139.505 Y98.654 E425.95251
G1 X139.632 Y98.754 E425.96864
G1 X140.33 Y99.342 E426.0597
G1 X140.437 Y99.441 E426.07425
