;FLAVOR:Marlin
;TIME:4446
;Filament used: 3.37609m
;Layer height: 0.2
;MINX:49.275
;MINY:37.126
;MINZ:0.2
;MAXX:185.275
;MAXY:190.884
;MAXZ:2.2
;Generated with Cura_SteamEngine 4.6.1
M140 S55
M105
M190 S55
M104 S210
M105
M109 S210
M82 ;absolute extrusion mode
; Ender 3 Custom Start G-code
G92 E0 ; Reset Extruder
G28 ; Home all axes
G1 Z2.0 F3000 ; Move Z Axis up little to prevent scratching of Heat Bed
G1 X0.1 Y20 Z0.3 F5000.0 ; Move to start position
G1 X0.1 Y200.0 Z0.3 F1500.0 E15 ; Draw the first line
G1 X0.4 Y200.0 Z0.3 F5000.0 ; Move to side a little
G1 X0.4 Y20 Z0.3 F1500.0 E30 ; Draw the second line
G92 E0 ; Reset Extruder
G1 Z2.0 F3000 ; Move Z Axis up little to prevent scratching of Heat Bed
G1 X5 Y20 Z0.3 F5000.0 ; Move over to prevent blob squish
G92 E0
G92 E0
G1 F2700 E-5
;LAYER_COUNT:10
;LAYER:0
M107
G1 F300 Z0.4
G0 F6000 X148.362 Y38.078 Z0.4
;TYPE:SKIRT
G1 F300 Z0.2
G1 F2700 E0
G1 F1200 X149.662 Y38.335 E0.04408
G1 X150.203 Y38.479 E0.0627
G1 X151.064 Y38.75 E0.09272
G1 X151.538 Y38.936 E0.10965
G1 X152.039 Y39.147 E0.12773
G1 X152.855 Y39.534 E0.15777
G1 X153.311 Y39.791 E0.17518
G1 X153.773 Y40.067 E0.19308
G1 X154.527 Y40.564 E0.22312
G1 X154.9 Y40.847 E0.23869
G1 X155.319 Y41.181 E0.25651
G1 X156.21 Y41.981 E0.29634
G1 X156.405 Y42.178 E0.30556
G1 X156.844 Y42.651 E0.32702
G1 X157.778 Y43.725 E0.37436
G1 X160.945 Y47.506 E0.5384
G1 X161.256 Y47.897 E0.55502
G1 X161.781 Y48.59 E0.58394
G1 X162.294 Y49.333 E0.61397
G1 X162.539 Y49.745 E0.62991
G1 X162.673 Y49.983 E0.639
G1 X162.865 Y50.339 E0.65245
G1 X162.994 Y50.591 E0.66186
G1 X163.405 Y51.503 E0.69514
G1 X163.492 Y51.724 E0.70304
G1 X163.633 Y52.104 E0.71652
G1 X163.733 Y52.391 E0.72662
G1 X164.024 Y53.384 E0.76104
G1 X164.089 Y53.657 E0.77037
G1 X164.224 Y54.305 E0.79239
G1 X164.359 Y55.191 E0.8222
G1 X164.387 Y55.451 E0.8309
G1 X164.444 Y56.327 E0.86009
G1 X164.475 Y57.912 E0.91282
G1 X164.475 Y64.829 E1.14288
G1 X164.512 Y67.435 E1.22957
G1 X164.621 Y70.003 E1.31505
G1 X164.798 Y72.506 E1.39851
G1 X165.05 Y75.048 E1.48347
G1 X165.371 Y77.556 E1.56757
G1 X165.765 Y80.061 E1.65191
G1 X166.227 Y82.548 E1.73605
G1 X166.77 Y85.069 E1.82182
G1 X167.365 Y87.494 E1.90487
G1 X168.042 Y89.96 E1.98992
G1 X168.785 Y92.387 E2.07434
G1 X169.596 Y94.789 E2.15866
G1 X170.492 Y97.219 E2.2448
G1 X171.196 Y98.989 E2.30816
G1 X171.38 Y99.436 E2.32424
G1 X171.553 Y99.886 E2.34027
G1 X171.706 Y100.314 E2.35539
G1 X172.026 Y101.394 E2.39285
G1 X172.095 Y101.685 E2.4028
G1 X172.18 Y102.077 E2.41614
G1 X172.228 Y102.322 E2.42445
G1 X172.359 Y103.187 E2.45354
G1 X172.387 Y103.446 E2.46221
G1 X172.439 Y104.175 E2.48652
G1 X172.529 Y106.669 E2.56952
G1 X172.692 Y109.241 E2.65524
G1 X172.926 Y111.801 E2.74074
G1 X173.223 Y114.258 E2.82305
G1 X173.606 Y116.825 E2.90938
G1 X174.047 Y119.3 E2.99299
G1 X174.564 Y121.791 E3.07761
G1 X175.142 Y124.227 E3.16088
G1 X175.812 Y126.734 E3.24719
G1 X176.527 Y129.132 E3.33042
G1 X177.329 Y131.572 E3.41584
G1 X178.192 Y133.964 E3.50042
G1 X179.109 Y136.298 E3.58383
G1 X180.113 Y138.653 E3.66898
G1 X181.167 Y140.946 E3.75291
G1 X182.355 Y143.348 E3.84204
G1 X182.988 Y144.581 E3.88814
G1 X183.407 Y145.508 E3.92197
G1 X183.497 Y145.737 E3.93016
G1 X183.638 Y146.118 E3.94367
G1 X183.735 Y146.397 E3.9535
G1 X184.026 Y147.394 E3.98804
G1 X184.095 Y147.685 E3.99799
G1 X184.18 Y148.077 E4.01133
G1 X184.228 Y148.322 E4.01963
G1 X184.359 Y149.191 E4.04886
G1 X184.387 Y149.451 E4.05756
G1 X184.444 Y150.327 E4.08676
G1 X184.475 Y151.912 E4.13948
G1 X184.474 Y175.293 E4.91714
G1 X184.464 Y176.016 E4.94119
G1 X184.412 Y176.918 E4.97124
G1 X184.28 Y177.811 E5.00126
G1 X184.069 Y178.689 E5.0313
G1 X183.782 Y179.545 E5.06132
G1 X183.42 Y180.373 E5.09138
G1 X182.986 Y181.165 E5.12142
G1 X182.484 Y181.916 E5.15146
G1 X181.917 Y182.619 E5.1815
G1 X181.291 Y183.269 E5.21152
G1 X180.609 Y183.862 E5.24158
G1 X179.529 Y184.612 E5.28531
G1 X178.915 Y184.982 E5.30915
G1 X176.684 Y186.358 E5.39633
G1 X175.501 Y187.134 E5.44339
G1 X174.306 Y187.906 E5.49071
G1 X173.27 Y188.492 E5.5303
G1 X172.798 Y188.724 E5.54779
G1 X171.626 Y189.212 E5.59001
G1 X171.171 Y189.369 E5.60602
G1 X169.901 Y189.717 E5.64982
G1 X169.357 Y189.829 E5.66829
G1 X168.124 Y190.006 E5.70972
G1 X167.828 Y190.03 E5.7196
G1 X167.189 Y190.061 E5.74088
G1 X165.845 Y190.084 E5.78559
G1 X162.837 Y190.083 E5.88563
G1 X162.346 Y190.076 E5.90197
G1 X162.019 Y190.066 E5.91285
G1 X161.372 Y190.036 E5.93439
G1 X161.033 Y190.015 E5.94569
G1 X160.309 Y189.956 E5.96985
G1 X158.631 Y189.8 E6.0259
G1 X156.062 Y189.633 E6.11152
G1 X153.557 Y189.541 E6.1949
G1 X150.991 Y189.52 E6.28025
G1 X148.464 Y189.57 E6.36431
G1 X145.931 Y189.693 E6.44866
G1 X142.725 Y189.95 E6.55563
G1 X142.134 Y190.007 E6.57538
G1 X141.374 Y190.052 E6.6007
G1 X139.845 Y190.084 E6.65157
G1 X136.837 Y190.083 E6.75161
G1 X136.346 Y190.076 E6.76795
G1 X136.019 Y190.066 E6.77883
G1 X135.372 Y190.036 E6.80037
G1 X135.033 Y190.015 E6.81167
G1 X134.309 Y189.956 E6.83583
G1 X132.631 Y189.8 E6.89188
G1 X130.062 Y189.633 E6.9775
G1 X127.557 Y189.541 E7.06088
G1 X124.991 Y189.52 E7.14622
G1 X122.464 Y189.57 E7.23029
G1 X119.931 Y189.693 E7.31464
G1 X116.725 Y189.95 E7.42161
G1 X116.134 Y190.007 E7.44136
G1 X115.374 Y190.052 E7.46668
G1 X113.845 Y190.084 E7.51755
G1 X110.837 Y190.083 E7.61759
G1 X110.346 Y190.076 E7.63393
G1 X110.019 Y190.066 E7.64481
G1 X109.372 Y190.036 E7.66635
G1 X109.033 Y190.015 E7.67765
G1 X108.309 Y189.956 E7.70181
G1 X106.631 Y189.8 E7.75786
G1 X104.062 Y189.633 E7.84348
G1 X101.557 Y189.541 E7.92686
G1 X98.991 Y189.52 E8.0122
G1 X96.464 Y189.57 E8.09627
G1 X93.931 Y189.693 E8.18062
G1 X90.725 Y189.95 E8.28759
G1 X90.134 Y190.007 E8.30734
G1 X89.374 Y190.052 E8.33266
G1 X87.845 Y190.084 E8.38353
G1 X84.837 Y190.083 E8.48357
G1 X84.346 Y190.076 E8.4999
G1 X84.019 Y190.066 E8.51079
G1 X83.372 Y190.036 E8.53233
G1 X82.556 Y189.965 E8.55957
G1 X82.336 Y189.937 E8.56695
G1 X81.515 Y189.799 E8.59464
G1 X81.127 Y189.717 E8.60783
G1 X79.952 Y189.394 E8.64836
G1 X79.461 Y189.227 E8.66561
G1 X78.619 Y188.898 E8.69567
G1 X78.207 Y188.705 E8.71081
G1 X77.74 Y188.473 E8.72815
G1 X76.62 Y187.825 E8.77119
G1 X76.197 Y187.543 E8.7881
G1 X75.145 Y186.738 E8.83215
G1 X74.742 Y186.386 E8.84995
G1 X73.784 Y185.43 E8.89496
G1 X73.441 Y185.039 E8.91226
G1 X72.634 Y183.989 E8.95631
G1 X72.344 Y183.556 E8.97364
G1 X71.875 Y182.784 E9.00369
G1 X71.661 Y182.372 E9.01913
G1 X71.429 Y181.899 E9.03665
G1 X70.926 Y180.68 E9.08051
G1 X70.759 Y180.187 E9.09782
G1 X70.417 Y178.907 E9.14189
G1 X70.316 Y178.4 E9.15908
G1 X70.179 Y177.507 E9.18913
G1 X70.139 Y177.04 E9.20472
G1 X70.081 Y176.049 E9.23774
G1 X70.021 Y174.207 E9.29904
G1 X69.864 Y171.659 E9.38395
G1 X69.638 Y169.149 E9.46777
G1 X69.338 Y166.615 E9.55264
G1 X68.971 Y164.125 E9.63635
G1 X68.527 Y161.606 E9.72142
G1 X68.022 Y159.151 E9.80479
G1 X67.431 Y156.635 E9.89075
G1 X66.785 Y154.201 E9.9745
G1 X66.065 Y151.767 E10.05893
G1 X65.268 Y149.329 E10.14424
G1 X64.428 Y146.986 E10.22702
G1 X63.481 Y144.563 E10.31355
G1 X62.504 Y142.256 E10.39688
G1 X61.451 Y139.955 E10.48104
G1 X60.302 Y137.62 E10.5676
G1 X59.77 Y136.6 E10.60586
G1 X59.604 Y136.267 E10.61823
G1 X59.377 Y135.79 E10.6358
G1 X58.926 Y134.68 E10.67565
G1 X58.759 Y134.187 E10.69297
G1 X58.417 Y132.907 E10.73703
G1 X58.316 Y132.4 E10.75423
G1 X58.148 Y131.179 E10.79522
G1 X58.125 Y130.876 E10.80533
G1 X58.098 Y130.29 E10.82484
G1 X58.075 Y128.953 E10.86931
G1 X58.075 Y121.932 E11.10283
G1 X58.038 Y119.335 E11.18922
G1 X57.929 Y116.767 E11.27471
G1 X57.752 Y114.265 E11.35813
G1 X57.503 Y111.752 E11.44212
G1 X57.175 Y109.189 E11.52807
G1 X56.784 Y106.704 E11.61173
G1 X56.324 Y104.228 E11.6955
G1 X55.779 Y101.694 E11.7817
G1 X55.185 Y99.276 E11.86452
G1 X54.505 Y96.8 E11.94992
G1 X53.771 Y94.403 E12.0333
G1 X52.946 Y91.958 E12.11912
G1 X52.061 Y89.557 E12.20423
G1 X51.423 Y87.948 E12.2618
G1 X51.142 Y87.26 E12.28652
G1 X50.919 Y86.662 E12.30775
G1 X50.753 Y86.169 E12.32505
G1 X50.417 Y84.907 E12.36849
G1 X50.316 Y84.4 E12.38568
G1 X50.148 Y83.179 E12.42667
G1 X50.125 Y82.876 E12.43678
G1 X50.098 Y82.29 E12.45629
G1 X50.075 Y80.953 E12.50077
G1 X50.076 Y57.435 E13.28298
G1 X50.082 Y57.016 E13.29692
G1 X50.093 Y56.666 E13.30856
G1 X50.133 Y55.844 E13.33594
G1 X50.217 Y54.945 E13.36597
G1 X50.312 Y54.377 E13.38512
G1 X50.383 Y54.015 E13.39739
G1 X50.506 Y53.457 E13.41639
G1 X50.849 Y52.301 E13.4565
G1 X51.035 Y51.787 E13.47468
G1 X51.545 Y50.612 E13.51728
G1 X51.677 Y50.354 E13.52692
G1 X51.961 Y49.83 E13.54675
G1 X52.54 Y48.903 E13.5831
G1 X52.681 Y48.702 E13.59126
G1 X53.083 Y48.167 E13.61352
G1 X54.055 Y46.962 E13.66501
G1 X57.028 Y43.42 E13.81882
G1 X57.552 Y42.823 E13.84524
G1 X58.043 Y42.29 E13.86934
G1 X58.738 Y41.605 E13.9018
G1 X58.892 Y41.467 E13.90868
G1 X59.451 Y41 E13.9329
G1 X59.762 Y40.759 E13.94599
G1 X60.779 Y40.065 E13.98694
G1 X61.226 Y39.798 E14.00426
G1 X62.408 Y39.193 E14.04842
G1 X62.882 Y38.988 E14.0656
G1 X63.726 Y38.667 E14.09563
G1 X64.187 Y38.526 E14.11167
G1 X64.724 Y38.376 E14.13021
G1 X65.604 Y38.172 E14.16026
G1 X66.067 Y38.097 E14.17586
G1 X66.579 Y38.026 E14.19305
G1 X67.925 Y37.929 E14.23793
G1 X68.479 Y37.926 E14.25636
G1 X69.652 Y37.987 E14.29543
G1 X72.715 Y38.325 E14.39792
G1 X75.222 Y38.53 E14.48158
G1 X77.774 Y38.666 E14.56658
G1 X80.316 Y38.73 E14.65116
G1 X82.849 Y38.721 E14.73541
G1 X85.38 Y38.642 E14.81963
G1 X87.945 Y38.488 E14.90509
G1 X90.45 Y38.267 E14.98873
G1 X92.127 Y38.079 E15.04486
G1 X92.773 Y38.001 E15.0665
G1 X93.981 Y37.927 E15.10676
G1 X94.515 Y37.926 E15.12452
G1 X95.652 Y37.987 E15.16239
G1 X98.715 Y38.325 E15.26488
G1 X101.222 Y38.53 E15.34854
G1 X103.774 Y38.666 E15.43354
G1 X106.316 Y38.73 E15.51812
G1 X108.849 Y38.721 E15.60237
G1 X111.38 Y38.642 E15.68659
G1 X113.945 Y38.488 E15.77205
G1 X116.45 Y38.267 E15.8557
G1 X118.127 Y38.079 E15.91182
G1 X118.773 Y38.001 E15.93346
G1 X119.981 Y37.927 E15.97372
G1 X120.515 Y37.926 E15.99148
G1 X121.652 Y37.987 E16.02935
G1 X124.715 Y38.325 E16.13184
G1 X127.222 Y38.53 E16.21551
G1 X129.774 Y38.666 E16.30051
G1 X132.316 Y38.73 E16.38508
G1 X134.849 Y38.721 E16.46933
G1 X137.38 Y38.642 E16.55355
G1 X139.945 Y38.488 E16.63902
G1 X142.45 Y38.267 E16.72266
G1 X144.127 Y38.079 E16.77878
G1 X144.773 Y38.001 E16.80043
G1 X145.981 Y37.927 E16.84068
G1 X146.515 Y37.926 E16.85844
G1 X147.858 Y38.012 E16.9032
G1 X148.362 Y38.078 E16.92011
G0 F6000 X147.91 Y37.616
G1 F1200 X148.414 Y37.682 E16.93701
G1 X149.765 Y37.949 E16.98282
G1 X150.306 Y38.093 E17.00144
G1 X151.184 Y38.368 E17.03204
G1 X151.693 Y38.567 E17.05021
G1 X152.194 Y38.778 E17.0683
G1 X153.026 Y39.172 E17.09891
G1 X153.516 Y39.447 E17.1176
G1 X153.978 Y39.723 E17.1355
G1 X154.747 Y40.229 E17.16612
G1 X155.149 Y40.534 E17.1829
G1 X155.568 Y40.868 E17.20072
G1 X156.494 Y41.7 E17.24213
G1 X156.689 Y41.897 E17.25135
G1 X157.146 Y42.388 E17.27366
G1 X158.085 Y43.469 E17.32128
G1 X161.252 Y47.25 E17.48533
G1 X161.575 Y47.655 E17.50256
G1 X162.1 Y48.348 E17.53147
G1 X162.624 Y49.105 E17.56209
G1 X162.888 Y49.549 E17.57927
G1 X163.022 Y49.787 E17.58836
G1 X163.221 Y50.157 E17.60233
G1 X163.35 Y50.409 E17.61175
G1 X163.777 Y51.356 E17.6463
G1 X163.864 Y51.577 E17.6542
G1 X164.011 Y51.972 E17.66822
G1 X164.111 Y52.259 E17.67833
G1 X164.413 Y53.292 E17.71412
G1 X164.478 Y53.565 E17.72345
G1 X164.565 Y53.964 E17.73704
G1 X164.617 Y54.227 E17.74595
G1 X164.757 Y55.148 E17.77694
G1 X164.785 Y55.408 E17.78564
G1 X164.844 Y56.319 E17.816
G1 X164.875 Y57.912 E17.86899
G1 X164.875 Y64.823 E18.09885
G1 X164.912 Y67.448 E18.18617
G1 X165.019 Y69.958 E18.26973
G1 X165.197 Y72.472 E18.35355
G1 X165.447 Y74.994 E18.43785
G1 X165.765 Y77.48 E18.52121
G1 X166.166 Y80.032 E18.60713
G1 X166.618 Y82.463 E18.68937
G1 X167.156 Y84.962 E18.77439
G1 X167.753 Y87.398 E18.85781
G1 X168.431 Y89.864 E18.94287
G1 X169.159 Y92.242 E19.02559
G1 X169.978 Y94.671 E19.11085
G1 X170.855 Y97.047 E19.19508
G1 X171.591 Y98.898 E19.26134
G1 X171.75 Y99.284 E19.27522
G1 X171.929 Y99.751 E19.29186
G1 X172.082 Y100.179 E19.30697
G1 X172.415 Y101.301 E19.3459
G1 X172.484 Y101.592 E19.35585
G1 X172.62 Y102.245 E19.37803
G1 X172.757 Y103.144 E19.40828
G1 X172.785 Y103.403 E19.41694
G1 X172.839 Y104.16 E19.44218
G1 X172.929 Y106.667 E19.52562
G1 X173.091 Y109.215 E19.61054
G1 X173.32 Y111.716 E19.69407
G1 X173.627 Y114.259 E19.77927
G1 X173.995 Y116.727 E19.86226
G1 X174.44 Y119.227 E19.94672
G1 X174.957 Y121.715 E20.03124
G1 X175.534 Y124.145 E20.1143
G1 X176.194 Y126.615 E20.19934
G1 X176.907 Y129.008 E20.28239
G1 X177.71 Y131.448 E20.36783
G1 X178.557 Y133.8 E20.45097
G1 X179.486 Y136.161 E20.53536
G1 X180.48 Y138.494 E20.6197
G1 X181.537 Y140.794 E20.70389
G1 X182.684 Y143.113 E20.78994
G1 X183.344 Y144.398 E20.83799
G1 X183.779 Y145.362 E20.87317
G1 X183.869 Y145.591 E20.88135
G1 X184.016 Y145.987 E20.8954
G1 X184.113 Y146.266 E20.90522
G1 X184.415 Y147.301 E20.94108
G1 X184.484 Y147.592 E20.95103
G1 X184.62 Y148.245 E20.97321
G1 X184.757 Y149.148 E21.00359
G1 X184.785 Y149.408 E21.01229
G1 X184.844 Y150.319 E21.04265
G1 X184.875 Y151.912 E21.09565
G1 X184.874 Y175.299 E21.8735
G1 X184.864 Y176.022 E21.89755
G1 X184.811 Y176.941 E21.92817
G1 X184.679 Y177.852 E21.95878
G1 X184.468 Y178.748 E21.9894
G1 X184.18 Y179.623 E22.02004
G1 X183.818 Y180.469 E22.05064
G1 X183.383 Y181.28 E22.08125
G1 X182.88 Y182.051 E22.11187
G1 X182.311 Y182.775 E22.1425
G1 X181.682 Y183.448 E22.17314
G1 X180.997 Y184.063 E22.20376
G1 X180.261 Y184.616 E22.23438
G1 X179.735 Y184.955 E22.25519
G1 X179.086 Y185.346 E22.28039
G1 X176.891 Y186.7 E22.36617
G1 X175.718 Y187.47 E22.41284
G1 X174.523 Y188.242 E22.46016
G1 X173.447 Y188.851 E22.50128
G1 X172.975 Y189.083 E22.51877
G1 X171.757 Y189.59 E22.56265
G1 X171.302 Y189.747 E22.57866
G1 X169.982 Y190.109 E22.62418
G1 X169.438 Y190.221 E22.64266
G1 X168.157 Y190.404 E22.6857
G1 X167.861 Y190.428 E22.69557
G1 X167.196 Y190.461 E22.71772
G1 X165.845 Y190.484 E22.76266
G1 X162.831 Y190.483 E22.86291
G1 X162.34 Y190.476 E22.87924
G1 X162 Y190.466 E22.89055
G1 X161.353 Y190.436 E22.91209
G1 X161.001 Y190.413 E22.92383
G1 X160.271 Y190.354 E22.94819
G1 X158.601 Y190.198 E23.00397
G1 X156.058 Y190.034 E23.08873
G1 X153.539 Y189.941 E23.17257
G1 X150.995 Y189.92 E23.25718
G1 X148.491 Y189.97 E23.34048
G1 X145.951 Y190.093 E23.42506
G1 X142.738 Y190.35 E23.53227
G1 X142.173 Y190.405 E23.55115
G1 X141.383 Y190.452 E23.57747
G1 X139.845 Y190.484 E23.62864
G1 X136.831 Y190.483 E23.72888
G1 X136.34 Y190.476 E23.74522
G1 X136 Y190.466 E23.75653
G1 X135.353 Y190.436 E23.77807
G1 X135.001 Y190.413 E23.7898
G1 X134.271 Y190.354 E23.81416
G1 X132.601 Y190.198 E23.86995
G1 X130.058 Y190.034 E23.95471
G1 X127.539 Y189.941 E24.03855
G1 X124.995 Y189.92 E24.12316
G1 X122.491 Y189.97 E24.20646
G1 X119.951 Y190.093 E24.29104
G1 X116.738 Y190.35 E24.39825
G1 X116.173 Y190.405 E24.41713
G1 X115.383 Y190.452 E24.44345
G1 X113.845 Y190.484 E24.49462
G1 X110.831 Y190.483 E24.59486
G1 X110.34 Y190.476 E24.61119
G1 X110 Y190.466 E24.62251
G1 X109.353 Y190.436 E24.64405
G1 X109.001 Y190.413 E24.65578
G1 X108.271 Y190.354 E24.68014
G1 X106.601 Y190.198 E24.73593
G1 X104.058 Y190.034 E24.82068
G1 X101.539 Y189.941 E24.90452
G1 X98.995 Y189.92 E24.98914
G1 X96.491 Y189.97 E25.07244
G1 X93.951 Y190.093 E25.15702
G1 X90.738 Y190.35 E25.26423
G1 X90.173 Y190.405 E25.28311
G1 X89.383 Y190.452 E25.30943
G1 X87.845 Y190.484 E25.36059
G1 X84.831 Y190.483 E25.46084
G1 X84.34 Y190.476 E25.47717
G1 X84 Y190.466 E25.48849
G1 X83.353 Y190.436 E25.51003
G1 X82.506 Y190.362 E25.53831
G1 X82.286 Y190.334 E25.54568
G1 X81.432 Y190.19 E25.57449
G1 X81.044 Y190.108 E25.58768
G1 X79.823 Y189.772 E25.6298
G1 X79.332 Y189.605 E25.64705
G1 X78.474 Y189.271 E25.67767
G1 X78.029 Y189.063 E25.69401
G1 X77.562 Y188.831 E25.71135
G1 X76.398 Y188.158 E25.75607
G1 X75.975 Y187.876 E25.77298
G1 X74.882 Y187.039 E25.81877
G1 X74.479 Y186.687 E25.83657
G1 X73.812 Y186.052 E25.8672
G1 X73.484 Y185.694 E25.88335
G1 X73.141 Y185.303 E25.90065
G1 X72.302 Y184.212 E25.94642
G1 X72.012 Y183.779 E25.96375
G1 X71.533 Y182.992 E25.9944
G1 X71.302 Y182.548 E26.01104
