;FLAVOR:Marlin
;TIME:7244
;Filament used: 4.14771m
;Layer height: 0.2
;MINX:22.509
;MINY:46.229
;MINZ:0.2
;MAXX:207.486
;MAXY:183.762
;MAXZ:2
;Generated with Cura_SteamEngine 4.6.1
M140 S55
M105
M190 S55
M104 S210
M105
M109 S210
M82 ;absolute extrusion mode
; Ender 3 Custom Start G-code
G92 E0 ; Reset Extruder
G28 ; Home all axes
G1 Z2.0 F3000 ; Move Z Axis up little to prevent scratching of Heat Bed
G1 X0.1 Y20 Z0.3 F5000.0 ; Move to start position
G1 X0.1 Y200.0 Z0.3 F1500.0 E15 ; Draw the first line
G1 X0.4 Y200.0 Z0.3 F5000.0 ; Move to side a little
G1 X0.4 Y20 Z0.3 F1500.0 E30 ; Draw the second line
G92 E0 ; Reset Extruder
G1 Z2.0 F3000 ; Move Z Axis up little to prevent scratching of Heat Bed
G1 X5 Y20 Z0.3 F5000.0 ; Move over to prevent blob squish
G92 E0
G92 E0
G1 F2700 E-5
;LAYER_COUNT:10
;LAYER:0
M107
G0 F6000 X56.025 Y180.751 Z0.2
;TYPE:SKIRT
G1 F2700 E0
G1 F1200 X53.392 Y181.222 E0.08896
G1 X52.489 Y181.343 E0.11927
G1 X51.682 Y181.414 E0.14621
G1 X49.089 Y181.654 E0.23282
G1 X46.527 Y181.965 E0.31866
G1 X43.999 Y182.345 E0.40369
G1 X42.855 Y182.548 E0.44233
G1 X41.43 Y182.795 E0.49043
G1 X40.534 Y182.91 E0.52048
G1 X40.003 Y182.94 E0.53817
G1 X39.137 Y182.962 E0.56698
G1 X38.878 Y182.962 E0.5756
G1 X37.976 Y182.922 E0.60563
G1 X36.871 Y182.763 E0.64276
G1 X36.577 Y182.704 E0.65273
G1 X35.839 Y182.527 E0.67797
G1 X35.363 Y182.394 E0.69441
G1 X34.505 Y182.112 E0.72445
G1 X33.675 Y181.756 E0.75449
G1 X33.163 Y181.491 E0.77366
G1 X32.694 Y181.231 E0.7915
G1 X32.225 Y180.957 E0.80956
G1 X31.47 Y180.461 E0.83961
G1 X30.763 Y179.9 E0.86963
G1 X30.381 Y179.552 E0.88682
G1 X29.878 Y179.069 E0.91001
G1 X29.255 Y178.416 E0.94003
G1 X28.692 Y177.709 E0.97009
G1 X28.391 Y177.27 E0.98779
G1 X28.029 Y176.713 E1.00989
G1 X27.642 Y176.067 E1.03493
G1 X27.542 Y175.885 E1.04184
G1 X27.142 Y175.075 E1.07189
G1 X26.735 Y173.984 E1.11061
G1 X26.659 Y173.738 E1.11918
G1 X26.552 Y173.366 E1.13205
G1 X26.421 Y172.877 E1.14889
G1 X26.182 Y171.721 E1.18815
G1 X26.049 Y170.803 E1.219
G1 X23.464 Y151.207 E1.87642
G1 X23.384 Y150.529 E1.89912
G1 X23.318 Y149.627 E1.9292
G1 X23.312 Y149.418 E1.93616
G1 X23.309 Y148.987 E1.95049
G1 X23.316 Y148.47 E1.96769
G1 X23.368 Y147.568 E1.99774
G1 X23.486 Y146.751 E2.0252
G1 X23.718 Y145.498 E2.06758
G1 X24.193 Y142.746 E2.16047
G1 X24.551 Y140.22 E2.24532
G1 X24.835 Y137.72 E2.329
G1 X25.051 Y135.172 E2.41406
G1 X25.195 Y132.63 E2.49874
G1 X25.266 Y130.104 E2.58279
G1 X25.266 Y127.569 E2.6671
G1 X25.193 Y125.029 E2.75162
G1 X25.048 Y122.467 E2.83697
G1 X24.835 Y119.964 E2.92052
G1 X24.49 Y116.986 E3.02023
G1 X23.464 Y109.207 E3.2812
G1 X23.384 Y108.529 E3.30391
G1 X23.318 Y107.627 E3.33399
G1 X23.312 Y107.418 E3.34094
G1 X23.309 Y106.987 E3.35528
G1 X23.316 Y106.47 E3.37247
G1 X23.368 Y105.568 E3.40252
G1 X23.486 Y104.751 E3.42998
G1 X23.718 Y103.498 E3.47236
G1 X24.193 Y100.746 E3.56525
G1 X24.551 Y98.22 E3.6501
G1 X24.835 Y95.72 E3.73379
G1 X25.051 Y93.172 E3.81884
G1 X25.195 Y90.63 E3.90352
G1 X25.266 Y88.104 E3.98757
G1 X25.266 Y85.569 E4.07188
G1 X25.193 Y83.029 E4.1564
G1 X25.048 Y80.467 E4.24175
G1 X24.835 Y77.964 E4.3253
G1 X24.49 Y74.986 E4.42501
G1 X23.464 Y67.207 E4.68598
G1 X23.384 Y66.529 E4.70869
G1 X23.318 Y65.627 E4.73877
G1 X23.312 Y65.418 E4.74572
G1 X23.309 Y64.987 E4.76006
G1 X23.316 Y64.47 E4.77726
G1 X23.368 Y63.568 E4.80731
G1 X23.559 Y62.388 E4.84706
G1 X23.627 Y62.083 E4.85746
G1 X23.736 Y61.641 E4.8726
G1 X23.839 Y61.26 E4.88573
G1 X24.114 Y60.4 E4.91576
G1 X24.613 Y59.262 E4.95709
G1 X24.933 Y58.639 E4.98038
G1 X25.233 Y58.096 E5.00101
G1 X25.319 Y57.951 E5.00662
G1 X25.814 Y57.195 E5.03668
G1 X26.373 Y56.486 E5.06671
G1 X26.752 Y56.071 E5.0854
G1 X27.137 Y55.672 E5.10384
G1 X27.872 Y54.983 E5.13735
G1 X28.145 Y54.751 E5.14926
G1 X28.858 Y54.197 E5.1793
G1 X29.451 Y53.808 E5.20288
G1 X29.65 Y53.687 E5.21063
G1 X29.968 Y53.501 E5.22288
G1 X30.32 Y53.304 E5.2363
G1 X31.126 Y52.898 E5.26632
G1 X31.966 Y52.566 E5.29636
G1 X32.482 Y52.402 E5.31437
G1 X33.021 Y52.247 E5.33302
G1 X33.877 Y52.041 E5.3623
G1 X34.239 Y51.97 E5.37457
G1 X35.345 Y51.815 E5.41172
G1 X37.764 Y51.611 E5.49246
G1 X40.26 Y51.331 E5.576
G1 X42.78 Y50.976 E5.66064
G1 X46.15 Y50.389 E5.77441
G1 X47.043 Y50.274 E5.80436
G1 X47.706 Y50.218 E5.82649
G1 X50.312 Y49.978 E5.91353
G1 X52.81 Y49.677 E5.99722
G1 X55.311 Y49.303 E6.08133
G1 X56.755 Y49.042 E6.13013
G1 X58.185 Y48.801 E6.17837
G1 X58.786 Y48.718 E6.19855
G1 X59.279 Y48.668 E6.21503
G1 X61.476 Y48.486 E6.28835
G1 X64.041 Y48.199 E6.37419
G1 X66.505 Y47.853 E6.45695
G1 X69.979 Y47.248 E6.57424
G1 X70.875 Y47.133 E6.60428
G1 X71.466 Y47.1 E6.62397
G1 X72.009 Y47.086 E6.64203
G1 X72.44 Y47.084 E6.65637
G1 X72.683 Y47.088 E6.66445
G1 X73.506 Y47.135 E6.69187
G1 X74.765 Y47.259 E6.73395
G1 X75.417 Y47.333 E6.75577
G1 X77.914 Y47.542 E6.83911
G1 X80.454 Y47.683 E6.92372
G1 X82.986 Y47.752 E7.00797
G1 X85.52 Y47.748 E7.09225
G1 X88.089 Y47.673 E7.17773
G1 X90.618 Y47.527 E7.26199
G1 X93.166 Y47.307 E7.34705
G1 X95.033 Y47.101 E7.40952
G1 X95.773 Y47.046 E7.4342
G1 X96.042 Y47.036 E7.44316
G1 X96.421 Y47.029 E7.45577
G1 X133.275 Y47.029 E8.68153
G1 X133.973 Y47.039 E8.70475
G1 X134.818 Y47.086 E8.7329
G1 X135.774 Y47.18 E8.76485
G1 X137.382 Y47.355 E8.81865
G1 X139.907 Y47.559 E8.9029
G1 X142.434 Y47.69 E8.98707
G1 X144.97 Y47.75 E9.07144
G1 X147.538 Y47.74 E9.15685
G1 X150.043 Y47.657 E9.24021
G1 X152.575 Y47.503 E9.32458
G1 X155.448 Y47.241 E9.42054
G1 X156.291 Y47.151 E9.44873
G1 X157.212 Y47.094 E9.47942
G1 X158.071 Y47.085 E9.508
G1 X158.302 Y47.088 E9.51568
G1 X159.204 Y47.14 E9.54573
G1 X159.84 Y47.225 E9.56707
G1 X160.929 Y47.407 E9.60379
G1 X162.064 Y47.618 E9.64219
G1 X164.577 Y48.011 E9.72679
G1 X167.048 Y48.327 E9.80965
G1 X171.042 Y48.695 E9.94305
G1 X171.968 Y48.824 E9.97415
G1 X172.629 Y48.947 E9.99651
G1 X175.192 Y49.386 E10.08299
G1 X177.762 Y49.751 E10.16933
G1 X180.254 Y50.035 E10.25275
G1 X182.804 Y50.252 E10.33787
G1 X183.602 Y50.351 E10.36462
G1 X184.671 Y50.53 E10.40067
G1 X185.823 Y50.744 E10.43964
G1 X188.309 Y51.135 E10.52334
G1 X190.82 Y51.457 E10.60754
G1 X193.435 Y51.718 E10.69495
G1 X194.677 Y51.815 E10.73638
G1 X195.574 Y51.925 E10.76644
G1 X196.349 Y52.086 E10.79277
G1 X197.114 Y52.281 E10.81902
G1 X197.354 Y52.348 E10.82731
G1 X198.212 Y52.629 E10.85734
G1 X199.323 Y53.125 E10.89781
G1 X199.611 Y53.275 E10.90861
G1 X200.005 Y53.492 E10.92357
G1 X200.363 Y53.699 E10.93732
G1 X201.124 Y54.185 E10.96735
G1 X201.839 Y54.737 E10.9974
G1 X202.201 Y55.058 E11.01349
G1 X202.74 Y55.559 E11.03797
G1 X203.374 Y56.202 E11.068
G1 X203.948 Y56.9 E11.09806
G1 X204.343 Y57.463 E11.12093
G1 X204.711 Y58.028 E11.14336
G1 X205.319 Y59.098 E11.18429
G1 X205.459 Y59.383 E11.19485
G1 X205.821 Y60.21 E11.22488
G1 X206.101 Y61.04 E11.25401
G1 X206.17 Y61.278 E11.26225
G1 X206.256 Y61.594 E11.27315
G1 X206.362 Y62.009 E11.28739
G1 X206.546 Y62.893 E11.31742
G1 X206.652 Y63.79 E11.34747
G1 X206.678 Y64.362 E11.36651
G1 X206.687 Y64.899 E11.38437
G1 X206.639 Y66.066 E11.42322
G1 X206.517 Y67.31 E11.4648
G1 X206.479 Y67.645 E11.47601
G1 X205.504 Y75.052 E11.72449
G1 X205.198 Y77.667 E11.81206
G1 X204.977 Y80.163 E11.8954
G1 X204.822 Y82.728 E11.98087
G1 X204.741 Y85.26 E12.06513
G1 X204.733 Y87.799 E12.14958
G1 X204.794 Y90.326 E12.23365
G1 X204.93 Y92.89 E12.31905
G1 X205.135 Y95.392 E12.40254
G1 X205.412 Y97.919 E12.4871
G1 X205.76 Y100.434 E12.57154
G1 X206.4 Y104.115 E12.69581
G1 X206.493 Y104.595 E12.71207
G1 X206.625 Y105.488 E12.74209
G1 X206.676 Y106.339 E12.77045
G1 X206.686 Y106.883 E12.78855
G1 X206.639 Y108.066 E12.82792
G1 X206.517 Y109.31 E12.8695
G1 X206.479 Y109.645 E12.88071
G1 X205.504 Y117.052 E13.1292
G1 X205.198 Y119.667 E13.21676
G1 X204.977 Y122.163 E13.30011
G1 X204.822 Y124.728 E13.38557
G1 X204.741 Y127.26 E13.46983
G1 X204.733 Y129.799 E13.55428
G1 X204.794 Y132.326 E13.63835
G1 X204.93 Y134.89 E13.72375
G1 X205.135 Y137.392 E13.80725
G1 X205.412 Y139.919 E13.8918
G1 X205.76 Y142.434 E13.97624
G1 X206.4 Y146.115 E14.10051
G1 X206.493 Y146.595 E14.11677
G1 X206.625 Y147.488 E14.1468
G1 X206.676 Y148.339 E14.17515
G1 X206.686 Y148.883 E14.19325
G1 X206.639 Y150.066 E14.23263
G1 X206.483 Y151.614 E14.28437
G1 X206.451 Y151.863 E14.29272
G1 X203.938 Y170.945 E14.93287
G1 X203.834 Y171.657 E14.95681
G1 X203.678 Y172.483 E14.98477
G1 X203.622 Y172.725 E14.99303
G1 X203.504 Y173.187 E15.00889
G1 X203.367 Y173.674 E15.02571
G1 X203.084 Y174.532 E15.05576
G1 X202.726 Y175.361 E15.0858
G1 X202.48 Y175.837 E15.10362
G1 X202.228 Y176.294 E15.12098
G1 X201.933 Y176.8 E15.14046
G1 X201.437 Y177.555 E15.1705
G1 X200.689 Y178.471 E15.20984
G1 X200.501 Y178.676 E15.21909
G1 X200.187 Y179.004 E15.23419
G1 X199.822 Y179.368 E15.25133
G1 X199.155 Y179.977 E15.28137
G1 X198.309 Y180.611 E15.31654
G1 X198.129 Y180.732 E15.32375
G1 X197.496 Y181.125 E15.34853
G1 X197.009 Y181.403 E15.36718
G1 X196.205 Y181.816 E15.39725
G1 X195.369 Y182.156 E15.42726
G1 X194.752 Y182.353 E15.44881
G1 X194.216 Y182.506 E15.46735
G1 X193.666 Y182.649 E15.48625
G1 X192.781 Y182.828 E15.51628
G1 X191.703 Y182.939 E15.55232
G1 X191.479 Y182.95 E15.55978
G1 X190.979 Y182.962 E15.57642
G1 X190.429 Y182.962 E15.59471
G1 X189.527 Y182.922 E15.62474
G1 X188.707 Y182.816 E15.65224
G1 X187.848 Y182.668 E15.68123
G1 X186.601 Y182.436 E15.72342
G1 X184.117 Y182.047 E15.80704
G1 X181.612 Y181.726 E15.89104
G1 X177.582 Y181.355 E16.02565
G1 X176.688 Y181.232 E16.05566
G1 X176.001 Y181.107 E16.07889
G1 X173.412 Y180.663 E16.16625
G1 X170.842 Y180.298 E16.25259
G1 X168.35 Y180.014 E16.33601
G1 X165.8 Y179.797 E16.42113
G1 X165.008 Y179.699 E16.44767
G1 X163.941 Y179.521 E16.48365
G1 X162.818 Y179.311 E16.52165
G1 X160.318 Y178.918 E16.60582
G1 X157.792 Y178.593 E16.69053
G1 X155.212 Y178.335 E16.77677
G1 X153.921 Y178.234 E16.81984
G1 X153.024 Y178.124 E16.8499
G1 X152.242 Y177.96 E16.87647
G1 X151.484 Y177.767 E16.90249
G1 X151.227 Y177.695 E16.91136
G1 X150.27 Y177.375 E16.94493
G1 X147.924 Y176.459 E17.02869
G1 X145.547 Y175.604 E17.11271
G1 X143.128 Y174.812 E17.19737
G1 X140.698 Y174.09 E17.28168
G1 X138.234 Y173.434 E17.36649
G1 X135.744 Y172.846 E17.45159
G1 X133.257 Y172.331 E17.53606
G1 X130.79 Y171.895 E17.61938
G1 X128.28 Y171.524 E17.70377
G1 X125.72 Y171.218 E17.78953
G1 X123.223 Y170.992 E17.87292
G1 X120.682 Y170.833 E17.95759
G1 X118.104 Y170.746 E18.04339
G1 X116.39 Y170.728 E18.1004
G1 X113.77 Y170.727 E18.18754
G1 X111.163 Y170.763 E18.27426
G1 X108.632 Y170.87 E18.35851
G1 X106.09 Y171.049 E18.44327
G1 X103.549 Y171.3 E18.5282
G1 X101.058 Y171.618 E18.61172
G1 X98.522 Y172.014 E18.69709
G1 X96.039 Y172.475 E18.78109
G1 X93.541 Y173.013 E18.86608
G1 X91.098 Y173.61 E18.94972
G1 X88.635 Y174.287 E19.03468
G1 X86.219 Y175.025 E19.1187
G1 X83.81 Y175.837 E19.20325
G1 X81.408 Y176.722 E19.28839
G1 X80.689 Y177.01 E19.31416
G1 X79.789 Y177.356 E19.34623
G1 X78.933 Y177.642 E19.37624
G1 X78.363 Y177.805 E19.39596
G1 X77.538 Y178.004 E19.42419
G1 X77.174 Y178.076 E19.43653
G1 X76.051 Y178.234 E19.47425
G1 X73.666 Y178.435 E19.55385
G1 X71.103 Y178.722 E19.63963
G1 X68.622 Y179.072 E19.72297
G1 X65.228 Y179.662 E19.83755
G1 X64.329 Y179.778 E19.8677
G1 X63.646 Y179.835 E19.89049
G1 X61.061 Y180.071 E19.97683
G1 X58.539 Y180.376 E20.06132
G1 X56.025 Y180.751 E20.14586
G1 F2700 E15.14586
G0 F6000 X37.835 Y173.194
G0 X36.932 Y172.652
G0 X36.324 Y172.044
G0 X35.864 Y171.252
G0 X35.61 Y170.373
G0 X32.842 Y149.39
G0 X32.841 Y106.53
G0 X33.123 Y105.488
G0 X33.561 Y104.728
G0 X34.308 Y104.002
G0 X35.063 Y103.566
G0 X139.473 Y76.905
G0 X153.772 Y84.516
G0 X154.619 Y84.737
G0 X190.363 Y89.437
G0 X191.314 Y89.419
G0 X192.192 Y89.182
G0 X193.082 Y88.638
G0 X193.72 Y87.979
G0 X194.172 Y87.187
G0 X194.404 Y86.31
G0 X197.159 Y65.335
G0 X197.156 Y64.456
G0 X196.86 Y63.458
G0 X196.421 Y62.704
G0 X195.665 Y61.985
G0 X194.945 Y61.586
G0 X133.979 Y46.639
G1 F2700 E20.14586
G1 F1200 X134.857 Y46.688 E20.17511
G1 X135.817 Y46.783 E20.20719
G1 X137.386 Y46.954 E20.25969
G1 X139.924 Y47.159 E20.34438
G1 X142.465 Y47.291 E20.42901
G1 X144.978 Y47.35 E20.51261
G1 X147.522 Y47.34 E20.59723
G1 X150.041 Y47.257 E20.68105
G1 X152.55 Y47.104 E20.76466
G1 X155.371 Y46.847 E20.85887
G1 X156.249 Y46.753 E20.88824
G1 X157.206 Y46.694 E20.92013
G1 X158.077 Y46.685 E20.9491
G1 X158.308 Y46.688 E20.95679
G1 X159.227 Y46.74 E20.9874
G1 X159.905 Y46.83 E21.01015
G1 X161.002 Y47.014 E21.04715
G1 X162.127 Y47.223 E21.0852
G1 X164.618 Y47.613 E21.16907
G1 X167.11 Y47.931 E21.25262
G1 X171.078 Y48.297 E21.38516
G1 X172.041 Y48.43 E21.41749
G1 X172.704 Y48.553 E21.43992
G1 X175.278 Y48.994 E21.52678
G1 X177.791 Y49.352 E21.6112
G1 X180.296 Y49.637 E21.69506
G1 X182.838 Y49.853 E21.77991
G1 X183.667 Y49.957 E21.8077
G1 X184.744 Y50.137 E21.84402
G1 X185.852 Y50.343 E21.8815
G1 X188.386 Y50.741 E21.96682
G1 X190.878 Y51.061 E22.05038
G1 X193.457 Y51.319 E22.13659
G1 X194.708 Y51.416 E22.17832
G1 X195.622 Y51.527 E22.20894
G1 X196.446 Y51.698 E22.23693
G1 X197.221 Y51.895 E22.26353
G1 X197.461 Y51.962 E22.27182
G1 X198.336 Y52.248 E22.30244
G1 X199.508 Y52.771 E22.34512
G1 X199.796 Y52.921 E22.35592
G1 X200.205 Y53.146 E22.37145
G1 X200.563 Y53.353 E22.3852
G1 X201.339 Y53.848 E22.41582
G1 X202.07 Y54.408 E22.44644
G1 X202.474 Y54.765 E22.46437
G1 X203.013 Y55.266 E22.48885
G1 X203.659 Y55.921 E22.51945
G1 X204.246 Y56.631 E22.55009
G1 X204.678 Y57.245 E22.57506
G1 X205.046 Y57.81 E22.59749
G1 X205.678 Y58.921 E22.64
G1 X205.818 Y59.206 E22.65056
G1 X206.188 Y60.05 E22.68121
G1 X206.485 Y60.928 E22.71204
G1 X206.554 Y61.166 E22.72028
G1 X206.643 Y61.495 E22.73162
G1 X206.749 Y61.91 E22.74586
G1 X206.938 Y62.811 E22.77648
G1 X207.048 Y63.725 E22.8071
G1 X207.078 Y64.355 E22.82808
G1 X207.087 Y64.892 E22.84594
G1 X207.037 Y66.105 E22.88632
G1 X206.915 Y67.349 E22.92789
G1 X206.875 Y67.697 E22.93954
G1 X205.903 Y75.083 E23.18732
G1 X205.6 Y77.674 E23.27409
G1 X205.373 Y80.225 E23.35927
G1 X205.222 Y82.73 E23.44274
G1 X205.141 Y85.274 E23.52739
G1 X205.133 Y87.791 E23.61111
G1 X205.195 Y90.33 E23.69558
G1 X205.328 Y92.838 E23.77911
G1 X205.533 Y95.353 E23.86304
G1 X205.812 Y97.888 E23.94787
G1 X206.155 Y100.371 E24.03123
G1 X206.789 Y104.018 E24.15435
G1 X206.886 Y104.519 E24.17133
G1 X207.021 Y105.43 E24.20196
G1 X207.076 Y106.331 E24.23198
G1 X207.086 Y106.875 E24.25008
G1 X207.037 Y108.105 E24.29102
G1 X206.915 Y109.349 E24.33259
G1 X206.875 Y109.697 E24.34424
G1 X205.903 Y117.083 E24.59202
G1 X205.6 Y119.674 E24.67879
G1 X205.373 Y122.225 E24.76397
G1 X205.222 Y124.73 E24.84744
G1 X205.141 Y127.274 E24.93209
G1 X205.133 Y129.791 E25.01581
G1 X205.195 Y132.33 E25.10028
G1 X205.328 Y134.838 E25.18381
G1 X205.533 Y137.353 E25.26774
G1 X205.812 Y139.888 E25.35256
G1 X206.155 Y142.371 E25.43593
G1 X206.789 Y146.018 E25.55905
G1 X206.886 Y146.519 E25.57603
G1 X207.021 Y147.43 E25.60666
G1 X207.076 Y148.331 E25.63668
G1 X207.086 Y148.875 E25.65478
G1 X207.037 Y150.105 E25.69572
G1 X206.88 Y151.665 E25.74787
G1 X206.848 Y151.914 E25.75622
G1 X204.334 Y171.003 E26.3966
G1 X204.23 Y171.715 E26.42053
G1 X204.068 Y172.573 E26.44958
G1 X204.012 Y172.815 E26.45784
G1 X203.889 Y173.296 E26.47435
G1 X203.752 Y173.783 E26.49118
G1 X203.464 Y174.657 E26.52178
G1 X203.102 Y175.503 E26.55239
G1 X202.83 Y176.03 E26.57211
G1 X202.578 Y176.487 E26.58947
G1 X202.277 Y177.005 E26.6094
G1 X201.772 Y177.774 E26.64
G1 X200.984 Y178.741 E26.68149
G1 X200.796 Y178.946 E26.69074
G1 X200.469 Y179.288 E26.70648
G1 X200.104 Y179.652 E26.72362
G1 X199.425 Y180.273 E26.75422
G1 X198.533 Y180.943 E26.79133
G1 X198.353 Y181.064 E26.79854
G1 X197.694 Y181.473 E26.82434
G1 X197.207 Y181.751 E26.84299
G1 X196.388 Y182.172 E26.87362
G1 X195.536 Y182.521 E26.90424
G1 X194.862 Y182.738 E26.92779
G1 X194.326 Y182.891 E26.94633
G1 X193.763 Y183.037 E26.96568
G1 X192.86 Y183.221 E26.99633
G1 X191.723 Y183.338 E27.03434
G1 X191.499 Y183.349 E27.0418
G1 X190.979 Y183.362 E27.0591
G1 X190.429 Y183.362 E27.0774
G1 X189.509 Y183.322 E27.10803
G1 X188.639 Y183.21 E27.1372
G1 X187.775 Y183.061 E27.16636
G1 X186.537 Y182.831 E27.20824
