;FLAVOR:Marlin
;TIME:14926
;Filament used: 8.88501m
;Layer height: 0.2
;MINX:23.865
;MINY:76.555
;MINZ:0.2
;MAXX:207.94
;MAXY:148.555
;MAXZ:25
;Generated with Cura_SteamEngine 4.6.2
M140 S55
M105
M190 S55
M104 S205
M105
M109 S205
M82 ;absolute extrusion mode
; Ender 3 Custom Start G-code
G92 E0 ; Reset Extruder
G28 ; Home all axes
G1 Z2.0 F3000 ; Move Z Axis up little to prevent scratching of Heat Bed
G1 X0.1 Y20 Z0.3 F5000.0 ; Move to start position
G1 X0.1 Y200.0 Z0.3 F1500.0 E15 ; Draw the first line
G1 X0.4 Y200.0 Z0.3 F5000.0 ; Move to side a little
G1 X0.4 Y20 Z0.3 F1500.0 E30 ; Draw the second line
G92 E0 ; Reset Extruder
G1 Z2.0 F3000 ; Move Z Axis up little to prevent scratching of Heat Bed
G1 X5 Y20 Z0.3 F5000.0 ; Move over to prevent blob squish
G92 E0
G92 E0
G1 F1500 E-6.5
;LAYER_COUNT:125
;LAYER:0
M107
G1 F300 Z0.4
G0 F6000 X34.713 Y147.679 Z0.4
;TYPE:SKIRT
G1 F300 Z0.2
G1 F1500 E0
G1 F1200 X33.812 Y147.625 E0.03002
G1 X32.919 Y147.491 E0.06005
G1 X32.041 Y147.279 E0.0901
G1 X31.185 Y146.99 E0.12015
G1 X30.359 Y146.626 E0.15017
G1 X29.567 Y146.191 E0.18022
G1 X28.818 Y145.687 E0.21025
G1 X28.115 Y145.119 E0.24031
G1 X27.466 Y144.492 E0.27032
G1 X26.875 Y143.809 E0.30036
G1 X26.346 Y143.077 E0.3304
G1 X25.885 Y142.3 E0.36045
G1 X25.494 Y141.486 E0.39049
G1 X25.176 Y140.641 E0.42052
G1 X24.935 Y139.771 E0.45054
G1 X24.771 Y138.883 E0.48058
G1 X24.678 Y137.757 E0.51815
G1 X24.665 Y137.149 E0.53838
G1 X24.666 Y88.12 E2.16909
G1 X24.675 Y87.431 E2.19201
G1 X24.727 Y86.529 E2.22206
G1 X24.858 Y85.636 E2.25208
G1 X25.068 Y84.757 E2.28214
G1 X25.354 Y83.901 E2.31216
G1 X25.716 Y83.073 E2.34221
G1 X26.149 Y82.281 E2.37223
G1 X26.65 Y81.53 E2.40226
G1 X27.216 Y80.826 E2.43231
G1 X27.842 Y80.175 E2.46234
G1 X28.524 Y79.582 E2.4924
G1 X29.255 Y79.052 E2.52243
G1 X30.029 Y78.588 E2.55245
G1 X30.842 Y78.195 E2.58248
G1 X31.687 Y77.875 E2.61254
G1 X32.557 Y77.631 E2.64259
G1 X33.444 Y77.465 E2.6726
G1 X34.588 Y77.368 E2.71079
G1 X35.195 Y77.355 E2.73098
G1 X192.483 Y77.355 E7.9624
G1 X192.629 Y77.356 E7.96726
G1 X193.328 Y77.366 E7.99051
G1 X194.229 Y77.419 E8.02053
G1 X195.123 Y77.551 E8.05059
G1 X195.613 Y77.659 E8.06727
G1 X196.929 Y77.982 E8.11234
G1 X197.796 Y78.236 E8.14239
G1 X198.637 Y78.565 E8.17243
G1 X199.445 Y78.968 E8.20246
G1 X199.907 Y79.24 E8.22029
G1 X200.15 Y79.392 E8.22982
G1 X200.415 Y79.564 E8.24033
G1 X200.896 Y79.887 E8.2596
G1 X201.45 Y80.268 E8.28197
G1 X202.171 Y80.812 E8.31201
G1 X202.806 Y81.384 E8.34043
G1 X202.95 Y81.525 E8.34714
G1 X203.567 Y82.185 E8.37719
G1 X204.193 Y82.997 E8.41129
G1 X204.732 Y83.782 E8.44296
G1 X205.165 Y84.449 E8.46941
G1 X205.623 Y85.228 E8.49946
G1 X206.01 Y86.044 E8.5295
G1 X206.324 Y86.891 E8.55955
G1 X206.573 Y87.818 E8.59147
G1 X206.782 Y88.771 E8.62392
G1 X206.848 Y89.097 E8.63498
G1 X206.959 Y89.696 E8.65525
G1 X207.084 Y90.591 E8.6853
G1 X207.129 Y91.412 E8.71265
G1 X207.14 Y92.267 E8.74109
G1 X207.139 Y132.994 E10.09568
G1 X207.129 Y133.692 E10.11889
G1 X207.076 Y134.594 E10.14895
G1 X206.963 Y135.385 E10.17552
G1 X206.773 Y136.398 E10.2098
G1 X206.573 Y137.311 E10.24089
G1 X206.518 Y137.535 E10.24856
G1 X206.264 Y138.402 E10.27861
G1 X205.934 Y139.243 E10.30866
G1 X205.531 Y140.051 E10.33869
G1 X205.281 Y140.477 E10.35512
G1 X205.144 Y140.698 E10.36376
G1 X204.965 Y140.977 E10.37479
G1 X204.607 Y141.513 E10.39623
G1 X204.232 Y142.058 E10.41823
G1 X203.688 Y142.778 E10.44825
G1 X203.19 Y143.337 E10.47315
G1 X203.049 Y143.484 E10.47992
G1 X202.396 Y144.107 E10.50994
G1 X201.521 Y144.79 E10.54686
G1 X200.73 Y145.336 E10.57883
G1 X200.056 Y145.775 E10.60558
G1 X199.278 Y146.234 E10.63562
G1 X198.463 Y146.622 E10.66564
G1 X197.616 Y146.937 E10.6957
G1 X196.788 Y147.165 E10.72427
G1 X195.5 Y147.463 E10.76824
G1 X194.612 Y147.628 E10.79828
G1 X193.603 Y147.718 E10.83197
G1 X193.273 Y147.731 E10.84295
G1 X192.898 Y147.739 E10.85543
G1 X186.821 Y147.755 E11.05755
G1 X170.367 Y147.754 E11.60481
G1 X168.677 Y147.729 E11.66103
G1 X167.659 Y147.7 E11.6949
G1 X166.34 Y147.691 E11.73877
G1 X35.572 Y147.691 E16.08813
G1 X35.411 Y147.69 E16.09349
G1 X34.713 Y147.679 E16.11671
G0 F6000 X34.707 Y148.079
G1 F1200 X33.788 Y148.024 E16.14733
G1 X32.877 Y147.89 E16.17795
G1 X31.981 Y147.678 E16.20858
G1 X31.107 Y147.388 E16.23921
G1 X30.262 Y147.024 E16.26981
G1 X29.451 Y146.588 E16.30043
G1 X28.681 Y146.083 E16.33106
G1 X27.958 Y145.513 E16.36168
G1 X27.287 Y144.883 E16.39229
G1 X26.673 Y144.196 E16.42294
G1 X26.122 Y143.459 E16.45355
G1 X25.636 Y142.677 E16.48417
G1 X25.22 Y141.856 E16.51478
G1 X24.876 Y141.002 E16.5454
G1 X24.608 Y140.121 E16.57603
G1 X24.418 Y139.22 E16.60666
G1 X24.306 Y138.307 E16.63725
G1 X24.278 Y137.768 E16.6552
G1 X24.265 Y137.149 E16.6758
G1 X24.266 Y88.115 E18.30667
G1 X24.275 Y87.426 E18.32959
G1 X24.327 Y86.506 E18.36024
G1 X24.458 Y85.595 E18.39085
G1 X24.669 Y84.699 E18.42147
G1 X24.956 Y83.824 E18.4521
G1 X25.318 Y82.978 E18.4827
G1 X25.752 Y82.166 E18.51332
G1 X26.254 Y81.394 E18.54395
G1 X26.822 Y80.67 E18.57456
G1 X27.451 Y79.997 E18.6052
G1 X28.136 Y79.382 E18.63582
G1 X28.871 Y78.828 E18.66643
G1 X29.652 Y78.34 E18.69706
G1 X30.472 Y77.921 E18.72769
G1 X31.325 Y77.576 E18.75829
G1 X32.205 Y77.305 E18.78891
G1 X33.105 Y77.113 E18.81952
G1 X34.019 Y76.999 E18.85016
G1 X34.577 Y76.968 E18.86875
G1 X35.195 Y76.955 E18.8893
G1 X192.483 Y76.955 E24.12072
G1 X192.635 Y76.956 E24.12578
G1 X193.334 Y76.966 E24.14903
G1 X194.253 Y77.019 E24.17965
G1 X195.164 Y77.152 E24.21027
G1 X195.709 Y77.271 E24.22882
G1 X197.025 Y77.594 E24.27389
G1 X197.908 Y77.852 E24.30449
G1 X198.766 Y78.185 E24.3351
G1 X199.592 Y78.592 E24.36573
G1 X200.119 Y78.901 E24.38605
G1 X200.362 Y79.053 E24.39558
G1 X200.637 Y79.231 E24.40648
G1 X201.123 Y79.557 E24.42594
G1 X201.677 Y79.938 E24.4483
G1 X202.412 Y80.492 E24.47891
G1 X203.086 Y81.098 E24.50906
G1 X203.23 Y81.239 E24.51576
G1 X203.859 Y81.911 E24.54638
G1 X204.522 Y82.769 E24.58244
G1 X205.068 Y83.564 E24.61452
G1 X205.501 Y84.231 E24.64097
G1 X205.968 Y85.025 E24.67161
G1 X206.365 Y85.855 E24.70221
G1 X206.688 Y86.717 E24.73283
G1 X206.964 Y87.732 E24.76781
G1 X207.173 Y88.685 E24.80026
G1 X207.242 Y89.025 E24.8118
G1 X207.353 Y89.624 E24.83206
G1 X207.481 Y90.535 E24.86266
G1 X207.529 Y91.406 E24.89167
G1 X207.54 Y92.267 E24.92031
G1 X207.539 Y133 E26.2751
G1 X207.529 Y133.698 E26.29831
G1 X207.476 Y134.617 E26.32893
G1 X207.356 Y135.457 E26.35715
G1 X207.164 Y136.481 E26.39181
G1 X206.961 Y137.407 E26.42334
G1 X206.906 Y137.631 E26.43101
G1 X206.648 Y138.514 E26.4616
G1 X206.314 Y139.372 E26.49223
G1 X205.907 Y140.198 E26.52285
G1 X205.621 Y140.688 E26.54172
G1 X205.484 Y140.909 E26.55037
G1 X205.298 Y141.199 E26.56183
G1 X204.937 Y141.74 E26.58346
G1 X204.562 Y142.285 E26.60547
G1 X204.007 Y143.02 E26.6361
G1 X203.479 Y143.614 E26.66253
G1 X203.338 Y143.761 E26.66931
G1 X202.672 Y144.397 E26.69994
G1 X201.75 Y145.119 E26.73889
G1 X201.225 Y145.485 E26.76017
G1 X200.948 Y145.671 E26.77127
G1 X200.274 Y146.11 E26.79802
G1 X199.482 Y146.579 E26.82864
G1 X198.651 Y146.977 E26.85928
G1 X197.79 Y147.301 E26.88988
G1 X196.878 Y147.555 E26.92137
G1 X195.59 Y147.853 E26.96534
G1 X194.685 Y148.022 E26.99596
G1 X193.618 Y148.118 E27.03159
G1 X193.288 Y148.131 E27.04258
G1 X192.899 Y148.139 E27.05552
G1 X186.822 Y148.155 E27.25764
G1 X170.361 Y148.154 E27.80513
G1 X168.665 Y148.129 E27.86155
G1 X167.644 Y148.1 E27.89552
G1 X166.337 Y148.091 E27.93899
G1 X35.572 Y148.091 E32.28826
G1 X35.405 Y148.09 E32.29381
G1 X34.707 Y148.079 E32.31703
G0 F6000 X34.701 Y148.479
G1 F1200 X33.764 Y148.424 E32.34825
G1 X32.836 Y148.29 E32.37943
G1 X31.923 Y148.077 E32.41061
G1 X31.031 Y147.787 E32.44181
G1 X30.167 Y147.422 E32.47301
G1 X29.337 Y146.985 E32.50421
G1 X28.548 Y146.479 E32.53538
G1 X27.804 Y145.907 E32.56659
G1 X27.112 Y145.274 E32.59779
G1 X26.476 Y144.585 E32.62897
G1 X25.901 Y143.843 E32.6602
G1 X25.392 Y143.056 E32.69137
G1 X24.951 Y142.228 E32.72257
G1 X24.583 Y141.366 E32.75374
G1 X24.29 Y140.475 E32.78494
G1 X24.073 Y139.562 E32.81615
G1 X23.935 Y138.635 E32.84732
G1 X23.878 Y137.779 E32.87586
G1 X23.865 Y137.149 E32.89682
G1 X23.866 Y88.109 E34.52789
G1 X23.875 Y87.42 E34.55081
G1 X23.927 Y86.484 E34.58199
G1 X24.059 Y85.555 E34.6132
G1 X24.269 Y84.641 E34.64439
G1 X24.557 Y83.749 E34.67557
G1 X24.919 Y82.884 E34.70676
G1 X25.354 Y82.053 E34.73795
G1 X25.858 Y81.262 E34.76915
G1 X26.428 Y80.517 E34.80035
G1 X27.059 Y79.823 E34.83155
G1 X27.747 Y79.185 E34.86275
G1 X28.486 Y78.609 E34.89392
G1 X29.272 Y78.097 E34.92512
G1 X30.099 Y77.654 E34.95632
G1 X30.961 Y77.284 E34.98752
G1 X31.851 Y76.988 E35.01872
G1 X32.763 Y76.769 E35.04991
G1 X33.69 Y76.628 E35.0811
G1 X34.566 Y76.568 E35.1103
G1 X35.195 Y76.555 E35.13123
G1 X192.483 Y76.555 E40.36265
G1 X192.64 Y76.556 E40.36787
G1 X193.339 Y76.566 E40.39112
G1 X194.276 Y76.62 E40.42234
G1 X195.204 Y76.752 E40.45351
G1 X195.804 Y76.882 E40.47393
G1 X197.12 Y77.205 E40.519
G1 X198.021 Y77.467 E40.55021
G1 X198.895 Y77.805 E40.58138
G1 X199.738 Y78.216 E40.61257
G1 X200.331 Y78.562 E40.63541
G1 X200.574 Y78.714 E40.64494
G1 X200.86 Y78.899 E40.65627
G1 X201.349 Y79.227 E40.67585
G1 X201.903 Y79.608 E40.69822
G1 X202.653 Y80.172 E40.72943
G1 X203.366 Y80.812 E40.76129
G1 X203.51 Y80.953 E40.768
G1 X204.151 Y81.638 E40.7992
G1 X204.851 Y82.541 E40.8372
G1 X205.214 Y83.064 E40.85837
G1 X205.403 Y83.346 E40.86967
G1 X205.836 Y84.013 E40.89611
G1 X206.313 Y84.821 E40.92732
G1 X206.719 Y85.667 E40.95853
G1 X207.052 Y86.543 E40.9897
G1 X207.355 Y87.647 E41.02778
G1 X207.564 Y88.6 E41.06023
G1 X207.635 Y88.952 E41.07217
G1 X207.746 Y89.551 E41.09244
G1 X207.877 Y90.479 E41.12361
G1 X207.929 Y91.401 E41.15432
G1 X207.94 Y92.267 E41.18313
G1 X207.939 Y133.006 E42.53811
G1 X207.929 Y133.704 E42.56133
G1 X207.875 Y134.64 E42.59251
G1 X207.75 Y135.53 E42.62241
G1 X207.618 Y136.25 E42.64675
G1 X207.555 Y136.565 E42.65744
G1 X207.35 Y137.502 E42.68934
G1 X207.295 Y137.726 E42.69701
G1 X207.032 Y138.626 E42.7282
G1 X206.694 Y139.501 E42.75939
G1 X206.283 Y140.344 E42.79059
G1 X205.961 Y140.899 E42.81193
G1 X205.824 Y141.12 E42.82058
G1 X205.631 Y141.421 E42.83247
G1 X205.266 Y141.966 E42.85429
G1 X204.891 Y142.511 E42.87629
G1 X204.327 Y143.261 E42.9075
G1 X203.767 Y143.89 E42.93551
G1 X203.626 Y144.037 E42.94229
G1 X202.949 Y144.686 E42.97348
G1 X201.979 Y145.447 E43.01448
G1 X201.454 Y145.813 E43.03577
G1 X201.167 Y146.006 E43.04727
G1 X200.493 Y146.445 E43.07403
G1 X199.686 Y146.923 E43.10522
G1 X198.841 Y147.331 E43.13643
G1 X197.964 Y147.665 E43.16764
G1 X196.969 Y147.945 E43.20202
G1 X195.681 Y148.243 E43.24599
G1 X194.759 Y148.415 E43.27719
G1 X193.634 Y148.517 E43.31476
G1 X193.304 Y148.53 E43.32575
G1 X192.9 Y148.539 E43.33919
G1 X186.823 Y148.555 E43.54131
G1 X170.356 Y148.554 E44.089
G1 X168.654 Y148.529 E44.14562
G1 X167.631 Y148.5 E44.17966
G1 X166.334 Y148.491 E44.2228
G1 X35.572 Y148.491 E48.57196
G1 X35.399 Y148.49 E48.57771
G1 X34.701 Y148.479 E48.60093
G1 F1500 E42.10093
G1 F300 Z0.4
;MESH:Object 3
G0 F6000 X77.575 Y129.054 Z0.4
;TYPE:WALL-INNER
G1 F300 Z0.2
G1 F1500 E48.60093
G1 F1200 X87.168 Y112.442 E49.23896
G1 X77.724 Y96.085 E49.86716
G1 X77.305 Y96.074 E49.8811
G1 X58.533 Y96.074 E50.50546
G1 X49.252 Y112.316 E51.12765
G1 X49.117 Y112.663 E51.14003
G1 X58.667 Y129.036 E51.77046
G1 X60.179 Y129.054 E51.82076
G1 X77.575 Y129.054 E52.39935
G0 F6000 X77.344 Y128.654
;TYPE:WALL-OUTER
G1 F1200 X86.706 Y112.442 E53.02201
G1 X77.49 Y96.479 E53.63508
G1 X77.3 Y96.474 E53.6414
G1 X58.765 Y96.474 E54.25787
G1 X49.614 Y112.489 E54.87136
G1 X49.56 Y112.628 E54.87632
G1 X58.898 Y128.639 E55.4928
G1 X60.181 Y128.654 E55.53548
G1 X77.344 Y128.654 E56.10632
G1 F1500 E49.60632
G1 F300 Z0.4
G0 F6000 X177.734 Y98.019 Z0.4
;TYPE:WALL-INNER
G1 F300 Z0.2
G1 F1500 E56.10632
G1 F1200 X178.466 Y98.232 E56.13168
G1 X179.19 Y98.426 E56.15661
G1 X180.616 Y98.044 E56.20571
G1 X180.932 Y97.729 E56.22055
G1 X181.108 Y97.554 E56.2288
G1 X181.644 Y97.022 E56.25392
G1 X181.837 Y96.391 E56.27587
G1 X181.93 Y96.044 E56.28782
G1 X182.055 Y95.579 E56.30383
G1 X181.89 Y94.913 E56.32665
G1 X181.679 Y94.128 E56.35369
G1 X180.642 Y93.084 E56.40263
G1 X179.892 Y92.871 E56.42856
G1 X179.235 Y92.698 E56.45116
G1 X178.848 Y92.774 E56.46428
G1 X177.755 Y93.07 E56.50194
G1 X176.733 Y94.09 E56.54996
G1 X176.497 Y94.891 E56.57774
G1 X176.319 Y95.555 E56.6006
G1 X176.669 Y96.859 E56.64551
G1 X176.767 Y97.053 E56.65274
G1 X177.734 Y98.019 E56.6982
G0 F6000 X177.944 Y97.664
;TYPE:WALL-OUTER
G1 F1200 X178.574 Y97.847 E56.72002
G1 X179.19 Y98.012 E56.74123
G1 X180.41 Y97.685 E56.78324
G1 X181.291 Y96.809 E56.82456
G1 X181.452 Y96.281 E56.84292
G1 X181.642 Y95.575 E56.86724
G1 X181.503 Y95.013 E56.88649
G1 X181.32 Y94.335 E56.90985
G1 X180.432 Y93.44 E56.95178
G1 X179.786 Y93.257 E56.97411
G1 X179.222 Y93.108 E56.99352
G1 X178.939 Y93.164 E57.00311
G1 X177.962 Y93.428 E57.03677
G1 X177.088 Y94.301 E57.07786
G1 X176.882 Y94.999 E57.10206
G1 X176.733 Y95.555 E57.12121
G1 X177.044 Y96.715 E57.16115
G1 X177.095 Y96.815 E57.16489
G1 X177.944 Y97.664 E57.20482
G0 F6000 X177.721 Y98.042
G1 F1500 E50.70482
G1 F300 Z0.4
G0 F6000 X177.755 Y105.791 Z0.4
;TYPE:WALL-INNER
G1 F300 Z0.2
G1 F1500 E57.20482
G1 F1200 X179.136 Y106.161 E57.25237
G1 X179.893 Y105.989 E57.27819
G1 X180.615 Y105.795 E57.30306
G1 X181.66 Y104.757 E57.35205
G1 X181.842 Y104.121 E57.37405
G1 X182.055 Y103.323 E57.40152
G1 X181.989 Y103.063 E57.41044
G1 X181.97 Y102.986 E57.41308
G1 X181.843 Y102.491 E57.43008
G1 X181.722 Y102.039 E57.44564
G1 X181.967 Y102.407 E57.44821
G1 X182.298 Y102.902 E57.46095
G1 X182.364 Y102.946 E57.4634
G1 X183.862 Y103.964 E57.52364
G1 X185.61 Y104.309 E57.5829
G1 X185.789 Y104.308 E57.58885
G1 X187.516 Y103.964 E57.64742
G1 X189.035 Y102.947 E57.70822
G1 X189.599 Y102.128 E57.74129
G1 X190.099 Y101.381 E57.77119
G1 X190.393 Y99.9 E57.82141
G1 X190.445 Y99.588 E57.83193
G1 X190.435 Y99.414 E57.83773
G1 X190.109 Y97.775 E57.89331
G1 X189.759 Y97.217 E57.91522
G1 X189.101 Y96.235 E57.95453
G1 X188.959 Y96.109 E57.96085
G1 X187.516 Y95.146 E58.01855
G1 X185.69 Y94.783 E58.08047
G1 X183.864 Y95.146 E58.14239
G1 X182.315 Y96.181 E58.20435
G1 X182.27 Y96.248 E58.20704
G1 X182.071 Y96.547 E58.21724
G1 X181.721 Y97.072 E58.22687
G1 X181.283 Y97.729 E58.23839
G1 X181.235 Y97.973 E58.24515
G1 X180.922 Y99.537 E58.2982
G1 X181.144 Y100.694 E58.33739
G1 X181.173 Y100.834 E58.34214
G1 X181.271 Y101.322 E58.3587
G1 X181.357 Y101.493 E58.36506
G1 X181.473 Y101.666 E58.37199
G1 X181.329 Y101.522 E58.37228
G1 X181.201 Y101.393 E58.37364
G1 X180.85 Y101.041 E58.38422
G1 X180.645 Y100.836 E58.39386
G1 X179.887 Y100.621 E58.42007
G1 X179.253 Y100.451 E58.4419
G1 X178.886 Y100.514 E58.45429
G1 X177.756 Y100.817 E58.4932
G1 X176.739 Y101.833 E58.54101
G1 X176.5 Y102.631 E58.56872
G1 X176.319 Y103.305 E58.59193
G1 X176.704 Y104.74 E58.64134
G1 X177.755 Y105.791 E58.69078
G0 F6000 X177.962 Y105.432
;TYPE:WALL-OUTER
G1 F1200 X179.144 Y105.749 E58.73148
G1 X179.797 Y105.601 E58.75375
G1 X180.408 Y105.436 E58.7748
G1 X181.304 Y104.546 E58.81681
G1 X181.457 Y104.014 E58.83522
G1 X181.642 Y103.321 E58.85908
G1 X181.456 Y102.592 E58.8841
G1 X181.333 Y102.133 E58.8999
G1 X181.281 Y102.04 E58.90345
G1 X180.436 Y101.192 E58.94326
G1 X179.781 Y101.007 E58.9659
G1 X179.234 Y100.86 E58.98474
G1 X178.972 Y100.905 E58.99358
G1 X177.963 Y101.176 E59.02833
G1 X177.093 Y102.045 E59.06923
G1 X176.885 Y102.74 E59.09336
G1 X176.733 Y103.305 E59.11282
G1 X177.063 Y104.533 E59.15511
G1 X177.962 Y105.432 E59.1974
G0 F6000 X177.742 Y105.813
G1 F1500 E52.6974
G1 F300 Z0.4
G0 F6000 X184.019 Y103.587 Z0.4
G1 F300 Z0.2
G1 F1500 E59.1974
G1 F1200 X185.647 Y103.909 E59.25259
G1 X185.748 Y103.908 E59.25595
G1 X187.36 Y103.587 E59.31062
G1 X188.749 Y102.657 E59.36622
G1 X189.268 Y101.903 E59.39666
G1 X189.722 Y101.225 E59.4238
G1 X189.999 Y99.828 E59.47117
G1 X190.043 Y99.566 E59.48001
G1 X190.037 Y99.465 E59.48337
G1 X189.731 Y97.925 E59.5356
G1 X189.423 Y97.435 E59.55484
G1 X188.797 Y96.5 E59.59227
G1 X188.714 Y96.426 E59.59597
G1 X187.36 Y95.523 E59.6501
