;FLAVOR:Marlin
;TIME:5742
;Filament used: 5.06218m
;Layer height: 0.2
;MINX:28.631
;MINY:42.68
;MINZ:0.2
;MAXX:163.78
;MAXY:171.438
;MAXZ:13.8
;Generated with Cura_SteamEngine 4.6.1
M140 S70
M105
M190 S70
M104 S200
M105
M109 S200
M82 ;absolute extrusion mode
; Ender 3 Custom Start G-code
G92 E0 ; Reset Extruder
G28 ; Home all axes
G1 Z2.0 F3000 ; Move Z Axis up little to prevent scratching of Heat Bed
G1 X0.1 Y20 Z0.3 F5000.0 ; Move to start position
G1 X0.1 Y200.0 Z0.3 F1500.0 E15 ; Draw the first line
G1 X0.4 Y200.0 Z0.3 F5000.0 ; Move to side a little
G1 X0.4 Y20 Z0.3 F1500.0 E30 ; Draw the second line
G92 E0 ; Reset Extruder
G1 Z2.0 F3000 ; Move Z Axis up little to prevent scratching of Heat Bed
G1 X5 Y20 Z0.3 F5000.0 ; Move over to prevent blob squish
G92 E0
G92 E0
G1 F2700 E-5
;LAYER_COUNT:69
;LAYER:0
M107
G0 F6000 X142.739 Y43.61 Z0.2
;TYPE:SKIRT
G1 F2700 E0
G1 F1200 X143.876 Y43.764 E0.03816
G1 X144.75 Y43.934 E0.06778
G1 X145.229 Y44.036 E0.08407
G1 X145.923 Y44.193 E0.10773
G1 X147.045 Y44.516 E0.14656
G1 X148.244 Y44.939 E0.18885
G1 X148.98 Y45.218 E0.21503
G1 X150.097 Y45.721 E0.25578
G1 X151.298 Y46.354 E0.30093
G1 X151.913 Y46.697 E0.32435
G1 X152.93 Y47.345 E0.36446
G1 X154.055 Y48.165 E0.41076
G1 X154.577 Y48.563 E0.43259
G1 X155.456 Y49.315 E0.47107
G1 X156.149 Y49.982 E0.50306
G1 X156.502 Y50.333 E0.51962
G1 X156.945 Y50.786 E0.54069
G1 X157.715 Y51.67 E0.57968
G1 X158.47 Y52.648 E0.62078
G1 X158.931 Y53.27 E0.64653
G1 X159.607 Y54.31 E0.68778
G1 X160.205 Y55.369 E0.72823
G1 X160.601 Y56.106 E0.75606
G1 X161.107 Y57.198 E0.79609
G1 X161.459 Y58.095 E0.82814
G1 X161.645 Y58.594 E0.84585
G1 X161.859 Y59.194 E0.86704
G1 X162.183 Y60.295 E0.90521
G1 X162.39 Y61.181 E0.93547
G1 X162.498 Y61.679 E0.95242
G1 X162.632 Y62.335 E0.97469
G1 X162.799 Y63.48 E1.01318
G1 X162.91 Y64.852 E1.05896
G1 X162.953 Y65.59 E1.08355
G1 X162.975 Y66.244 E1.10531
G1 X162.979 Y66.518 E1.11443
G1 X162.98 Y147.226 E3.79878
G1 X162.979 Y147.371 E3.80361
G1 X162.961 Y148.348 E3.83611
G1 X162.929 Y149.01 E3.85815
G1 X162.862 Y149.923 E3.8886
G1 X162.806 Y150.572 E3.91027
G1 X162.634 Y151.754 E3.94999
G1 X162.346 Y153.134 E3.99688
G1 X162.19 Y153.798 E4.01957
G1 X161.869 Y154.886 E4.0573
G1 X161.561 Y155.748 E4.08774
G1 X161.386 Y156.211 E4.1042
G1 X161.127 Y156.871 E4.12779
G1 X160.63 Y157.948 E4.16724
G1 X159.992 Y159.137 E4.21212
G1 X159.648 Y159.744 E4.23532
G1 X158.987 Y160.763 E4.27572
G1 X158.179 Y161.855 E4.3209
G1 X157.739 Y162.421 E4.34475
G1 X156.984 Y163.287 E4.38296
G1 X156.373 Y163.911 E4.41201
G1 X156.006 Y164.274 E4.42917
G1 X155.523 Y164.74 E4.4515
G1 X154.634 Y165.504 E4.49048
G1 X153.627 Y166.269 E4.53255
G1 X152.965 Y166.749 E4.55974
G1 X151.918 Y167.415 E4.60101
G1 X150.739 Y168.064 E4.64578
G1 X150.121 Y168.386 E4.66895
G1 X149.023 Y168.878 E4.70897
G1 X147.733 Y169.363 E4.75481
G1 X147.1 Y169.584 E4.77711
G1 X145.993 Y169.902 E4.81542
G1 X144.751 Y170.179 E4.85774
G1 X143.961 Y170.336 E4.88453
G1 X142.755 Y170.502 E4.92502
G1 X141.41 Y170.602 E4.96988
G1 X140.66 Y170.639 E4.99486
G1 X139.509 Y170.63 E5.03314
G1 X138.606 Y170.571 E5.06324
G1 X138.09 Y170.529 E5.08046
G1 X137.428 Y170.467 E5.10257
G1 X136.233 Y170.283 E5.14279
G1 X134.958 Y170.005 E5.18619
G1 X134.225 Y169.828 E5.21127
G1 X133.071 Y169.476 E5.2514
G1 X131.813 Y169.006 E5.29606
G1 X131.15 Y168.74 E5.31982
G1 X130.11 Y168.253 E5.35802
G1 X128.877 Y167.577 E5.40479
G1 X128.279 Y167.232 E5.42775
G1 X127.295 Y166.586 E5.4669
G1 X126.592 Y166.063 E5.49604
G1 X126.144 Y165.718 E5.51485
G1 X125.641 Y165.321 E5.53616
G1 X124.774 Y164.553 E5.57469
G1 X123.887 Y163.673 E5.61624
G1 X121.998 Y161.85 E5.70356
G1 X120.118 Y160.136 E5.78817
G1 X118.196 Y158.481 E5.87253
G1 X116.215 Y156.87 E5.95746
G1 X114.211 Y155.334 E6.04144
G1 X112.167 Y153.856 E6.12533
G1 X110.052 Y152.416 E6.21043
G1 X107.918 Y151.05 E6.29471
G1 X105.745 Y149.743 E6.37905
G1 X103.518 Y148.489 E6.46405
G1 X101.272 Y147.307 E6.54847
G1 X99.009 Y146.195 E6.63233
G1 X96.676 Y145.131 E6.71762
G1 X94.369 Y144.156 E6.80092
G1 X91.978 Y143.225 E6.88626
G1 X89.56 Y142.36 E6.97167
G1 X87.206 Y141.594 E7.05401
G1 X84.714 Y140.859 E7.14042
G1 X82.284 Y140.217 E7.22402
G1 X79.786 Y139.63 E7.30937
G1 X77.313 Y139.127 E7.3933
G1 X74.812 Y138.688 E7.47776
G1 X72.93 Y138.406 E7.54105
G1 X70.411 Y138.085 E7.62551
G1 X68.535 Y137.893 E7.68823
G1 X66.927 Y137.744 E7.74195
G1 X64.29 Y137.537 E7.82992
G1 X62.753 Y137.452 E7.88112
G1 X57.672 Y137.205 E8.05032
G1 X56.983 Y137.158 E8.07328
G1 X56.408 Y137.103 E8.0925
G1 X56.081 Y137.062 E8.10346
G1 X55.763 Y137.017 E8.11414
G1 X54.268 Y136.78 E8.16448
G1 X53.666 Y136.676 E8.1848
G1 X52.785 Y136.484 E8.21479
G1 X51.722 Y136.2 E8.25139
G1 X50.832 Y135.949 E8.28215
G1 X50.23 Y135.771 E8.30303
G1 X49.375 Y135.477 E8.3331
G1 X48.383 Y135.083 E8.3686
G1 X47.507 Y134.72 E8.40014
G1 X46.917 Y134.466 E8.4215
G1 X46.108 Y134.074 E8.4514
G1 X45.075 Y133.516 E8.49045
G1 X44.327 Y133.097 E8.51897
G1 X43.783 Y132.783 E8.53986
G1 X43.013 Y132.292 E8.57023
G1 X42.144 Y131.679 E8.6056
G1 X41.408 Y131.143 E8.63589
G1 X40.842 Y130.719 E8.65941
G1 X40.162 Y130.164 E8.6886
G1 X39.381 Y129.464 E8.72348
G1 X38.685 Y128.819 E8.75505
G1 X38.2 Y128.358 E8.7773
G1 X37.581 Y127.716 E8.80696
G1 X36.884 Y126.924 E8.84205
G1 X36.28 Y126.216 E8.87301
G1 X35.851 Y125.7 E8.89532
G1 X35.309 Y124.987 E8.92511
G1 X34.699 Y124.104 E8.96081
G1 X34.189 Y123.339 E8.99139
G1 X33.819 Y122.768 E9.01402
G1 X33.366 Y121.997 E9.04376
G1 X32.861 Y121.041 E9.07972
G1 X32.444 Y120.218 E9.11041
G1 X32.146 Y119.611 E9.1329
G1 X31.795 Y118.811 E9.16195
G1 X31.417 Y117.835 E9.19677
G1 X31.076 Y116.905 E9.22971
G1 X30.863 Y116.301 E9.25101
G1 X30.604 Y115.452 E9.28054
G1 X30.348 Y114.453 E9.31484
G1 X30.138 Y113.576 E9.34483
G1 X29.979 Y112.879 E9.36861
G1 X29.813 Y111.956 E9.3998
G1 X29.686 Y110.988 E9.43227
G1 X29.568 Y109.983 E9.46593
G1 X29.501 Y109.339 E9.48746
G1 X29.447 Y108.454 E9.51695
G1 X29.431 Y107.386 E9.55248
G1 X29.432 Y106.446 E9.58374
G1 X29.441 Y105.78 E9.6059
G1 X29.493 Y104.879 E9.63591
G1 X29.598 Y103.871 E9.66962
G1 X29.715 Y102.886 E9.70261
G1 X29.804 Y102.221 E9.72493
G1 X29.957 Y101.359 E9.75405
G1 X30.182 Y100.358 E9.78817
G1 X30.412 Y99.405 E9.82078
G1 X30.582 Y98.742 E9.84354
G1 X30.836 Y97.903 E9.8727
G1 X31.165 Y96.966 E9.90573
G1 X31.517 Y96.014 E9.93949
G1 X31.752 Y95.405 E9.9612
G1 X32.104 Y94.597 E9.99051
G1 X32.572 Y93.644 E10.02582
G1 X33.023 Y92.76 E10.05883
G1 X33.317 Y92.204 E10.07975
G1 X33.758 Y91.45 E10.1088
G1 X34.303 Y90.606 E10.14222
G1 X34.872 Y89.755 E10.17627
G1 X35.241 Y89.22 E10.19788
G1 X35.775 Y88.513 E10.22735
G1 X36.462 Y87.685 E10.26314
G1 X37.01 Y87.046 E10.29113
G1 X37.507 Y86.479 E10.31621
G1 X38.142 Y85.816 E10.34675
G1 X38.86 Y85.134 E10.37968
G1 X39.567 Y84.481 E10.41169
G1 X40.093 Y84.009 E10.4352
G1 X40.771 Y83.452 E10.46438
G1 X41.556 Y82.862 E10.49704
G1 X42.359 Y82.281 E10.53001
G1 X42.92 Y81.885 E10.55285
G1 X43.675 Y81.4 E10.5827
G1 X44.585 Y80.873 E10.61767
G1 X45.382 Y80.428 E10.64803
G1 X46.01 Y80.088 E10.67178
G1 X46.814 Y79.698 E10.70151
G1 X47.713 Y79.31 E10.73407
G1 X48.672 Y78.913 E10.76859
G1 X49.26 Y78.679 E10.78964
G1 X50.111 Y78.383 E10.81961
G1 X51.071 Y78.098 E10.85292
G1 X52.022 Y77.83 E10.88578
G1 X52.677 Y77.656 E10.90832
G1 X53.52 Y77.47 E10.93703
G1 X54.543 Y77.291 E10.97158
G1 X55.529 Y77.136 E11.00477
G1 X56.21 Y77.038 E11.02766
G1 X56.962 Y76.958 E11.05281
G1 X57.717 Y76.908 E11.07798
G1 X60.513 Y76.768 E11.17109
G1 X62.324 Y76.689 E11.23138
G1 X64.982 Y76.536 E11.31993
G1 X66.869 Y76.38 E11.38291
G1 X68.528 Y76.225 E11.43833
G1 X71.174 Y75.941 E11.52684
G1 X72.956 Y75.706 E11.58662
G1 X75.438 Y75.324 E11.67014
G1 X77.976 Y74.86 E11.75596
G1 X80.418 Y74.342 E11.83899
G1 X82.949 Y73.73 E11.92559
G1 X85.364 Y73.074 E12.00883
G1 X87.804 Y72.335 E12.09362
G1 X90.207 Y71.532 E12.17789
G1 X92.583 Y70.664 E12.26202
G1 X94.964 Y69.716 E12.34726
G1 X97.277 Y68.718 E12.43105
G1 X99.59 Y67.642 E12.5159
G1 X101.859 Y66.508 E12.60026
G1 X104.106 Y65.304 E12.68505
G1 X106.308 Y64.043 E12.76945
G1 X108.469 Y62.722 E12.85369
G1 X110.597 Y61.337 E12.93814
G1 X112.684 Y59.893 E13.02255
G1 X114.753 Y58.375 E13.1079
G1 X116.719 Y56.844 E13.19078
G1 X118.705 Y55.204 E13.27644
G1 X120.612 Y53.537 E13.36069
G1 X122.505 Y51.787 E13.44643
G1 X123.92 Y50.41 E13.5121
G1 X124.731 Y49.604 E13.55013
G1 X125.6 Y48.833 E13.58877
G1 X126.595 Y48.052 E13.63084
G1 X127.238 Y47.571 E13.65755
G1 X128.263 Y46.897 E13.69835
G1 X129.451 Y46.217 E13.74388
G1 X130.046 Y45.895 E13.76638
G1 X131.114 Y45.395 E13.8056
G1 X132.357 Y44.902 E13.85008
G1 X133.068 Y44.64 E13.87528
G1 X134.213 Y44.293 E13.91507
G1 X135.543 Y43.977 E13.96054
G1 X136.214 Y43.834 E13.98336
G1 X137.379 Y43.655 E14.02256
G1 X138.797 Y43.531 E14.0699
G1 X139.47 Y43.487 E14.09233
G1 X140.673 Y43.479 E14.13235
G1 X141.753 Y43.536 E14.16832
G1 X142.739 Y43.61 E14.20121
G0 F6000 X142.771 Y43.212
G1 F1200 X143.952 Y43.372 E14.24084
G1 X144.832 Y43.543 E14.27066
G1 X145.317 Y43.646 E14.28715
G1 X146.011 Y43.803 E14.31082
G1 X147.177 Y44.138 E14.35117
G1 X148.385 Y44.565 E14.39378
G1 X149.121 Y44.844 E14.41996
G1 X150.282 Y45.366 E14.4623
G1 X151.493 Y46.004 E14.50783
G1 X152.108 Y46.347 E14.53125
G1 X153.165 Y47.022 E14.57296
G1 X154.298 Y47.847 E14.61958
G1 X154.82 Y48.245 E14.64141
G1 X155.733 Y49.027 E14.68139
G1 X156.43 Y49.698 E14.71357
G1 X156.788 Y50.054 E14.73036
G1 X157.231 Y50.507 E14.75144
G1 X158.031 Y51.425 E14.79194
G1 X158.791 Y52.41 E14.83332
G1 X159.252 Y53.032 E14.85907
G1 X159.955 Y54.113 E14.90195
G1 X160.557 Y55.18 E14.9427
G1 X160.953 Y55.917 E14.97053
G1 X161.479 Y57.052 E15.01214
G1 X161.833 Y57.954 E15.04436
G1 X162.022 Y58.46 E15.06233
G1 X162.236 Y59.06 E15.08352
G1 X162.573 Y60.204 E15.12318
G1 X162.89 Y61.599 E15.17076
G1 X163.024 Y62.255 E15.19303
G1 X163.197 Y63.445 E15.23303
G1 X163.309 Y64.828 E15.27918
G1 X163.352 Y65.566 E15.30377
G1 X163.366 Y65.898 E15.31482
G1 X163.379 Y66.518 E15.33544
G1 X163.38 Y147.226 E18.0198
G1 X163.379 Y147.376 E18.02479
G1 X163.361 Y148.365 E18.05769
G1 X163.347 Y148.707 E18.06908
G1 X163.328 Y149.039 E18.08014
G1 X163.261 Y149.957 E18.11075
G1 X163.205 Y150.606 E18.13242
G1 X163.026 Y151.835 E18.17372
G1 X162.735 Y153.225 E18.22096
G1 X162.579 Y153.889 E18.24364
G1 X162.246 Y155.02 E18.28286
G1 X161.758 Y156.357 E18.3302
G1 X161.499 Y157.017 E18.35378
G1 X160.983 Y158.136 E18.39476
G1 X160.34 Y159.334 E18.43998
G1 X159.996 Y159.941 E18.46319
G1 X159.31 Y161 E18.50516
G1 X158.495 Y162.101 E18.55072
G1 X158.055 Y162.667 E18.57456
G1 X157.27 Y163.567 E18.61428
G1 X156.655 Y164.195 E18.64352
G1 X156.284 Y164.561 E18.66085
G1 X155.801 Y165.027 E18.68317
G1 X154.876 Y165.822 E18.72374
G1 X153.862 Y166.593 E18.76611
G1 X153.2 Y167.073 E18.79331
G1 X152.112 Y167.765 E18.83619
G1 X150.924 Y168.419 E18.8813
G1 X150.306 Y168.741 E18.90447
G1 X149.164 Y169.252 E18.94609
G1 X147.865 Y169.741 E18.99225
G1 X147.232 Y169.962 E19.01455
G1 X146.081 Y170.292 E19.05438
G1 X144.829 Y170.572 E19.09705
G1 X144.039 Y170.729 E19.12384
G1 X142.786 Y170.901 E19.1659
G1 X141.429 Y171.001 E19.21116
G1 X140.679 Y171.038 E19.23613
G1 X139.484 Y171.03 E19.27588
G1 X138.574 Y170.97 E19.30621
G1 X138.053 Y170.927 E19.3236
G1 X137.391 Y170.865 E19.34571
G1 X136.149 Y170.674 E19.38751
G1 X134.864 Y170.394 E19.43125
G1 X134.131 Y170.217 E19.45633
G1 X132.932 Y169.851 E19.49803
G1 X131.664 Y169.377 E19.54305
G1 X131.001 Y169.111 E19.56681
G1 X129.92 Y168.605 E19.60651
G1 X128.677 Y167.924 E19.65365
G1 X128.079 Y167.579 E19.67661
G1 X127.056 Y166.907 E19.71732
G1 X126.349 Y166.38 E19.74665
G1 X125.896 Y166.032 E19.76565
G1 X125.393 Y165.635 E19.78696
G1 X124.493 Y164.837 E19.82697
G1 X123.611 Y163.962 E19.86829
G1 X121.732 Y162.149 E19.95514
G1 X119.853 Y160.435 E20.03973
G1 X117.945 Y158.793 E20.12345
G1 X115.969 Y157.186 E20.20816
G1 X113.973 Y155.656 E20.29181
G1 X111.914 Y154.166 E20.37634
G1 X109.842 Y152.756 E20.4597
G1 X107.708 Y151.39 E20.54398
G1 X105.533 Y150.082 E20.62839
G1 X103.342 Y148.848 E20.71203
G1 X101.088 Y147.662 E20.79674
G1 X98.846 Y146.561 E20.87981
G1 X96.533 Y145.505 E20.96438
G1 X94.174 Y144.509 E21.04955
G1 X91.835 Y143.598 E21.13304
G1 X89.481 Y142.756 E21.21619
G1 X87.042 Y141.962 E21.3015
G1 X84.637 Y141.252 E21.38491
G1 X82.197 Y140.607 E21.46885
G1 X79.688 Y140.019 E21.55456
G1 X77.242 Y139.521 E21.63758
G1 X74.756 Y139.085 E21.72153
G1 X72.87 Y138.802 E21.78496
G1 X70.318 Y138.477 E21.87053
G1 X68.546 Y138.295 E21.92977
G1 X66.927 Y138.145 E21.98385
G1 X64.281 Y137.938 E22.07213
G1 X62.713 Y137.851 E22.12436
G1 X57.645 Y137.604 E22.29312
G1 X56.956 Y137.557 E22.31609
G1 X56.358 Y137.5 E22.33607
G1 X56.031 Y137.459 E22.34703
G1 X55.701 Y137.412 E22.35812
G1 X54.2 Y137.174 E22.40867
G1 X53.598 Y137.07 E22.42898
G1 X52.683 Y136.87 E22.46014
G1 X51.613 Y136.585 E22.49697
G1 X50.718 Y136.333 E22.52789
G1 X50.116 Y136.155 E22.54877
G1 X49.228 Y135.849 E22.58001
G1 X48.23 Y135.453 E22.61572
G1 X47.349 Y135.087 E22.64745
G1 X46.759 Y134.833 E22.66882
G1 X45.918 Y134.426 E22.69989
G1 X44.88 Y133.865 E22.73913
G1 X44.127 Y133.443 E22.76784
G1 X43.583 Y133.129 E22.78874
G1 X42.783 Y132.619 E22.82029
G1 X41.909 Y132.002 E22.85587
G1 X41.168 Y131.464 E22.88633
G1 X40.602 Y131.04 E22.90985
G1 X39.896 Y130.462 E22.9402
G1 X39.109 Y129.757 E22.97534
G1 X38.409 Y129.109 E23.00707
G1 X37.924 Y128.648 E23.02932
G1 X37.281 Y127.981 E23.06014
G1 X36.58 Y127.184 E23.09544
G1 X35.972 Y126.472 E23.12658
G1 X35.543 Y125.956 E23.1489
G1 X34.98 Y125.215 E23.17985
G1 X34.367 Y124.326 E23.21577
G1 X33.853 Y123.556 E23.24656
G1 X33.483 Y122.985 E23.26919
G1 X33.013 Y122.184 E23.30008
G1 X32.505 Y121.223 E23.33623
G1 X32.085 Y120.394 E23.36714
G1 X31.787 Y119.787 E23.38963
G1 X31.422 Y118.956 E23.41982
G1 X31.042 Y117.974 E23.45484
G1 X30.698 Y117.038 E23.48801
G1 X30.485 Y116.434 E23.50931
G1 X30.217 Y115.552 E23.53997
G1 X29.959 Y114.547 E23.57448
G1 X29.748 Y113.665 E23.60465
G1 X29.589 Y112.968 E23.62842
G1 X29.417 Y112.008 E23.66086
G1 X29.288 Y111.035 E23.69351
G1 X29.17 Y110.025 E23.72733
G1 X29.103 Y109.381 E23.74886
G1 X29.047 Y108.461 E23.77952
G1 X29.031 Y107.386 E23.81528
G1 X29.032 Y106.441 E23.84671
G1 X29.041 Y105.775 E23.86886
G1 X29.095 Y104.839 E23.90005
G1 X29.2 Y103.824 E23.93398
G1 X29.319 Y102.833 E23.96718
G1 X29.408 Y102.168 E23.9895
G1 X29.567 Y101.272 E24.01976
G1 X29.793 Y100.264 E24.05412
G1 X30.024 Y99.305 E24.08693
G1 X30.194 Y98.642 E24.1097
G1 X30.458 Y97.77 E24.14
G1 X30.79 Y96.828 E24.17322
G1 X31.144 Y95.87 E24.20719
G1 X31.379 Y95.261 E24.2289
G1 X31.745 Y94.422 E24.25934
G1 X32.215 Y93.462 E24.2949
G1 X32.669 Y92.573 E24.3281
G1 X32.963 Y92.017 E24.34902
G1 X33.422 Y91.233 E24.37923
G1 X33.97 Y90.384 E24.41284
G1 X34.543 Y89.528 E24.4471
G1 X34.912 Y88.993 E24.46872
G1 X35.467 Y88.259 E24.49932
G1 X36.158 Y87.425 E24.53535
G1 X36.709 Y86.782 E24.56351
G1 X37.206 Y86.215 E24.58859
G1 X37.866 Y85.527 E24.6203
G1 X38.588 Y84.841 E24.65342
G1 X39.3 Y84.184 E24.68565
G1 X39.826 Y83.712 E24.70915
G1 X40.53 Y83.132 E24.73949
G1 X41.321 Y82.539 E24.77237
G1 X42.128 Y81.954 E24.80552
G1 X42.689 Y81.558 E24.82836
G1 X43.474 Y81.054 E24.85939
G1 X44.389 Y80.524 E24.89456
G1 X45.191 Y80.076 E24.92511
G1 X45.819 Y79.736 E24.94886
G1 X46.655 Y79.33 E24.97978
G1 X47.56 Y78.94 E25.01255
G1 X48.525 Y78.541 E25.04728
G1 X49.113 Y78.307 E25.06833
G1 X49.996 Y78 E25.09943
G1 X50.962 Y77.713 E25.13294
G1 X51.92 Y77.443 E25.16605
G1 X52.575 Y77.269 E25.18859
G1 X53.45 Y77.076 E25.21839
G1 X54.48 Y76.896 E25.25317
G1 X55.472 Y76.74 E25.28657
G1 X56.153 Y76.642 E25.30945
G1 X56.934 Y76.559 E25.33557
G1 X57.697 Y76.508 E25.36101
G1 X60.495 Y76.368 E25.45419
G1 X62.356 Y76.287 E25.51614
G1 X64.926 Y76.138 E25.60176
G1 X66.895 Y75.976 E25.66747
G1 X68.524 Y75.824 E25.72189
G1 X71.119 Y75.545 E25.8087
G1 X72.841 Y75.318 E25.86647
G1 X75.411 Y74.923 E25.95295
G1 X77.893 Y74.469 E26.03687
G1 X80.321 Y73.954 E26.11942
G1 X82.847 Y73.343 E26.20586
G1 X85.248 Y72.69 E26.28862
G1 X87.666 Y71.958 E26.37265
G1 X90.091 Y71.148 E26.45768
