; G-Code generated by Simplify3D(R) Version 4.0.1
; Edited to remove prime strip.
G90
M82
M106 S0
M140 S60
M190 S60
M104 S210 T0
M109 S210 T0
G28 ; home all axes
G92 E0
G1 Z0.100 F1000
; process Process1
; layer 1, Z = 0.100
T0
; tool H0.100 W0.200
; outer perimeter
G1 X109.800 Y110.600 F4800
G1 E0.0000 F720
G92 E0
G1 X110.200 Y110.600 E0.0033 F540
G1 X110.200 Y117.800 E0.0632
G1 X112.400 Y117.800 E0.0815
G1 X112.400 Y110.600 E0.1414
G1 X112.700 Y110.600 E0.1438
G1 X112.700 Y117.800 E0.2037
G1 X116.900 Y117.800 E0.2386
G1 X116.900 Y110.600 E0.2985
G1 X120.200 Y110.600 E0.3259
G1 X120.200 Y119.400 E0.3991
G1 X109.800 Y119.400 E0.4856
G1 X109.800 Y110.600 E0.5588
; solid layer
G1 X109.920 Y110.769 F4800
G92 E0
G1 X110.080 Y110.929 E0.0019 F540
G1 X110.080 Y111.211 E0.0042
G1 X109.920 Y111.051 E0.0061
G1 X109.920 Y111.334 E0.0085
G1 X110.080 Y111.494 E0.0103
G1 X110.080 Y111.777 E0.0127
G1 X109.920 Y111.617 E0.0146
G1 X109.920 Y111.900 E0.0169
G1 X110.080 Y112.060 E0.0188
G1 X110.080 Y112.343 E0.0212
G1 X109.920 Y112.183 E0.0230
G1 X109.920 Y112.466 E0.0254
G1 X110.080 Y112.626 E0.0273
G1 X110.080 Y112.908 E0.0296
G1 X109.920 Y112.748 E0.0315
G1 X109.920 Y113.031 E0.0339
G1 X110.080 Y113.191 E0.0357
G1 X110.080 Y113.474 E0.0381
G1 X109.920 Y113.314 E0.0400
G1 X109.920 Y113.597 E0.0423
G1 X110.080 Y113.757 E0.0442
G1 X110.080 Y114.040 E0.0466
G1 X109.920 Y113.880 E0.0484
G1 X109.920 Y114.163 E0.0508
G1 X110.080 Y114.323 E0.0527
G1 X110.080 Y114.605 E0.0550
G1 X109.920 Y114.445 E0.0569
G1 X109.920 Y114.728 E0.0593
G1 X110.080 Y114.888 E0.0611
G1 X110.080 Y115.171 E0.0635
G1 X109.920 Y115.011 E0.0654
G1 X109.920 Y115.294 E0.0677
G1 X110.080 Y115.454 E0.0696
G1 X110.080 Y115.737 E0.0720
G1 X109.920 Y115.577 E0.0738
G1 X109.920 Y115.860 E0.0762
G1 X110.080 Y116.020 E0.0781
G1 X110.080 Y116.303 E0.0804
G1 X109.920 Y116.143 E0.0823
G1 X109.920 Y116.425 E0.0847
G1 X110.080 Y116.585 E0.0865
G1 X110.080 Y116.868 E0.0889
G1 X109.920 Y116.708 E0.0908
G1 X109.920 Y116.991 E0.0931
G1 X110.080 Y117.151 E0.0950
G1 X110.080 Y117.434 E0.0974
G1 X109.920 Y117.274 E0.0992
G1 X109.920 Y117.557 E0.1016
G1 X110.080 Y117.717 E0.1035
G1 X110.080 Y117.920 E0.1052
G1 X110.283 Y117.920 E0.1069
G1 X111.643 Y119.280 E0.1229
G1 X111.360 Y119.280 E0.1252
G1 X109.920 Y117.840 E0.1421
G1 X109.920 Y118.122 E0.1445
G1 X111.078 Y119.280 E0.1581
G1 X110.795 Y119.280 E0.1605
G1 X109.920 Y118.405 E0.1707
G1 X109.920 Y118.688 E0.1731
G1 X110.512 Y119.280 E0.1801
G1 X110.229 Y119.280 E0.1824
G1 X109.920 Y118.971 E0.1860
G1 X109.920 Y119.254 E0.1884
G1 X109.946 Y119.280 E0.1887
G1 X110.566 Y117.920 F4800
G92 E0
G1 X111.926 Y119.280 E0.0160 F540
G1 X112.209 Y119.280 E0.0183
G1 X110.849 Y117.920 E0.0343
G1 X111.132 Y117.920 E0.0367
G1 X112.492 Y119.280 E0.0527
G1 X112.775 Y119.280 E0.0550
G1 X111.415 Y117.920 E0.0710
G1 X111.697 Y117.920 E0.0734
G1 X113.057 Y119.280 E0.0894
G1 X113.340 Y119.280 E0.0917
G1 X111.980 Y117.920 E0.1077
G1 X112.263 Y117.920 E0.1101
G1 X113.623 Y119.280 E0.1261
G1 X113.906 Y119.280 E0.1284
G1 X112.520 Y117.894 E0.1447
G1 X112.520 Y110.823 F4800
G92 E0
G1 X112.580 Y110.883 E0.0007 F540
G1 X112.580 Y111.166 E0.0031
G1 X112.520 Y111.106 E0.0038
G1 X112.520 Y111.389 E0.0061
G1 X112.580 Y111.449 E0.0068
G1 X112.580 Y111.731 E0.0092
G1 X112.520 Y111.671 E0.0099
G1 X112.520 Y111.954 E0.0122
G1 X112.580 Y112.014 E0.0129
G1 X112.580 Y112.297 E0.0153
G1 X112.520 Y112.237 E0.0160
G1 X112.520 Y112.520 E0.0183
G1 X112.580 Y112.580 E0.0190
G1 X112.580 Y112.863 E0.0214
G1 X112.520 Y112.803 E0.0221
G1 X112.520 Y113.086 E0.0245
G1 X112.580 Y113.146 E0.0252
G1 X112.580 Y113.429 E0.0275
G1 X112.520 Y113.369 E0.0282
G1 X112.520 Y113.651 E0.0306
G1 X112.580 Y113.711 E0.0313
G1 X112.580 Y113.994 E0.0336
G1 X112.520 Y113.934 E0.0343
G1 X112.520 Y114.217 E0.0367
G1 X112.580 Y114.277 E0.0374
G1 X112.580 Y114.560 E0.0397
G1 X112.520 Y114.500 E0.0405
G1 X112.520 Y114.783 E0.0428
G1 X112.580 Y114.843 E0.0435
G1 X112.580 Y115.126 E0.0459
G1 X112.520 Y115.066 E0.0466
G1 X112.520 Y115.348 E0.0489
G1 X112.580 Y115.408 E0.0496
G1 X112.580 Y115.691 E0.0520
G1 X112.520 Y115.631 E0.0527
G1 X112.520 Y115.914 E0.0550
G1 X112.580 Y115.974 E0.0557
G1 X112.580 Y116.257 E0.0581
G1 X112.520 Y116.197 E0.0588
G1 X112.520 Y116.480 E0.0611
G1 X112.580 Y116.540 E0.0619
G1 X112.580 Y116.823 E0.0642
G1 X112.520 Y116.763 E0.0649
G1 X112.520 Y117.045 E0.0673
G1 X112.580 Y117.105 E0.0680
G1 X112.580 Y117.388 E0.0703
G1 X112.520 Y117.328 E0.0710
G1 X112.520 Y117.611 E0.0734
G1 X112.580 Y117.671 E0.0741
G1 X112.580 Y117.920 E0.0762
G1 X112.829 Y117.920 E0.0782
G1 X114.189 Y119.280 E0.0942
G1 X114.472 Y119.280 E0.0966
G1 X113.112 Y117.920 E0.1126
G1 X113.395 Y117.920 E0.1149
G1 X114.755 Y119.280 E0.1309
G1 X115.037 Y119.280 E0.1333
G1 X113.677 Y117.920 E0.1492
G1 X113.960 Y117.920 E0.1516
G1 X115.320 Y119.280 E0.1676
G1 X115.603 Y119.280 E0.1699
G1 X114.243 Y117.920 E0.1859
G1 X114.526 Y117.920 E0.1883
G1 X115.886 Y119.280 E0.2043
G1 X116.169 Y119.280 E0.2066
G1 X114.809 Y117.920 E0.2226
G1 X115.092 Y117.920 E0.2250
G1 X116.452 Y119.280 E0.2410
G1 X116.734 Y119.280 E0.2433
G1 X115.374 Y117.920 E0.2593
G1 X115.657 Y117.920 E0.2617
G1 X117.017 Y119.280 E0.2777
G1 X117.300 Y119.280 E0.2800
G1 X115.940 Y117.920 E0.2960
G1 X116.223 Y117.920 E0.2984
G1 X117.583 Y119.280 E0.3143
G1 X117.866 Y119.280 E0.3167
G1 X116.506 Y117.920 E0.3327
G1 X116.789 Y117.920 E0.3350
G1 X118.149 Y119.280 E0.3510
G1 X118.431 Y119.280 E0.3534
G1 X117.020 Y117.869 E0.3700
G1 X117.020 Y117.586 E0.3723
G1 X118.714 Y119.280 E0.3923
G1 X118.997 Y119.280 E0.3946
G1 X117.020 Y117.303 E0.4179
G1 X117.020 Y117.020 E0.4202
G1 X119.280 Y119.280 E0.4468
G1 X119.563 Y119.280 E0.4491
G1 X117.020 Y116.737 E0.4790
G1 X117.020 Y116.454 E0.4814
G1 X119.846 Y119.280 E0.5146
G1 X120.080 Y119.280 E0.5166
G1 X120.080 Y119.231 E0.5170
G1 X117.020 Y116.171 E0.5530
G1 X117.020 Y115.889 E0.5553
G1 X120.080 Y118.949 E0.5913
G1 X120.080 Y118.666 E0.5936
G1 X117.020 Y115.606 E0.6296
G1 X117.020 Y115.323 E0.6320
G1 X120.080 Y118.383 E0.6680
G1 X120.080 Y118.100 E0.6703
G1 X117.020 Y115.040 E0.7063
G1 X117.020 Y114.757 E0.7087
G1 X120.080 Y117.817 E0.7446
G1 X120.080 Y117.534 E0.7470
G1 X117.020 Y114.474 E0.7830
G1 X117.020 Y114.192 E0.7853
G1 X120.080 Y117.252 E0.8213
G1 X120.080 Y116.969 E0.8237
G1 X117.020 Y113.909 E0.8596
G1 X117.020 Y113.626 E0.8620
G1 X120.080 Y116.686 E0.8980
G1 X120.080 Y116.403 E0.9003
G1 X117.020 Y113.343 E0.9363
G1 X117.020 Y113.060 E0.9387
G1 X120.080 Y116.120 E0.9746
G1 X120.080 Y115.837 E0.9770
G1 X117.020 Y112.777 E1.0130
G1 X117.020 Y112.494 E1.0153
G1 X120.080 Y115.554 E1.0513
G1 X120.080 Y115.272 E1.0537
G1 X117.020 Y112.212 E1.0897
G1 X117.020 Y111.929 E1.0920
G1 X120.080 Y114.989 E1.1280
G1 X120.080 Y114.706 E1.1303
G1 X117.020 Y111.646 E1.1663
G1 X117.020 Y111.363 E1.1687
G1 X120.080 Y114.423 E1.2047
G1 X120.080 Y114.140 E1.2070
G1 X117.020 Y111.080 E1.2430
G1 X117.020 Y110.797 E1.2453
G1 X120.080 Y113.857 E1.2813
G1 X120.080 Y113.575 E1.2837
G1 X117.225 Y110.720 E1.3172
G1 X117.508 Y110.720 E1.3196
G1 X120.080 Y113.292 E1.3498
G1 X120.080 Y113.009 E1.3522
G1 X117.791 Y110.720 E1.3791
G1 X118.074 Y110.720 E1.3815
G1 X120.080 Y112.726 E1.4051
G1 X120.080 Y112.443 E1.4074
G1 X118.357 Y110.720 E1.4277
G1 X118.640 Y110.720 E1.4300
G1 X120.080 Y112.160 E1.4470
G1 X120.080 Y111.878 E1.4493
G1 X118.922 Y110.720 E1.4629
G1 X119.205 Y110.720 E1.4653
G1 X120.080 Y111.595 E1.4756
G1 X120.080 Y111.312 E1.4779
G1 X119.488 Y110.720 E1.4849
G1 X119.771 Y110.720 E1.4872
G1 X120.080 Y111.029 E1.4909
G1 X120.080 Y110.746 E1.4932
G1 X120.054 Y110.720 E1.4935
G92 E0
G1 E-4.0000 F2400
; layer end
G28 X0 ; home X axis
M106 S0 ; turn off cooling fan
M104 S0 ; turn off extruder
M140 S0 ; turn off bed
M84 ; disable motors
; Build Summary
;   Build time: 0 hours 0 minutes
;   Filament length: 2.4 mm (0.00 m)
;   Plastic volume: 5.74 mm^3 (0.01 cc)
;   Plastic weight: 0.01 g (0.00 lb)
;   Material cost: 0.00
