;FLAVOR:Marlin
;TIME:4554
;Filament used: 3.41462m
;Layer height: 0.2
;MINX:86.512
;MINY:86.512
;MINZ:0.2
;MAXX:133.487
;MAXY:133.487
;MAXZ:37.6
;Generated with Cura_SteamEngine 4.8.0
M140 S50
M105
M190 S50
M104 S205
M105
M109 S205
M82 ;absolute extrusion mode
; Ender 3 Custom Start G-code
G92 E0 ; Reset Extruder
G28 ; Home all axes
G1 Z2.0 F3000 ; Move Z Axis up little to prevent scratching of Heat Bed
G1 X0.1 Y20 Z0.3 F5000.0 ; Move to start position
G1 X0.1 Y200.0 Z0.3 F1500.0 E15 ; Draw the first line
G1 X0.4 Y200.0 Z0.3 F5000.0 ; Move to side a little
G1 X0.4 Y20 Z0.3 F1500.0 E30 ; Draw the second line
G92 E0 ; Reset Extruder
G1 Z2.0 F3000 ; Move Z Axis up little to prevent scratching of Heat Bed
G1 X5 Y20 Z0.3 F5000.0 ; Move over to prevent blob squish
G92 E0
G92 E0
G1 F2700 E-5
;LAYER_COUNT:188
;LAYER:0
M107
G0 F6000 X93.527 Y93.258 Z0.2
;TYPE:SKIRT
G1 F2700 E0
G1 F1200 X93.881 Y92.915 E0.01639
G1 X94.351 Y92.481 E0.03767
G1 X94.772 Y92.113 E0.05627
G1 X95.048 Y91.883 E0.06822
G1 X95.283 Y91.692 E0.07829
G1 X95.608 Y91.436 E0.09205
G1 X95.873 Y91.234 E0.10313
G1 X96.215 Y90.981 E0.11728
G1 X96.496 Y90.78 E0.12877
G1 X96.781 Y90.585 E0.14026
G1 X97.283 Y90.251 E0.16031
G1 X97.756 Y89.953 E0.17891
G1 X98.175 Y89.704 E0.19512
G1 X98.42 Y89.562 E0.20454
G1 X98.62 Y89.45 E0.21216
G1 X98.869 Y89.316 E0.22157
G1 X99.243 Y89.119 E0.23563
G1 X99.512 Y88.981 E0.24568
G1 X99.764 Y88.857 E0.25502
G1 X100.045 Y88.724 E0.26536
G1 X100.539 Y88.498 E0.28343
G1 X101.002 Y88.299 E0.30019
G1 X101.317 Y88.172 E0.31149
G1 X101.657 Y88.041 E0.32361
G1 X102.076 Y87.888 E0.33844
G1 X102.364 Y87.788 E0.34858
G1 X102.852 Y87.625 E0.3657
G1 X103.361 Y87.468 E0.38341
G1 X103.635 Y87.391 E0.39288
G1 X103.972 Y87.302 E0.40447
G1 X104.749 Y87.11 E0.43109
G1 X105.107 Y87.028 E0.44331
G1 X105.442 Y86.957 E0.4547
G1 X105.925 Y86.866 E0.47105
G1 X106.456 Y86.778 E0.48895
G1 X106.958 Y86.707 E0.50581
G1 X107.565 Y86.635 E0.52614
G1 X107.892 Y86.601 E0.53708
G1 X108.343 Y86.564 E0.55213
G1 X108.563 Y86.55 E0.55946
G1 X108.886 Y86.534 E0.57021
G1 X109.364 Y86.52 E0.58612
G1 X109.91 Y86.512 E0.60428
G1 X110.224 Y86.512 E0.61473
G1 X110.511 Y86.516 E0.62427
G1 X110.83 Y86.525 E0.63489
G1 X111.319 Y86.546 E0.65117
G1 X111.788 Y86.576 E0.6668
G1 X112.114 Y86.604 E0.67768
G1 X112.479 Y86.642 E0.68988
G1 X113.031 Y86.708 E0.70837
G1 X113.352 Y86.751 E0.71915
G1 X113.78 Y86.815 E0.73354
G1 X114.152 Y86.876 E0.74608
G1 X114.692 Y86.983 E0.76439
G1 X115.475 Y87.158 E0.79107
G1 X115.791 Y87.233 E0.80188
G1 X116.003 Y87.287 E0.80915
G1 X116.318 Y87.373 E0.82001
G1 X116.755 Y87.501 E0.83516
G1 X117.344 Y87.686 E0.85569
G1 X117.741 Y87.82 E0.86963
G1 X117.842 Y87.856 E0.87319
G1 X118.263 Y88.015 E0.88816
G1 X118.987 Y88.307 E0.91413
G1 X119.404 Y88.486 E0.92922
G1 X120.103 Y88.802 E0.95473
G1 X120.757 Y89.124 E0.97898
G1 X121.163 Y89.341 E0.99429
G1 X121.514 Y89.537 E1.00766
G1 X122.187 Y89.929 E1.03357
G1 X122.441 Y90.081 E1.04341
G1 X122.651 Y90.211 E1.05163
G1 X122.951 Y90.404 E1.06349
G1 X123.368 Y90.685 E1.08022
G1 X123.732 Y90.941 E1.09502
G1 X124.057 Y91.177 E1.10838
G1 X124.342 Y91.394 E1.12029
G1 X124.701 Y91.676 E1.13547
G1 X124.956 Y91.882 E1.14638
G1 X125.274 Y92.152 E1.16025
G1 X125.619 Y92.455 E1.17552
G1 X125.991 Y92.793 E1.19224
G1 X126.255 Y93.043 E1.20433
G1 X126.613 Y93.394 E1.22101
G1 X126.866 Y93.649 E1.23296
G1 X127.069 Y93.864 E1.24279
G1 X127.473 Y94.301 E1.26259
G1 X127.822 Y94.697 E1.28014
G1 X128.135 Y95.07 E1.29634
G1 X128.335 Y95.316 E1.30688
G1 X128.551 Y95.589 E1.31846
G1 X128.73 Y95.82 E1.32818
G1 X128.897 Y96.043 E1.33745
G1 X129.152 Y96.399 E1.35201
G1 X129.288 Y96.597 E1.36
G1 X129.792 Y97.352 E1.39019
G1 X130.013 Y97.707 E1.4041
G1 X130.268 Y98.133 E1.42061
G1 X130.415 Y98.386 E1.43035
G1 X130.54 Y98.608 E1.43882
G1 X130.678 Y98.861 E1.44841
G1 X130.878 Y99.239 E1.46263
G1 X131.022 Y99.52 E1.47313
G1 X131.125 Y99.729 E1.48088
G1 X131.26 Y100.014 E1.49137
G1 X131.498 Y100.534 E1.51039
G1 X131.689 Y100.976 E1.5264
G1 X131.788 Y101.22 E1.53516
G1 X131.902 Y101.514 E1.54565
G1 X132.107 Y102.064 E1.56517
G1 X132.224 Y102.393 E1.57679
G1 X132.347 Y102.758 E1.5896
G1 X132.466 Y103.132 E1.60265
G1 X132.546 Y103.404 E1.61208
G1 X132.681 Y103.888 E1.62879
G1 X132.751 Y104.151 E1.63785
G1 X132.804 Y104.361 E1.64505
G1 X132.875 Y104.661 E1.6553
G1 X132.998 Y105.213 E1.67411
G1 X133.097 Y105.713 E1.69107
G1 X133.2 Y106.303 E1.71099
G1 X133.276 Y106.807 E1.72794
G1 X133.32 Y107.153 E1.73954
G1 X133.358 Y107.495 E1.75098
G1 X133.413 Y108.071 E1.77023
G1 X133.44 Y108.405 E1.78137
G1 X133.462 Y108.744 E1.79267
G1 X133.484 Y109.322 E1.81191
G1 X133.487 Y109.569 E1.82013
G1 X133.487 Y109.882 E1.83054
G1 X133.472 Y110.806 E1.86127
G1 X133.456 Y111.274 E1.87685
G1 X133.421 Y111.806 E1.89458
G1 X133.382 Y112.24 E1.90908
G1 X133.333 Y112.684 E1.92393
G1 X133.289 Y113.001 E1.93458
G1 X133.117 Y114.124 E1.97236
G1 X133.037 Y114.583 E1.98786
G1 X133 Y114.771 E1.99423
G1 X132.828 Y115.51 E2.01947
G1 X132.522 Y116.645 E2.05857
G1 X132.41 Y117.033 E2.072
G1 X132.337 Y117.269 E2.08022
G1 X132.181 Y117.735 E2.09656
G1 X132.069 Y118.047 E2.10759
G1 X131.938 Y118.392 E2.11986
G1 X131.754 Y118.855 E2.13643
G1 X131.626 Y119.165 E2.14759
G1 X131.435 Y119.606 E2.16357
G1 X131.214 Y120.084 E2.18109
G1 X130.935 Y120.652 E2.20213
G1 X130.689 Y121.123 E2.21981
G1 X130.495 Y121.474 E2.23315
G1 X130.332 Y121.76 E2.24409
G1 X130.063 Y122.214 E2.26165
G1 X129.883 Y122.506 E2.27305
G1 X129.707 Y122.783 E2.28397
G1 X129.493 Y123.109 E2.29694
G1 X129.328 Y123.349 E2.30663
G1 X129.065 Y123.72 E2.32175
G1 X128.883 Y123.968 E2.33198
G1 X128.68 Y124.238 E2.34322
G1 X128.482 Y124.494 E2.35398
G1 X128.184 Y124.867 E2.36986
G1 X127.845 Y125.271 E2.3874
G1 X127.373 Y125.807 E2.41116
G1 X126.985 Y126.226 E2.43015
G1 X126.64 Y126.579 E2.44657
G1 X126.371 Y126.845 E2.45915
G1 X126.185 Y127.022 E2.46769
G1 X125.689 Y127.483 E2.49021
G1 X125.251 Y127.869 E2.50963
G1 X124.912 Y128.146 E2.52419
G1 X124.297 Y128.63 E2.55022
G1 X124.029 Y128.834 E2.56142
G1 X123.612 Y129.142 E2.57867
G1 X123.13 Y129.479 E2.59823
G1 X122.693 Y129.767 E2.61563
G1 X122.264 Y130.036 E2.63248
G1 X121.874 Y130.268 E2.64757
G1 X121.617 Y130.416 E2.65743
G1 X121.32 Y130.582 E2.66875
G1 X121.05 Y130.728 E2.67896
G1 X120.591 Y130.968 E2.69619
G1 X120.101 Y131.209 E2.71435
G1 X119.882 Y131.31 E2.72237
G1 X119.578 Y131.444 E2.73342
G1 X119.084 Y131.654 E2.75127
G1 X118.742 Y131.793 E2.76355
G1 X117.988 Y132.084 E2.79043
G1 X117.3 Y132.324 E2.81467
G1 X116.684 Y132.516 E2.83613
G1 X116.34 Y132.617 E2.84805
G1 X116.007 Y132.709 E2.85954
G1 X115.518 Y132.832 E2.87631
G1 X114.907 Y132.971 E2.89716
G1 X114.363 Y133.08 E2.91561
G1 X113.74 Y133.189 E2.93664
G1 X113.313 Y133.256 E2.95102
G1 X113.012 Y133.297 E2.96112
G1 X112.514 Y133.357 E2.97781
G1 X112.23 Y133.388 E2.98731
G1 X111.954 Y133.414 E2.99653
G1 X111.576 Y133.443 E3.00914
G1 X111.408 Y133.453 E3.01474
G1 X111.125 Y133.466 E3.02416
G1 X110.649 Y133.48 E3.04
G1 X110.175 Y133.487 E3.05576
G1 X109.844 Y133.487 E3.06677
G1 X109.584 Y133.483 E3.07542
G1 X109.207 Y133.47 E3.08797
G1 X108.201 Y133.42 E3.12147
G1 X107.652 Y133.379 E3.13978
G1 X107.582 Y133.372 E3.14212
G1 X106.883 Y133.28 E3.16557
G1 X105.697 Y133.084 E3.20555
G1 X105.334 Y133.017 E3.21783
G1 X104.984 Y132.947 E3.2297
G1 X104.473 Y132.833 E3.24711
G1 X104.333 Y132.798 E3.25191
G1 X104.025 Y132.716 E3.26251
G1 X103.299 Y132.512 E3.2876
G1 X102.972 Y132.414 E3.29895
G1 X102.81 Y132.363 E3.3046
G1 X102.215 Y132.157 E3.32554
G1 X101.294 Y131.808 E3.3583
G1 X100.625 Y131.529 E3.38241
G1 X99.823 Y131.163 E3.41173
G1 X99.438 Y130.978 E3.42594
G1 X99.198 Y130.857 E3.43488
G1 X98.752 Y130.619 E3.45169
G1 X98.262 Y130.343 E3.47039
G1 X97.921 Y130.144 E3.48353
G1 X97.684 Y129.999 E3.49277
G1 X97.317 Y129.768 E3.50719
G1 X97.025 Y129.578 E3.51878
G1 X96.73 Y129.379 E3.53061
G1 X96.488 Y129.211 E3.54041
G1 X96.012 Y128.871 E3.55987
G1 X95.613 Y128.572 E3.57645
G1 X95.492 Y128.477 E3.58157
G1 X95.224 Y128.26 E3.59304
G1 X94.702 Y127.823 E3.61568
G1 X94.432 Y127.589 E3.62756
G1 X94.149 Y127.336 E3.64019
G1 X93.795 Y127.005 E3.65631
G1 X93.456 Y126.674 E3.67207
G1 X93.246 Y126.463 E3.68197
G1 X92.897 Y126.099 E3.69874
G1 X92.5 Y125.669 E3.7182
G1 X92.122 Y125.237 E3.7373
G1 X91.832 Y124.888 E3.75239
G1 X91.625 Y124.632 E3.76334
G1 X91.361 Y124.291 E3.77768
G1 X91.05 Y123.877 E3.7949
G1 X90.769 Y123.489 E3.81084
G1 X90.574 Y123.207 E3.82224
G1 X90.433 Y122.996 E3.83068
G1 X90.246 Y122.705 E3.84219
G1 X90.125 Y122.511 E3.84979
G1 X89.932 Y122.191 E3.86222
G1 X89.384 Y121.242 E3.89867
G1 X89.038 Y120.593 E3.92313
G1 X88.808 Y120.125 E3.94048
G1 X88.656 Y119.803 E3.95232
G1 X88.496 Y119.449 E3.96524
G1 X88.264 Y118.895 E3.98522
G1 X87.936 Y118.049 E4.01539
G1 X87.749 Y117.53 E4.03374
G1 X87.606 Y117.098 E4.04888
G1 X87.457 Y116.61 E4.06585
G1 X87.332 Y116.164 E4.08125
G1 X87.208 Y115.685 E4.09771
G1 X87.136 Y115.383 E4.10804
G1 X87.031 Y114.909 E4.12418
G1 X86.975 Y114.64 E4.13332
G1 X86.932 Y114.42 E4.14078
G1 X86.878 Y114.121 E4.15089
G1 X86.768 Y113.462 E4.17311
G1 X86.695 Y112.954 E4.19018
G1 X86.635 Y112.451 E4.20702
G1 X86.6 Y112.103 E4.21866
G1 X86.583 Y111.908 E4.22517
G1 X86.562 Y111.626 E4.23457
G1 X86.549 Y111.414 E4.24164
G1 X86.534 Y111.089 E4.25246
G1 X86.52 Y110.598 E4.2688
G1 X86.512 Y109.848 E4.29374
G1 X86.513 Y109.677 E4.29943
G1 X86.531 Y109.118 E4.31803
G1 X86.586 Y108.148 E4.35035
G1 X86.649 Y107.441 E4.37395
G1 X86.706 Y106.973 E4.38964
G1 X86.749 Y106.659 E4.40018
G1 X86.822 Y106.176 E4.41642
G1 X86.912 Y105.663 E4.43375
G1 X87.028 Y105.083 E4.45342
G1 X87.157 Y104.514 E4.47282
G1 X87.257 Y104.123 E4.48625
G1 X87.336 Y103.83 E4.49634
G1 X87.469 Y103.364 E4.51246
G1 X87.559 Y103.067 E4.52278
G1 X87.694 Y102.64 E4.53768
G1 X87.872 Y102.122 E4.55589
G1 X88.107 Y101.49 E4.57832
G1 X88.308 Y100.987 E4.59634
G1 X88.589 Y100.332 E4.62004
G1 X88.809 Y99.851 E4.63763
G1 X89.027 Y99.421 E4.65367
G1 X89.338 Y98.837 E4.67568
G1 X89.549 Y98.459 E4.69007
G1 X89.969 Y97.74 E4.71777
G1 X90.331 Y97.162 E4.74045
G1 X90.624 Y96.725 E4.75795
G1 X90.819 Y96.444 E4.76933
G1 X91.185 Y95.937 E4.79013
G1 X91.439 Y95.606 E4.804
G1 X91.829 Y95.117 E4.82481
G1 X92.041 Y94.859 E4.83591
G1 X92.236 Y94.632 E4.84587
G1 X92.509 Y94.323 E4.85958
G1 X92.704 Y94.109 E4.86921
G1 X92.894 Y93.905 E4.87848
G1 X93.126 Y93.663 E4.88963
G1 X93.527 Y93.258 E4.90859
G0 F6000 X93.812 Y93.539
G1 F1200 X94.153 Y93.209 E4.92437
G1 X94.623 Y92.775 E4.94565
G1 X95.028 Y92.42 E4.96356
G1 X95.304 Y92.19 E4.97551
G1 X95.531 Y92.006 E4.98523
G1 X95.856 Y91.75 E4.99899
G1 X96.111 Y91.555 E5.00967
G1 X96.453 Y91.302 E5.02382
G1 X96.723 Y91.109 E5.03485
G1 X97.002 Y90.918 E5.0461
G1 X97.504 Y90.584 E5.06615
G1 X97.961 Y90.297 E5.0841
G1 X98.38 Y90.048 E5.10031
G1 X98.616 Y89.911 E5.10939
G1 X98.816 Y89.799 E5.11701
G1 X99.055 Y89.669 E5.12606
G1 X99.429 Y89.472 E5.14012
G1 X99.689 Y89.34 E5.14982
G1 X99.941 Y89.216 E5.15916
G1 X100.211 Y89.088 E5.1691
G1 X100.705 Y88.862 E5.18717
G1 X101.151 Y88.67 E5.20332
G1 X101.466 Y88.543 E5.21462
G1 X101.794 Y88.417 E5.2263
G1 X102.213 Y88.264 E5.24114
G1 X102.491 Y88.167 E5.25093
G1 X102.979 Y88.004 E5.26804
G1 X103.469 Y87.853 E5.2851
G1 X103.743 Y87.776 E5.29456
G1 X104.068 Y87.691 E5.30574
G1 X104.845 Y87.499 E5.33236
G1 X105.19 Y87.419 E5.34414
G1 X105.525 Y87.348 E5.35553
G1 X105.99 Y87.261 E5.37126
G1 X106.521 Y87.173 E5.38916
G1 X107.005 Y87.104 E5.40542
G1 X107.612 Y87.032 E5.42575
G1 X107.928 Y86.999 E5.43632
G1 X108.369 Y86.963 E5.45104
G1 X108.589 Y86.949 E5.45837
G1 X108.899 Y86.934 E5.46869
G1 X109.37 Y86.92 E5.48436
G1 X109.916 Y86.912 E5.50253
G1 X110.219 Y86.912 E5.5126
G1 X110.506 Y86.916 E5.52215
G1 X110.813 Y86.925 E5.53237
G1 X111.302 Y86.946 E5.54865
G1 X111.754 Y86.975 E5.56371
G1 X112.08 Y87.003 E5.57459
G1 X112.431 Y87.039 E5.58633
G1 X112.983 Y87.105 E5.60482
G1 X113.293 Y87.147 E5.61522
G1 X113.944 Y87.246 E5.63712
G1 X114.084 Y87.27 E5.64185
G1 X114.605 Y87.373 E5.65951
G1 X115.388 Y87.548 E5.6862
G1 X115.692 Y87.621 E5.6966
G1 X115.904 Y87.675 E5.70387
G1 X116.208 Y87.757 E5.71435
G1 X116.635 Y87.883 E5.72915
G1 X117.224 Y88.068 E5.74969
G1 X117.607 Y88.196 E5.76312
G1 X117.708 Y88.232 E5.76668
G1 X118.114 Y88.386 E5.78113
G1 X118.838 Y88.678 E5.80709
G1 X119.24 Y88.85 E5.82163
G1 X119.939 Y89.166 E5.84715
G1 X120.569 Y89.477 E5.87052
G1 X120.975 Y89.694 E5.88583
G1 X121.313 Y89.882 E5.89869
G1 X121.986 Y90.274 E5.9246
G1 X122.23 Y90.421 E5.93407
G1 X122.44 Y90.551 E5.94229
G1 X122.729 Y90.737 E5.95372
G1 X122.908 Y90.856 E5.96087
G1 X123.138 Y91.013 E5.97013
G1 X123.678 Y91.395 E5.99213
G1 X123.821 Y91.5 E5.99803
G1 X124.095 Y91.708 E6.00947
G1 X124.454 Y91.99 E6.02465
G1 X124.808 Y92.28 E6.03987
G1 X125.01 Y92.453 E6.04872
G1 X125.355 Y92.756 E6.06399
G1 X125.72 Y93.088 E6.0804
G1 X125.975 Y93.329 E6.09207
G1 X126.333 Y93.68 E6.10875
G1 X126.579 Y93.929 E6.12039
G1 X126.775 Y94.135 E6.12985
G1 X127.179 Y94.572 E6.14964
G1 X127.516 Y94.954 E6.16658
G1 X127.829 Y95.327 E6.18278
G1 X128.022 Y95.564 E6.19295
G1 X128.238 Y95.837 E6.20452
G1 X128.41 Y96.06 E6.21389
G1 X128.577 Y96.283 E6.22316
G1 X128.825 Y96.628 E6.23729
G1 X128.956 Y96.819 E6.24499
G1 X129.332 Y97.38 E6.26745
G1 X129.503 Y97.643 E6.27789
G1 X129.67 Y97.913 E6.28845
G1 X129.925 Y98.339 E6.30496
G1 X130.066 Y98.582 E6.3143
G1 X130.191 Y98.804 E6.32278
G1 X130.324 Y99.048 E6.33202
G1 X130.524 Y99.426 E6.34625
G1 X130.663 Y99.697 E6.35638
G1 X130.766 Y99.906 E6.36412
G1 X130.896 Y100.181 E6.37424
G1 X131.134 Y100.701 E6.39326
G1 X131.318 Y101.127 E6.4087
G1 X131.417 Y101.371 E6.41745
G1 X131.527 Y101.654 E6.42755
G1 X131.732 Y102.204 E6.44708
G1 X131.845 Y102.521 E6.45827
G1 X131.968 Y102.886 E6.47108
G1 X132.084 Y103.25 E6.48379
G1 X132.16 Y103.511 E6.49283
G1 X132.295 Y103.995 E6.50954
G1 X132.363 Y104.249 E6.51829
G1 X132.416 Y104.459 E6.52549
G1 X132.484 Y104.748 E6.53536
G1 X132.607 Y105.3 E6.55417
G1 X132.703 Y105.782 E6.57052
G1 X132.806 Y106.372 E6.59044
G1 X132.879 Y106.858 E6.60679
G1 X132.923 Y107.204 E6.61839
G1 X132.96 Y107.533 E6.6294
G1 X133.015 Y108.109 E6.64864
G1 X133.041 Y108.431 E6.65939
G1 X133.063 Y108.77 E6.67069
G1 X133.084 Y109.327 E6.68923
G1 X133.087 Y109.574 E6.69744
G1 X133.087 Y109.875 E6.70745
G1 X133.072 Y110.799 E6.73819
G1 X133.056 Y111.258 E6.75347
G1 X133.022 Y111.77 E6.77053
G1 X132.983 Y112.204 E6.78503
G1 X132.936 Y112.635 E6.79945
G1 X132.894 Y112.941 E6.80972
G1 X132.722 Y114.064 E6.8475
G1 X132.644 Y114.506 E6.86243
G1 X132.607 Y114.694 E6.86881
G1 X132.442 Y115.406 E6.89311
G1 X132.136 Y116.541 E6.93221
G1 X132.028 Y116.914 E6.94513
G1 X131.955 Y117.15 E6.95334
G1 X131.805 Y117.599 E6.96909
G1 X131.693 Y117.911 E6.98012
G1 X131.567 Y118.245 E6.99199
G1 X131.383 Y118.708 E7.00856
G1 X131.259 Y119.006 E7.01929
G1 X131.068 Y119.447 E7.03528
G1 X130.855 Y119.907 E7.05214
G1 X130.576 Y120.475 E7.07319
G1 X130.339 Y120.93 E7.09025
G1 X130.145 Y121.281 E7.10359
G1 X129.987 Y121.556 E7.11414
G1 X129.718 Y122.01 E7.13169
G1 X129.546 Y122.292 E7.14268
G1 X129.37 Y122.569 E7.15359
G1 X129.161 Y122.887 E7.16625
G1 X129.002 Y123.117 E7.17555
G1 X128.739 Y123.488 E7.19067
G1 X128.563 Y123.728 E7.20057
G1 X128.36 Y123.998 E7.21181
G1 X128.17 Y124.244 E7.22215
G1 X127.872 Y124.617 E7.23802
G1 X127.545 Y125.006 E7.25493
G1 X127.073 Y125.542 E7.27868
G1 X126.699 Y125.946 E7.29699
G1 X126.354 Y126.299 E7.31341
G1 X126.092 Y126.558 E7.32566
G1 X125.912 Y126.729 E7.33392
G1 X125.416 Y127.19 E7.35644
G1 X124.995 Y127.562 E7.37513
G1 X124.664 Y127.832 E7.38934
G1 X124.049 Y128.316 E7.41537
G1 X123.792 Y128.512 E7.42612
G1 X123.375 Y128.82 E7.44336
G1 X122.91 Y129.145 E7.46223
G1 X122.473 Y129.433 E7.47963
G1 X122.059 Y129.692 E7.49588
G1 X121.669 Y129.924 E7.51097
G1 X121.422 Y130.067 E7.52046
G1 X121.125 Y130.233 E7.53178
G1 X120.865 Y130.373 E7.5416
G1 X120.406 Y130.613 E7.55883
G1 X119.933 Y130.846 E7.57636
G1 X119.714 Y130.947 E7.58439
G1 X119.422 Y131.076 E7.595
G1 X118.928 Y131.286 E7.61286
G1 X118.598 Y131.42 E7.6247
G1 X117.844 Y131.711 E7.65158
G1 X117.181 Y131.942 E7.67494
