;FLAVOR:Marlin
;TIME:9954
;Filament used: 9.21649m
;Layer height: 0.3
;MINX:55.346
;MINY:72.961
;MINZ:0.2
;MAXX:153.948
;MAXY:147.662
;MAXZ:52.7
;Generated with Cura_SteamEngine 4.6.2
M140 S55
M105
M190 S55
M104 S205
M105
M109 S205
M82 ;absolute extrusion mode
; Ender 3 Custom Start G-code
G92 E0 ; Reset Extruder
G28 ; Home all axes
G1 Z2.0 F3000 ; Move Z Axis up little to prevent scratching of Heat Bed
G1 X0.1 Y20 Z0.3 F5000.0 ; Move to start position
G1 X0.1 Y200.0 Z0.3 F1500.0 E15 ; Draw the first line
G1 X0.4 Y200.0 Z0.3 F5000.0 ; Move to side a little
G1 X0.4 Y20 Z0.3 F1500.0 E30 ; Draw the second line
G92 E0 ; Reset Extruder
G1 Z2.0 F3000 ; Move Z Axis up little to prevent scratching of Heat Bed
G1 X5 Y20 Z0.3 F5000.0 ; Move over to prevent blob squish
G92 E0
G92 E0
G1 F1500 E-6.5
;LAYER_COUNT:176
;LAYER:0
M107
G0 F6000 X79.664 Y73.773 Z0.2
;TYPE:SKIRT
G1 F1500 E0
G1 F1200 X80.566 Y73.826 E0.03005
G1 X81.459 Y73.958 E0.06008
G1 X82.337 Y74.169 E0.09011
G1 X83.193 Y74.457 E0.12015
G1 X84.101 Y74.86 E0.15319
G1 X85.062 Y75.344 E0.18898
G1 X85.858 Y75.758 E0.21882
G1 X88.156 Y76.874 E0.30379
G1 X90.479 Y77.922 E0.38855
G1 X92.83 Y78.906 E0.47332
G1 X95.17 Y79.802 E0.55666
G1 X97.596 Y80.657 E0.64221
G1 X99.984 Y81.424 E0.72563
G1 X102.414 Y82.129 E0.80979
G1 X104.914 Y82.778 E0.89569
G1 X107.394 Y83.349 E0.98034
G1 X109.833 Y83.835 E1.06305
G1 X112.374 Y84.269 E1.14879
G1 X114.891 Y84.626 E1.23334
G1 X117.406 Y84.91 E1.31753
G1 X119.916 Y85.123 E1.40131
G1 X122.423 Y85.264 E1.48482
G1 X126.343 Y85.346 E1.61523
G1 X142.389 Y85.348 E2.14892
G1 X143.085 Y85.358 E2.17207
G1 X143.986 Y85.411 E2.20209
G1 X144.879 Y85.543 E2.23212
G1 X145.758 Y85.754 E2.26218
G1 X146.614 Y86.042 E2.29222
G1 X147.441 Y86.405 E2.32226
G1 X148.233 Y86.839 E2.3523
G1 X148.983 Y87.341 E2.38232
G1 X149.686 Y87.908 E2.41236
G1 X150.336 Y88.535 E2.44239
G1 X150.928 Y89.217 E2.47243
G1 X151.458 Y89.949 E2.50249
G1 X151.92 Y90.724 E2.5325
G1 X152.313 Y91.538 E2.56256
G1 X152.631 Y92.383 E2.59259
G1 X152.874 Y93.253 E2.62264
G1 X153.039 Y94.14 E2.65264
G1 X153.133 Y95.241 E2.6894
G1 X153.148 Y95.881 E2.71069
G1 X153.145 Y128.481 E3.79497
G1 X153.136 Y129.204 E3.81902
G1 X153.085 Y130.106 E3.84907
G1 X152.954 Y130.999 E3.87909
G1 X152.745 Y131.878 E3.90914
G1 X152.459 Y132.734 E3.93915
G1 X152.098 Y133.562 E3.9692
G1 X151.665 Y134.355 E3.99925
G1 X151.164 Y135.106 E4.02927
G1 X150.599 Y135.81 E4.0593
G1 X149.973 Y136.462 E4.08936
G1 X149.292 Y137.055 E4.11939
G1 X148.562 Y137.586 E4.14942
G1 X147.787 Y138.05 E4.17946
G1 X146.974 Y138.444 E4.20951
G1 X146.13 Y138.764 E4.23953
G1 X145.261 Y139.009 E4.26956
G1 X144.373 Y139.175 E4.29961
G1 X143.249 Y139.272 E4.33713
G1 X142.61 Y139.287 E4.35839
G1 X121.473 Y139.286 E5.06141
G1 X118.867 Y139.323 E5.1481
G1 X116.325 Y139.431 E5.23272
G1 X113.783 Y139.61 E5.31748
G1 X111.272 Y139.86 E5.4014
G1 X108.731 Y140.185 E5.48661
G1 X106.22 Y140.579 E5.57114
G1 X103.761 Y141.036 E5.65433
G1 X101.224 Y141.582 E5.74065
G1 X98.81 Y142.173 E5.82331
G1 X96.331 Y142.855 E5.90882
G1 X93.922 Y143.593 E5.99262
G1 X91.515 Y144.404 E6.0771
G1 X89.108 Y145.293 E6.16244
G1 X87.017 Y146.125 E6.23729
G1 X86.164 Y146.421 E6.26732
G1 X85.288 Y146.641 E6.29736
G1 X84.396 Y146.783 E6.32741
G1 X83.415 Y146.847 E6.3601
G1 X82.411 Y146.862 E6.3935
G1 X67.292 Y146.861 E6.89636
G1 X66.598 Y146.851 E6.91945
G1 X65.696 Y146.798 E6.9495
G1 X64.803 Y146.665 E6.97953
G1 X63.925 Y146.454 E7.00956
G1 X63.069 Y146.167 E7.03959
G1 X62.242 Y145.804 E7.06963
G1 X61.45 Y145.37 E7.09967
G1 X60.7 Y144.867 E7.1297
G1 X59.997 Y144.3 E7.15974
G1 X59.347 Y143.674 E7.18976
G1 X58.754 Y142.992 E7.21981
G1 X58.225 Y142.26 E7.24985
G1 X57.565 Y141.099 E7.29427
G1 X57.347 Y140.649 E7.3109
G1 X56.929 Y139.655 E7.34677
G1 X56.82 Y139.352 E7.35748
G1 X56.552 Y138.489 E7.38753
G1 X56.429 Y137.964 E7.40547
G1 X56.368 Y137.669 E7.41549
G1 X56.225 Y136.778 E7.4455
G1 X56.162 Y135.936 E7.47358
G1 X56.146 Y135.107 E7.50116
G1 X56.149 Y86.833 E9.10676
G1 X56.159 Y86.154 E9.12935
G1 X56.212 Y85.252 E9.1594
G1 X56.345 Y84.359 E9.18943
G1 X56.556 Y83.481 E9.21946
G1 X56.703 Y83.015 E9.23571
G1 X56.859 Y82.557 E9.25181
G1 X57.078 Y81.965 E9.2728
G1 X57.283 Y81.474 E9.2905
G1 X57.384 Y81.248 E9.29873
G1 X57.784 Y80.449 E9.32845
G1 X58.02 Y80.025 E9.34459
G1 X58.493 Y79.256 E9.37462
G1 X59.033 Y78.532 E9.40466
G1 X59.689 Y77.804 E9.43725
G1 X59.925 Y77.566 E9.4484
G1 X60.912 Y76.692 E9.49225
G1 X61.203 Y76.466 E9.5045
G1 X61.52 Y76.229 E9.51767
G1 X61.89 Y75.964 E9.53281
G1 X63.021 Y75.262 E9.57708
G1 X63.296 Y75.115 E9.58745
G1 X64.301 Y74.646 E9.62434
G1 X64.52 Y74.558 E9.63219
G1 X65.372 Y74.258 E9.66223
G1 X66.247 Y74.035 E9.69226
G1 X67.123 Y73.893 E9.72178
G1 X67.41 Y73.859 E9.73139
G1 X68.113 Y73.8 E9.75486
G1 X68.666 Y73.773 E9.77327
G1 X69.164 Y73.761 E9.78984
G1 X78.821 Y73.762 E10.11103
G1 X79.664 Y73.773 E10.13907
G0 F6000 X79.67 Y73.373
G1 F1200 X80.589 Y73.426 E10.16969
G1 X81.5 Y73.559 E10.20031
G1 X82.396 Y73.77 E10.23093
G1 X83.27 Y74.058 E10.26153
G1 X84.281 Y74.502 E10.29826
G1 X85.246 Y74.989 E10.33421
G1 X86.052 Y75.409 E10.36444
G1 X88.317 Y76.508 E10.44817
G1 X90.631 Y77.552 E10.53261
G1 X92.961 Y78.527 E10.61662
G1 X95.33 Y79.435 E10.701
G1 X97.704 Y80.271 E10.78471
G1 X100.113 Y81.045 E10.86887
G1 X102.53 Y81.746 E10.95257
G1 X104.998 Y82.387 E11.03738
G1 X107.49 Y82.961 E11.12244
G1 X109.907 Y83.442 E11.2044
G1 X112.421 Y83.872 E11.28923
G1 X114.925 Y84.227 E11.37335
G1 X117.448 Y84.512 E11.4578
G1 X119.973 Y84.726 E11.54208
G1 X122.425 Y84.863 E11.62376
G1 X126.352 Y84.946 E11.7544
G1 X142.394 Y84.948 E12.28796
G1 X143.09 Y84.958 E12.31111
G1 X144.009 Y85.011 E12.34173
G1 X144.92 Y85.144 E12.37235
G1 X145.817 Y85.355 E12.403
G1 X146.691 Y85.644 E12.43362
G1 X147.537 Y86.007 E12.46424
G1 X148.348 Y86.442 E12.49485
G1 X149.119 Y86.946 E12.52548
G1 X149.843 Y87.514 E12.55609
G1 X150.515 Y88.144 E12.58673
G1 X151.129 Y88.829 E12.61732
G1 X151.682 Y89.565 E12.64794
G1 X152.169 Y90.347 E12.67858
G1 X152.586 Y91.167 E12.70918
G1 X152.931 Y92.021 E12.73981
G1 X153.2 Y92.902 E12.77045
G1 X153.392 Y93.802 E12.80106
G1 X153.505 Y94.716 E12.83169
G1 X153.533 Y95.229 E12.84878
G1 X153.543 Y95.552 E12.85953
G1 X153.548 Y95.881 E12.87047
G1 X153.545 Y128.486 E13.95492
G1 X153.536 Y129.209 E13.97897
G1 X153.485 Y130.128 E14.00958
G1 X153.354 Y131.039 E14.04019
G1 X153.144 Y131.936 E14.07083
G1 X152.858 Y132.811 E14.10145
G1 X152.496 Y133.658 E14.13209
G1 X152.063 Y134.47 E14.16269
G1 X151.56 Y135.241 E14.19331
G1 X150.993 Y135.966 E14.22392
G1 X150.365 Y136.639 E14.25454
G1 X149.681 Y137.255 E14.28516
G1 X148.945 Y137.81 E14.31581
G1 X148.165 Y138.298 E14.34642
G1 X147.345 Y138.717 E14.37704
G1 X146.492 Y139.063 E14.40766
G1 X145.612 Y139.334 E14.43829
G1 X144.712 Y139.527 E14.4689
G1 X143.799 Y139.642 E14.49951
G1 X143.261 Y139.672 E14.51743
G1 X142.61 Y139.687 E14.53909
G1 X121.479 Y139.686 E15.24191
G1 X118.854 Y139.723 E15.32922
G1 X116.37 Y139.829 E15.41192
G1 X113.814 Y140.009 E15.49714
G1 X111.295 Y140.259 E15.58133
G1 X108.807 Y140.578 E15.66476
G1 X106.284 Y140.973 E15.7497
G1 X103.846 Y141.427 E15.83218
G1 X101.331 Y141.968 E15.91774
G1 X98.906 Y142.562 E16.00078
G1 X96.459 Y143.235 E16.08519
G1 X94.019 Y143.982 E16.17007
G1 X91.645 Y144.782 E16.25339
G1 X89.232 Y145.673 E16.33894
G1 X87.165 Y146.496 E16.41294
G1 X86.295 Y146.799 E16.44358
G1 X85.403 Y147.026 E16.4742
G1 X84.494 Y147.174 E16.50483
G1 X83.422 Y147.247 E16.54056
G1 X82.411 Y147.262 E16.57419
G1 X67.286 Y147.261 E17.07725
G1 X66.592 Y147.251 E17.10034
G1 X65.673 Y147.198 E17.13096
G1 X64.762 Y147.065 E17.16158
G1 X63.866 Y146.854 E17.19219
G1 X62.992 Y146.565 E17.22281
G1 X62.146 Y146.202 E17.25343
G1 X61.334 Y145.767 E17.28407
G1 X60.564 Y145.263 E17.31468
G1 X59.84 Y144.694 E17.3453
G1 X59.168 Y144.065 E17.37592
G1 X58.553 Y143.379 E17.40656
G1 X58.001 Y142.643 E17.43716
G1 X57.514 Y141.862 E17.46777
G1 X57.205 Y141.273 E17.48989
G1 X56.987 Y140.823 E17.50653
G1 X56.553 Y139.79 E17.54379
G1 X56.444 Y139.487 E17.5545
G1 X56.17 Y138.608 E17.58513
G1 X56.038 Y138.045 E17.60436
G1 X55.977 Y137.75 E17.61438
G1 X55.829 Y136.842 E17.64498
G1 X55.763 Y135.949 E17.67476
G1 X55.746 Y135.107 E17.70277
G1 X55.749 Y86.827 E19.30857
G1 X55.759 Y86.148 E19.33116
G1 X55.813 Y85.229 E19.36177
G1 X55.946 Y84.318 E19.3924
G1 X56.157 Y83.422 E19.42301
G1 X56.324 Y82.886 E19.44168
G1 X56.48 Y82.428 E19.45778
G1 X56.705 Y81.821 E19.47931
G1 X56.917 Y81.311 E19.49768
G1 X57.018 Y81.085 E19.50591
G1 X57.434 Y80.255 E19.53679
G1 X57.67 Y79.831 E19.55293
G1 X58.152 Y79.047 E19.58354
G1 X58.701 Y78.307 E19.61419
G1 X59.405 Y77.522 E19.64926
G1 X59.641 Y77.284 E19.6604
G1 X60.666 Y76.376 E19.70595
G1 X60.957 Y76.15 E19.7182
G1 X61.287 Y75.904 E19.73189
G1 X61.657 Y75.639 E19.74703
G1 X62.428 Y75.136 E19.77765
G1 X62.832 Y74.909 E19.79306
G1 X63.107 Y74.762 E19.80343
G1 X64.152 Y74.274 E19.84179
G1 X64.371 Y74.186 E19.84964
G1 X65.239 Y73.881 E19.88024
G1 X66.131 Y73.651 E19.91088
G1 X67.076 Y73.496 E19.94273
G1 X67.363 Y73.462 E19.95235
G1 X68.093 Y73.401 E19.97671
G1 X68.646 Y73.374 E19.99512
G1 X69.164 Y73.361 E20.01236
G1 X78.821 Y73.362 E20.33355
G1 X79.67 Y73.373 E20.36179
G0 F6000 X79.676 Y72.973
G1 F1200 X80.612 Y73.027 E20.39298
G1 X81.54 Y73.159 E20.42415
G1 X82.454 Y73.371 E20.45536
G1 X83.346 Y73.66 E20.48654
G1 X84.461 Y74.145 E20.52699
G1 X85.431 Y74.634 E20.56312
G1 X86.246 Y75.059 E20.59369
G1 X88.477 Y76.141 E20.67616
G1 X90.788 Y77.184 E20.76049
G1 X93.133 Y78.165 E20.84503
G1 X95.458 Y79.056 E20.92785
G1 X97.822 Y79.889 E21.01121
G1 X100.241 Y80.666 E21.09572
G1 X102.628 Y81.358 E21.17838
G1 X105.083 Y81.996 E21.26274
G1 X107.56 Y82.566 E21.34728
G1 X110.01 Y83.054 E21.43037
G1 X112.479 Y83.476 E21.51368
G1 X114.99 Y83.832 E21.59803
G1 X117.456 Y84.111 E21.68057
G1 X119.995 Y84.326 E21.76532
G1 X122.455 Y84.464 E21.84727
G1 X126.36 Y84.546 E21.97718
G1 X142.4 Y84.548 E22.51067
G1 X143.096 Y84.558 E22.53383
G1 X144.032 Y84.612 E22.56501
G1 X144.961 Y84.745 E22.59622
G1 X145.874 Y84.956 E22.62739
G1 X146.767 Y85.245 E22.65861
G1 X147.631 Y85.608 E22.68978
G1 X148.462 Y86.044 E22.72099
G1 X149.252 Y86.55 E22.75219
G1 X149.996 Y87.12 E22.78337
G1 X150.689 Y87.752 E22.81456
G1 X151.326 Y88.441 E22.84577
G1 X151.902 Y89.181 E22.87696
G1 X152.412 Y89.968 E22.90815
G1 X152.854 Y90.795 E22.93934
G1 X153.223 Y91.657 E22.97053
G1 X153.518 Y92.547 E23.00171
G1 X153.736 Y93.46 E23.03293
G1 X153.876 Y94.387 E23.06411
G1 X153.933 Y95.217 E23.09178
G1 X153.943 Y95.54 E23.10253
G1 X153.948 Y95.881 E23.11388
G1 X153.945 Y128.491 E24.19849
G1 X153.936 Y129.214 E24.22254
G1 X153.885 Y130.15 E24.25371
G1 X153.753 Y131.079 E24.28492
G1 X153.543 Y131.993 E24.31612
G1 X153.256 Y132.886 E24.34731
G1 X152.895 Y133.751 E24.37849
G1 X152.46 Y134.582 E24.40969
G1 X151.957 Y135.374 E24.44089
G1 X151.387 Y136.119 E24.47209
G1 X150.757 Y136.813 E24.50327
G1 X150.069 Y137.451 E24.53447
G1 X149.33 Y138.028 E24.56566
G1 X148.544 Y138.54 E24.59686
G1 X147.718 Y138.984 E24.62805
G1 X146.857 Y139.355 E24.65923
G1 X145.967 Y139.652 E24.69044
G1 X145.055 Y139.871 E24.72163
G1 X144.128 Y140.012 E24.75282
G1 X143.273 Y140.072 E24.78132
G1 X142.946 Y140.082 E24.79221
G1 X142.609 Y140.087 E24.80342
G1 X121.485 Y140.086 E25.506
G1 X118.877 Y140.123 E25.59275
G1 X116.379 Y140.229 E25.67591
G1 X113.849 Y140.407 E25.76027
G1 X111.349 Y140.656 E25.84383
G1 X108.849 Y140.976 E25.92766
G1 X106.388 Y141.362 E26.01051
G1 X103.891 Y141.826 E26.09499
G1 X101.405 Y142.361 E26.17956
G1 X99.035 Y142.941 E26.26072
G1 X96.544 Y143.627 E26.34665
G1 X94.148 Y144.36 E26.42999
G1 X91.774 Y145.16 E26.51331
G1 X89.404 Y146.035 E26.59734
G1 X87.313 Y146.868 E26.6722
G1 X86.427 Y147.177 E26.70341
G1 X85.519 Y147.41 E26.73459
G1 X84.594 Y147.565 E26.76578
G1 X83.429 Y147.646 E26.80462
G1 X82.411 Y147.662 E26.83849
G1 X67.281 Y147.661 E27.34171
G1 X66.587 Y147.651 E27.3648
G1 X65.65 Y147.597 E27.39601
G1 X64.722 Y147.464 E27.4272
G1 X63.808 Y147.253 E27.45839
G1 X62.916 Y146.964 E27.48958
G1 X62.051 Y146.6 E27.52079
G1 X61.221 Y146.164 E27.55198
G1 X60.431 Y145.659 E27.58316
G1 X59.686 Y145.089 E27.61436
G1 X58.993 Y144.457 E27.64556
G1 X58.357 Y143.768 E27.67674
G1 X57.781 Y143.028 E27.70793
G1 X57.271 Y142.241 E27.73913
G1 X56.845 Y141.448 E27.76907
G1 X56.627 Y140.998 E27.7857
G1 X56.176 Y139.925 E27.82441
G1 X56.067 Y139.622 E27.83512
G1 X55.788 Y138.727 E27.8663
G1 X55.646 Y138.126 E27.88684
G1 X55.585 Y137.831 E27.89686
G1 X55.434 Y136.906 E27.92803
G1 X55.363 Y135.963 E27.95948
G1 X55.346 Y135.107 E27.98796
G1 X55.349 Y86.821 E29.59396
G1 X55.359 Y86.142 E29.61655
G1 X55.413 Y85.206 E29.64773
G1 X55.546 Y84.277 E29.67894
G1 X55.758 Y83.364 E29.71012
G1 X55.945 Y82.757 E29.73124
G1 X56.101 Y82.299 E29.74733
G1 X56.332 Y81.677 E29.7694
G1 X56.552 Y81.148 E29.78846
G1 X56.653 Y80.922 E29.79669
G1 X57.085 Y80.06 E29.82876
G1 X57.321 Y79.636 E29.8449
G1 X57.811 Y78.837 E29.87607
G1 X58.368 Y78.082 E29.90728
G1 X59.121 Y77.241 E29.94483
G1 X59.357 Y77.003 E29.95597
G1 X60.045 Y76.366 E29.98716
G1 X60.421 Y76.06 E30.00328
G1 X60.712 Y75.834 E30.01554
G1 X61.054 Y75.579 E30.02973
G1 X61.424 Y75.314 E30.04486
G1 X62.209 Y74.801 E30.07605
G1 X62.643 Y74.556 E30.09263
G1 X62.918 Y74.409 E30.103
G1 X64.003 Y73.903 E30.14282
G1 X64.222 Y73.815 E30.15067
G1 X65.106 Y73.503 E30.18185
G1 X66.014 Y73.267 E30.21305
G1 X67.029 Y73.098 E30.24728
G1 X67.316 Y73.064 E30.25689
G1 X68.074 Y73.001 E30.28219
G1 X68.627 Y72.974 E30.3006
G1 X69.164 Y72.961 E30.31847
G1 X78.821 Y72.962 E30.63966
G1 X79.676 Y72.973 E30.6681
G1 F1500 E24.1681
;MESH:Object 3
G0 F6000 X79.203 Y83.296
G0 X79.203 Y84.282
G0 X79.037 Y87.32
G0 X90.597 Y96.318
G0 X142.166 Y96.329
G0 X142.164 Y128.305
G0 X90.541 Y128.311
G0 X82.923 Y135.889
G0 X76.405 Y135.863
;TYPE:WALL-INNER
G1 F1500 E30.6681
G1 F1200 X76.407 Y85.718 E32.33593
G1 X67.758 Y85.675 E32.6236
G1 X67.63 Y86.302 E32.64488
G1 X67.628 Y136.062 E34.29991
G1 X67.116 Y136.062 E34.31694
G1 X67.015 Y135.843 E34.32496
G1 X66.946 Y135.533 E34.33552
G1 X66.948 Y86.383 E35.97026
G1 X67.093 Y85.982 E35.98444
G1 X67.225 Y85.673 E35.99562
G1 X67.41 Y85.34 E36.00829
G1 X67.508 Y85.242 E36.0129
G1 X67.563 Y85.219 E36.01488
G1 X67.853 Y84.982 E36.02734
G1 X67.96 Y84.911 E36.03161
G1 X68.151 Y84.752 E36.03987
G1 X68.229 Y84.706 E36.04288
G1 X68.307 Y84.706 E36.04548
G1 X68.549 Y84.61 E36.05414
G1 X68.763 Y84.61 E36.06126
G1 X68.908 Y84.561 E36.06635
G1 X69.405 Y84.561 E36.08288
G1 X78.923 Y84.562 E36.39945
G1 X78.923 Y87.006 E36.48073
G1 X90.657 Y96.145 E36.97541
G1 X142.149 Y96.147 E38.68805
G1 X142.348 Y96.147 E38.69466
G1 X142.348 Y96.346 E38.69895
G1 X142.346 Y128.487 E39.76796
G1 X90.613 Y128.485 E41.48861
G1 X89.066 Y130.033 E41.5614
G1 X83.778 Y135.305 E41.80975
G1 X82.994 Y136.062 E41.846
G1 X76.604 Y136.062 E42.05853
G1 X76.405 Y136.062 E42.06515
G1 X76.405 Y135.863 E42.06943
G0 F6000 X76.005 Y135.897
;TYPE:WALL-OUTER
G1 F1200 X76.007 Y86.116 E43.72516
G1 X68.084 Y86.077 E43.98868
G1 X68.03 Y86.342 E43.99767
G1 X68.028 Y135.896 E45.64585
G1 X76.005 Y135.897 E45.91116
G1 F1500 E39.41116
G0 F6000 X76.004 Y136.096
G0 X83.079 Y136.27
G0 X83.156 Y136.462
G1 F1500 E45.91116
G1 F1200 X66.86 Y136.462 E46.45317
G1 X66.632 Y135.967 E46.4713
G1 X66.546 Y135.579 E46.48451
G1 X66.548 Y86.313 E48.12311
G1 X66.725 Y85.825 E48.14037
G1 X66.864 Y85.499 E48.15216
G1 X67.089 Y85.095 E48.16754
G1 X67.281 Y84.903 E48.17657
G1 X67.355 Y84.872 E48.17924
G1 X67.617 Y84.659 E48.19047
G1 X67.721 Y84.59 E48.19462
G1 X67.914 Y84.429 E48.20298
G1 X67.993 Y84.377 E48.20613
G1 X68.134 Y84.306 E48.21138
G1 X68.231 Y84.306 E48.2146
G1 X68.365 Y84.253 E48.2194
G1 X68.408 Y84.21 E48.22142
G1 X68.697 Y84.21 E48.23103
G1 X68.841 Y84.161 E48.23609
G1 X69.405 Y84.161 E48.25485
G1 X79.323 Y84.162 E48.58472
G1 X79.323 Y86.811 E48.67283
G1 X90.794 Y95.745 E49.15642
G1 X142.748 Y95.747 E50.88442
G1 X142.746 Y128.887 E51.98666
G1 X90.779 Y128.885 E53.71509
G1 X89.349 Y130.316 E53.78237
G1 X84.056 Y135.593 E54.03096
G1 X83.156 Y136.462 E54.07257
G0 F6000 X82.992 Y136.055
