;FLAVOR:Marlin
;TIME:11874
;Filament used: 13.2525m
;Layer height: 0.3
;MINX:81.074
;MINY:61.054
;MINZ:0.2
;MAXX:135.029
;MAXY:135.794
;MAXZ:67.1
;Generated with Cura_SteamEngine 4.6.2
M140 S55
M105
M190 S55
M104 S205
M105
M109 S205
M82 ;absolute extrusion mode
; Ender 3 Custom Start G-code
G92 E0 ; Reset Extruder
G28 ; Home all axes
G1 Z2.0 F3000 ; Move Z Axis up little to prevent scratching of Heat Bed
G1 X0.1 Y20 Z0.3 F5000.0 ; Move to start position
G1 X0.1 Y200.0 Z0.3 F1500.0 E15 ; Draw the first line
G1 X0.4 Y200.0 Z0.3 F5000.0 ; Move to side a little
G1 X0.4 Y20 Z0.3 F1500.0 E30 ; Draw the second line
G92 E0 ; Reset Extruder
G1 Z2.0 F3000 ; Move Z Axis up little to prevent scratching of Heat Bed
G1 X5 Y20 Z0.3 F5000.0 ; Move over to prevent blob squish
G92 E0
G92 E0
G1 F1500 E-6.5
;LAYER_COUNT:224
;LAYER:0
M107
G0 F6000 X124.166 Y61.866 Z0.2
;TYPE:SKIRT
G1 F1500 E0
G1 F1200 X125.068 Y61.919 E0.03005
G1 X125.961 Y62.051 E0.06008
G1 X126.839 Y62.262 E0.09011
G1 X127.695 Y62.55 E0.12015
G1 X128.523 Y62.913 E0.15022
G1 X129.314 Y63.347 E0.18023
G1 X130.065 Y63.849 E0.21027
G1 X130.768 Y64.416 E0.24031
G1 X131.418 Y65.043 E0.27035
G1 X132.01 Y65.725 E0.30039
G1 X132.54 Y66.456 E0.33042
G1 X133.002 Y67.232 E0.36046
G1 X133.395 Y68.045 E0.39049
G1 X133.713 Y68.89 E0.42052
G1 X133.956 Y69.76 E0.45056
G1 X134.121 Y70.648 E0.4806
G1 X134.216 Y71.777 E0.51829
G1 X134.229 Y72.384 E0.53848
G1 X134.226 Y122.381 E2.20139
G1 X134.216 Y123.083 E2.22474
G1 X134.163 Y123.985 E2.25479
G1 X134.053 Y124.759 E2.28079
G1 X133.961 Y125.266 E2.29793
G1 X133.733 Y126.247 E2.33143
G1 X133.671 Y126.464 E2.33893
G1 X133.577 Y126.774 E2.34971
G1 X133.4 Y127.315 E2.36864
G1 X133.299 Y127.606 E2.37889
G1 X132.819 Y128.758 E2.4204
G1 X132.628 Y129.147 E2.43481
G1 X132.172 Y129.975 E2.46625
G1 X132.09 Y130.109 E2.47147
G1 X131.585 Y130.858 E2.50152
G1 X131.016 Y131.559 E2.53155
G1 X130.387 Y132.207 E2.56158
G1 X129.703 Y132.797 E2.59163
G1 X128.97 Y133.324 E2.62166
G1 X128.192 Y133.784 E2.65172
G1 X127.378 Y134.173 E2.68172
G1 X126.532 Y134.489 E2.71176
G1 X125.661 Y134.729 E2.74181
G1 X124.772 Y134.891 E2.77186
G1 X123.552 Y134.984 E2.81256
G1 X122.823 Y134.994 E2.83681
G1 X93.252 Y134.992 E3.82034
G1 X92.552 Y134.982 E3.84363
G1 X91.651 Y134.929 E3.87365
G1 X90.757 Y134.797 E3.9037
G1 X89.879 Y134.586 E3.93374
G1 X89.023 Y134.298 E3.96378
G1 X88.196 Y133.936 E3.9938
G1 X87.404 Y133.502 E4.02384
G1 X86.654 Y132.999 E4.05388
G1 X85.951 Y132.432 E4.08392
G1 X85.3 Y131.806 E4.11395
G1 X84.708 Y131.124 E4.14399
G1 X84.179 Y130.392 E4.17403
G1 X83.612 Y129.419 E4.21149
G1 X83.438 Y129.078 E4.22422
G1 X83.216 Y128.618 E4.24121
G1 X82.805 Y127.615 E4.27726
G1 X82.694 Y127.297 E4.28846
G1 X82.579 Y126.948 E4.30068
G1 X82.49 Y126.66 E4.31071
G1 X82.268 Y125.815 E4.33977
G1 X82.131 Y125.185 E4.36121
G1 X81.978 Y124.295 E4.39125
G1 X81.904 Y123.355 E4.42261
G1 X81.88 Y122.629 E4.44677
G1 X81.874 Y122.292 E4.45798
G1 X81.876 Y100.748 E5.17454
G1 X81.895 Y99.438 E5.21811
G1 X81.946 Y97.626 E5.2784
G1 X81.946 Y95.034 E5.36461
G1 X81.918 Y93.754 E5.4072
G1 X81.875 Y92.156 E5.46036
G1 X81.877 Y72.595 E6.11097
G1 X81.887 Y71.915 E6.13359
G1 X81.94 Y71.013 E6.16364
G1 X82.073 Y70.12 E6.19367
G1 X82.284 Y69.242 E6.2237
G1 X82.573 Y68.386 E6.25375
G1 X82.935 Y67.559 E6.28378
G1 X83.37 Y66.767 E6.31383
G1 X83.872 Y66.017 E6.34385
G1 X84.44 Y65.314 E6.37391
G1 X85.067 Y64.664 E6.40394
G1 X85.749 Y64.073 E6.43396
G1 X86.481 Y63.543 E6.46402
G1 X87.256 Y63.081 E6.49403
G1 X88.07 Y62.689 E6.52408
G1 X88.915 Y62.37 E6.55412
G1 X89.785 Y62.128 E6.58415
G1 X90.673 Y61.963 E6.61419
G1 X91.741 Y61.871 E6.64985
G1 X92.066 Y61.86 E6.66066
G1 X92.411 Y61.854 E6.67214
G1 X123.323 Y61.855 E7.70028
G1 X124.166 Y61.866 E7.72832
G0 F6000 X124.172 Y61.466
G1 F1200 X125.091 Y61.519 E7.75893
G1 X126.002 Y61.652 E7.78955
G1 X126.898 Y61.863 E7.82017
G1 X127.773 Y62.151 E7.85081
G1 X128.619 Y62.515 E7.88144
G1 X129.43 Y62.95 E7.91205
G1 X130.201 Y63.453 E7.94267
G1 X130.925 Y64.022 E7.9733
G1 X131.596 Y64.652 E8.00391
G1 X132.211 Y65.337 E8.03453
G1 X132.764 Y66.073 E8.06515
G1 X133.251 Y66.855 E8.09579
G1 X133.668 Y67.675 E8.12638
G1 X134.013 Y68.529 E8.15702
G1 X134.282 Y69.409 E8.18762
G1 X134.474 Y70.31 E8.21827
G1 X134.587 Y71.224 E8.2489
G1 X134.616 Y71.766 E8.26695
G1 X134.629 Y72.384 E8.28751
G1 X134.626 Y122.387 E9.95061
G1 X134.616 Y123.089 E9.97397
G1 X134.563 Y124.008 E10.00458
G1 X134.447 Y124.831 E10.03223
G1 X134.355 Y125.338 E10.04936
G1 X134.117 Y126.357 E10.08417
G1 X133.958 Y126.896 E10.10286
G1 X133.778 Y127.447 E10.12214
G1 X133.677 Y127.738 E10.13238
G1 X133.178 Y128.934 E10.17549
G1 X132.987 Y129.323 E10.1899
G1 X132.513 Y130.184 E10.22259
G1 X132.431 Y130.318 E10.22782
G1 X131.917 Y131.082 E10.25844
G1 X131.339 Y131.798 E10.28905
G1 X130.7 Y132.461 E10.31967
G1 X130.007 Y133.066 E10.35027
G1 X129.263 Y133.609 E10.38091
G1 X128.475 Y134.086 E10.41154
G1 X127.649 Y134.492 E10.44215
G1 X126.791 Y134.825 E10.47277
G1 X125.907 Y135.082 E10.50339
G1 X125.004 Y135.261 E10.534
G1 X124.089 Y135.362 E10.56462
G1 X123.558 Y135.384 E10.5823
G1 X122.823 Y135.394 E10.60675
G1 X93.247 Y135.392 E11.59045
G1 X92.547 Y135.382 E11.61373
G1 X91.627 Y135.329 E11.64438
G1 X90.716 Y135.196 E11.675
G1 X89.82 Y134.985 E11.70562
G1 X88.946 Y134.697 E11.73623
G1 X88.1 Y134.334 E11.76685
G1 X87.288 Y133.899 E11.79748
G1 X86.518 Y133.395 E11.82809
G1 X85.794 Y132.826 E11.85872
G1 X85.122 Y132.197 E11.88933
G1 X84.507 Y131.511 E11.91998
G1 X83.954 Y130.775 E11.9506
G1 X83.256 Y129.601 E11.99602
G1 X82.854 Y128.79 E12.02613
G1 X82.427 Y127.747 E12.06361
G1 X82.316 Y127.429 E12.07482
G1 X82.197 Y127.066 E12.08752
G1 X82.108 Y126.778 E12.09755
G1 X81.877 Y125.9 E12.12775
G1 X81.74 Y125.27 E12.14919
G1 X81.584 Y124.363 E12.1798
G1 X81.504 Y123.368 E12.213
G1 X81.48 Y122.642 E12.23716
G1 X81.474 Y122.292 E12.2488
G1 X81.476 Y100.742 E12.96556
G1 X81.495 Y99.427 E13.0093
G1 X81.546 Y97.615 E13.06959
G1 X81.546 Y95.043 E13.15514
G1 X81.516 Y93.691 E13.20011
G1 X81.475 Y92.156 E13.25119
G1 X81.477 Y72.589 E13.90199
G1 X81.487 Y71.909 E13.92461
G1 X81.541 Y70.99 E13.95523
G1 X81.674 Y70.079 E13.98585
G1 X81.885 Y69.183 E14.01646
G1 X82.174 Y68.309 E14.04708
G1 X82.537 Y67.463 E14.0777
G1 X82.973 Y66.652 E14.10833
G1 X83.477 Y65.881 E14.13896
G1 X84.046 Y65.158 E14.16956
G1 X84.675 Y64.486 E14.20018
G1 X85.361 Y63.871 E14.23082
G1 X86.097 Y63.319 E14.26142
G1 X86.879 Y62.832 E14.29206
G1 X87.7 Y62.415 E14.32269
G1 X88.553 Y62.071 E14.35328
G1 X89.434 Y61.802 E14.38392
G1 X90.335 Y61.611 E14.41455
G1 X91.248 Y61.498 E14.44515
G1 X91.727 Y61.471 E14.4611
G1 X92.052 Y61.46 E14.47192
G1 X92.411 Y61.454 E14.48386
G1 X123.323 Y61.455 E15.512
G1 X124.172 Y61.466 E15.54024
G0 F6000 X124.178 Y61.066
G1 F1200 X125.114 Y61.12 E15.57142
G1 X126.043 Y61.253 E15.60264
G1 X126.956 Y61.464 E15.6338
G1 X127.849 Y61.753 E15.66502
G1 X128.713 Y62.116 E15.69619
G1 X129.543 Y62.552 E15.72737
G1 X130.334 Y63.057 E15.75859
G1 X131.078 Y63.628 E15.78978
G1 X131.771 Y64.26 E15.82098
G1 X132.408 Y64.949 E15.85219
G1 X132.984 Y65.689 E15.88337
G1 X133.494 Y66.476 E15.91457
G1 X133.936 Y67.303 E15.94575
G1 X134.305 Y68.165 E15.97694
G1 X134.6 Y69.055 E16.00813
G1 X134.818 Y69.967 E16.03931
G1 X134.958 Y70.895 E16.07053
G1 X135.016 Y71.755 E16.0992
G1 X135.029 Y72.384 E16.12012
G1 X135.026 Y122.393 E17.78343
G1 X135.016 Y123.095 E17.80678
G1 X134.963 Y124.031 E17.83796
G1 X134.84 Y124.902 E17.86722
G1 X134.748 Y125.409 E17.88436
G1 X134.502 Y126.467 E17.92048
G1 X134.44 Y126.684 E17.92799
G1 X134.156 Y127.578 E17.95919
G1 X134.055 Y127.869 E17.96943
G1 X133.537 Y129.11 E18.01416
G1 X133.346 Y129.499 E18.02858
G1 X132.855 Y130.393 E18.0625
G1 X132.773 Y130.527 E18.06772
G1 X132.249 Y131.305 E18.09892
G1 X131.662 Y132.036 E18.1301
G1 X131.014 Y132.714 E18.1613
G1 X130.311 Y133.335 E18.1925
G1 X129.558 Y133.893 E18.22367
G1 X128.759 Y134.386 E18.25489
G1 X127.922 Y134.808 E18.28607
G1 X127.052 Y135.158 E18.31726
G1 X126.155 Y135.432 E18.34846
G1 X125.238 Y135.629 E18.37965
G1 X124.307 Y135.747 E18.41086
G1 X123.565 Y135.784 E18.43557
G1 X122.823 Y135.794 E18.46026
G1 X93.241 Y135.792 E19.44416
G1 X92.541 Y135.782 E19.46744
G1 X91.605 Y135.729 E19.49862
G1 X90.676 Y135.596 E19.52984
G1 X89.762 Y135.384 E19.56104
G1 X88.87 Y135.095 E19.59223
G1 X88.006 Y134.732 E19.6234
G1 X87.175 Y134.296 E19.65461
G1 X86.385 Y133.791 E19.6858
G1 X85.64 Y133.22 E19.71702
G1 X84.947 Y132.589 E19.74819
G1 X84.311 Y131.9 E19.77938
G1 X83.735 Y131.16 E19.81057
G1 X83.224 Y130.373 E19.84178
G1 X82.9 Y129.783 E19.86416
G1 X82.493 Y128.961 E19.89467
G1 X82.05 Y127.879 E19.93356
G1 X81.939 Y127.561 E19.94476
G1 X81.814 Y127.184 E19.95797
G1 X81.725 Y126.896 E19.968
G1 X81.486 Y125.985 E19.99932
G1 X81.349 Y125.355 E20.02077
G1 X81.189 Y124.431 E20.05196
G1 X81.104 Y123.381 E20.08699
G1 X81.08 Y122.655 E20.11115
G1 X81.074 Y122.291 E20.12326
G1 X81.076 Y100.737 E20.84015
G1 X81.095 Y99.416 E20.88409
G1 X81.146 Y97.604 E20.94438
G1 X81.146 Y95.052 E21.02926
G1 X81.116 Y93.7 E21.07424
G1 X81.075 Y92.156 E21.12561
G1 X81.077 Y72.583 E21.77661
G1 X81.087 Y71.903 E21.79923
G1 X81.141 Y70.967 E21.83042
G1 X81.274 Y70.039 E21.8616
G1 X81.486 Y69.125 E21.8928
G1 X81.775 Y68.233 E21.92399
G1 X82.139 Y67.368 E21.9552
G1 X82.575 Y66.538 E21.98639
G1 X83.081 Y65.748 E22.01759
G1 X83.652 Y65.004 E22.04878
G1 X84.284 Y64.311 E22.07998
G1 X84.973 Y63.675 E22.11117
G1 X85.713 Y63.099 E22.14235
G1 X86.5 Y62.589 E22.17355
G1 X87.328 Y62.148 E22.20475
G1 X88.19 Y61.778 E22.23595
G1 X89.08 Y61.484 E22.26712
G1 X89.992 Y61.266 E22.29831
G1 X90.92 Y61.127 E22.32952
G1 X91.714 Y61.071 E22.35599
G1 X92.039 Y61.06 E22.36681
G1 X92.411 Y61.054 E22.37918
G1 X123.323 Y61.055 E23.40732
G1 X124.178 Y61.066 E23.43576
G1 F1500 E16.93576
;MESH:Object 3
G0 F6000 X123.609 Y71.389
G0 X123.609 Y72.475
G0 X123.242 Y122.64
G0 X123.032 Y124.194
;TYPE:WALL-INNER
G1 F1500 E23.43576
G1 F1200 X93.064 Y124.193 E24.4325
G1 X92.995 Y124.056 E24.4376
G1 X92.97 Y123.953 E24.44113
G1 X92.922 Y123.808 E24.44621
G1 X92.83 Y123.489 E24.45725
G1 X92.814 Y123.463 E24.45827
G1 X92.781 Y123.325 E24.46299
G1 X92.747 Y123.256 E24.46554
G1 X92.674 Y122.889 E24.47799
G1 X92.675 Y100.783 E25.21324
G1 X103.627 Y100.783 E25.5775
G1 X103.637 Y101.183 E25.59081
G1 X103.636 Y115.412 E26.06407
G1 X103.782 Y115.964 E26.08306
G1 X112.268 Y115.965 E26.36531
G1 X112.467 Y115.965 E26.37193
G1 X112.467 Y115.766 E26.37621
G1 X112.468 Y79.661 E27.57706
G1 X112.468 Y79.462 E27.58368
G1 X112.269 Y79.462 E27.58797
G1 X103.648 Y79.462 E27.8747
G1 X103.637 Y83.507 E28.00924
G1 X103.637 Y91.872 E28.28746
G1 X92.874 Y91.872 E28.64544
G1 X92.675 Y91.872 E28.65206
G1 X92.675 Y91.673 E28.65634
G1 X92.676 Y72.654 E29.28891
G1 X123.23 Y72.655 E30.30514
G1 X123.429 Y72.655 E30.31176
G1 X123.429 Y72.854 E30.31605
G1 X123.427 Y122.699 E31.9739
G1 X123.409 Y122.717 E31.97474
G1 X123.372 Y123.167 E31.98976
G1 X123.359 Y123.244 E31.99236
G1 X123.275 Y123.354 E31.99696
G1 X123.275 Y123.547 E32.00338
G1 X123.268 Y123.575 E32.00434
G1 X123.236 Y123.65 E32.00705
G1 X123.179 Y123.818 E32.01295
G1 X123.163 Y123.889 E32.01537
G1 X123.109 Y124.05 E32.02102
G1 X123.086 Y124.085 E32.02242
G1 X123.032 Y124.194 E32.02646
G0 F6000 X123.286 Y124.594
;TYPE:WALL-OUTER
G1 F1200 X92.816 Y124.593 E33.0399
G1 X92.618 Y124.197 E33.05462
G1 X92.585 Y124.064 E33.05918
G1 X92.542 Y123.934 E33.06374
G1 X92.461 Y123.654 E33.07343
G1 X92.426 Y123.598 E33.07563
G1 X92.426 Y123.562 E33.07682
G1 X92.402 Y123.461 E33.08028
G1 X92.366 Y123.388 E33.08298
G1 X92.274 Y122.927 E33.09862
G1 X92.275 Y100.383 E33.84844
G1 X104.018 Y100.383 E34.23901
G1 X104.037 Y101.183 E34.26562
G1 X104.036 Y115.36 E34.73715
G1 X104.09 Y115.564 E34.74417
G1 X112.067 Y115.565 E35.00949
G1 X112.068 Y79.862 E36.19698
G1 X104.047 Y79.862 E36.46375
G1 X104.037 Y83.508 E36.58502
G1 X104.037 Y92.272 E36.87651
G1 X92.275 Y92.272 E37.26772
G1 X92.276 Y72.254 E37.93352
G1 X123.829 Y72.255 E38.98298
G1 X123.827 Y122.865 E40.66627
G1 X123.797 Y122.895 E40.66768
G1 X123.778 Y123.146 E40.67606
G1 X123.766 Y123.235 E40.67904
G1 X123.736 Y123.409 E40.68492
G1 X123.675 Y123.489 E40.68826
G1 X123.675 Y123.596 E40.69182
G1 X123.648 Y123.704 E40.69552
G1 X123.61 Y123.793 E40.69874
G1 X123.565 Y123.926 E40.70341
G1 X123.549 Y123.997 E40.70583
G1 X123.485 Y124.192 E40.71266
G1 X123.46 Y124.244 E40.71458
G1 X123.434 Y124.284 E40.71616
G1 X123.353 Y124.446 E40.72219
G1 X123.286 Y124.594 E40.72759
G0 F6000 X123.048 Y124.154
G0 X122.78 Y123.804
;TYPE:SKIN
G1 F1200 X93.331 Y123.803 E41.70707
G1 X93.293 Y123.686 E41.71116
G1 X93.19 Y123.329 E41.72352
G1 X93.179 Y123.31 E41.72425
G1 X93.149 Y123.191 E41.72833
G1 X93.119 Y123.13 E41.73059
G1 X93.064 Y122.853 E41.73999
G1 X93.065 Y101.173 E42.46107
G1 X103.247 Y101.173 E42.79972
G1 X103.246 Y115.463 E43.27501
G1 X103.482 Y116.354 E43.30566
G1 X112.857 Y116.355 E43.61748
G1 X112.858 Y79.072 E44.85752
G1 X103.26 Y79.072 E45.17675
G1 X103.247 Y83.505 E45.32419
G1 X103.247 Y91.482 E45.58951
G1 X93.065 Y91.482 E45.92816
G1 X93.066 Y73.044 E46.54141
G1 X123.039 Y73.045 E47.53832
G1 X123.032 Y122.542 E49.18459
G1 X122.988 Y123.086 E49.20275
G1 X122.885 Y123.222 E49.20842
G1 X122.885 Y123.479 E49.21697
G1 X122.871 Y123.511 E49.21813
G1 X122.803 Y123.712 E49.22519
G1 X122.78 Y123.804 E49.22834
G0 F6000 X122.779 Y124.083
G0 X93.659 Y124.083
G0 X93.66 Y123.641
G1 F1200 X93.36 Y123.341 E49.24245
G0 F6000 X93.223 Y122.639
G1 F1200 X94.226 Y123.641 E49.28961
G0 F6000 X94.791 Y123.641
G1 F1200 X93.223 Y122.073 E49.36336
G0 F6000 X93.223 Y121.507
G1 F1200 X95.357 Y123.641 E49.46374
G0 F6000 X95.923 Y123.641
G1 F1200 X93.223 Y120.942 E49.59071
G0 F6000 X93.223 Y120.376
G1 F1200 X96.488 Y123.641 E49.74429
G0 F6000 X97.054 Y123.641
G1 F1200 X93.223 Y119.81 E49.92449
G0 F6000 X93.223 Y119.245
G1 F1200 X97.62 Y123.641 E50.13129
G0 F6000 X98.186 Y123.641
G1 F1200 X93.223 Y118.679 E50.36471
G0 F6000 X93.223 Y118.113
G1 F1200 X98.751 Y123.641 E50.62473
G0 F6000 X99.317 Y123.641
G1 F1200 X93.223 Y117.548 E50.91135
G0 F6000 X93.223 Y116.982
G1 F1200 X99.883 Y123.641 E51.22459
G0 F6000 X100.448 Y123.641
G1 F1200 X93.223 Y116.416 E51.56443
G0 F6000 X93.223 Y115.85
G1 F1200 X101.014 Y123.641 E51.9309
G0 F6000 X101.58 Y123.641
G1 F1200 X93.223 Y115.285 E52.32396
G0 F6000 X93.223 Y114.719
G1 F1200 X102.145 Y123.641 E52.74362
G0 F6000 X102.711 Y123.641
G1 F1200 X93.223 Y114.153 E53.18991
G0 F6000 X93.223 Y113.588
G1 F1200 X103.277 Y123.641 E53.6628
G0 F6000 X103.842 Y123.641
G1 F1200 X93.223 Y113.022 E54.16228
G0 F6000 X93.223 Y112.456
G1 F1200 X104.408 Y123.641 E54.68839
G0 F6000 X104.974 Y123.641
G1 F1200 X93.224 Y111.891 E55.24107
G0 F6000 X93.224 Y111.326
G1 F1200 X105.539 Y123.641 E55.82033
G0 F6000 X106.105 Y123.641
G1 F1200 X93.224 Y110.76 E56.42621
G0 F6000 X93.224 Y110.194
G1 F1200 X106.671 Y123.641 E57.05872
G0 F6000 X107.236 Y123.641
G1 F1200 X93.224 Y109.629 E57.7178
G0 F6000 X93.224 Y109.063
G1 F1200 X107.802 Y123.641 E58.40351
G0 F6000 X108.369 Y123.642
G1 F1200 X93.224 Y108.497 E59.11588
G0 F6000 X93.224 Y107.932
G1 F1200 X108.934 Y123.642 E59.85483
G0 F6000 X109.5 Y123.642
G1 F1200 X93.224 Y107.366 E60.6204
G0 F6000 X93.224 Y106.8
G1 F1200 X110.066 Y123.642 E61.4126
G0 F6000 X110.631 Y123.642
G1 F1200 X103.502 Y116.513 E61.74793
G0 F6000 X103.307 Y116.318
G1 F1200 X93.224 Y106.235 E62.2222
G0 F6000 X93.224 Y105.669
G1 F1200 X103.103 Y115.548 E62.68688
G0 F6000 X103.086 Y114.965
G1 F1200 X93.224 Y105.103 E63.15076
G0 F6000 X93.224 Y104.537
G1 F1200 X103.086 Y114.399 E63.61463
G0 F6000 X103.086 Y113.834
G1 F1200 X93.224 Y103.972 E64.07851
G0 F6000 X93.224 Y103.406
G1 F1200 X103.086 Y113.268 E64.54239
G0 F6000 X103.086 Y112.702
G1 F1200 X93.224 Y102.84 E65.00627
G0 F6000 X93.224 Y102.275
G1 F1200 X103.086 Y112.137 E65.47015
G0 F6000 X103.086 Y111.571
G1 F1200 X93.224 Y101.709 E65.93403
G0 F6000 X93.413 Y101.332
G1 F1200 X103.086 Y111.005 E66.38901
G0 F6000 X103.086 Y110.44
G1 F1200 X93.978 Y101.332 E66.81743
G0 F6000 X94.544 Y101.332
G1 F1200 X103.086 Y109.874 E67.21922
