;FLAVOR:Marlin
;TIME:24247
;Filament used: 31.4419m
;Layer height: 0.3
;MINX:72.25
;MINY:25.586
;MINZ:0.2
;MAXX:132.944
;MAXY:163.559
;MAXZ:59.9
;Generated with Cura_SteamEngine 4.6.2
M140 S55
M105
M190 S55
M104 S210
M105
M109 S210
M82 ;absolute extrusion mode
; Ender 3 Custom Start G-code
G92 E0 ; Reset Extruder
G28 ; Home all axes
G1 Z2.0 F3000 ; Move Z Axis up little to prevent scratching of Heat Bed
G1 X0.1 Y20 Z0.3 F5000.0 ; Move to start position
G1 X0.1 Y200.0 Z0.3 F1500.0 E15 ; Draw the first line
G1 X0.4 Y200.0 Z0.3 F5000.0 ; Move to side a little
G1 X0.4 Y20 Z0.3 F1500.0 E30 ; Draw the second line
G92 E0 ; Reset Extruder
G1 Z2.0 F3000 ; Move Z Axis up little to prevent scratching of Heat Bed
G1 X5 Y20 Z0.3 F5000.0 ; Move over to prevent blob squish
G92 E0
G92 E0
G1 F1500 E-6.5
;LAYER_COUNT:200
;LAYER:0
M107
;MESH:Object 3
G0 F6000 X99.939 Y163.153 Z0.2
;TYPE:WALL-INNER
G1 F1500 E0
G1 F1200 X94.72 Y163.157 E0.17358
G1 X93.126 Y161.489 E0.25032
G1 X93.124 Y160.935 E0.26875
G1 X94.048 Y160.9 E0.2995
G1 X94.197 Y160.851 E0.30472
G1 X94.397 Y160.847 E0.31137
G1 X94.503 Y160.743 E0.31631
G1 X94.739 Y160.735 E0.32417
G1 X95.001 Y159.946 E0.35182
G1 X95.002 Y159.749 E0.35837
G1 X95.002 Y157.555 E0.43134
G1 X94.349 Y157.518 E0.4531
G1 X80.122 Y157.517 E0.92629
G1 X79.579 Y157.668 E0.94503
G1 X79.578 Y159.851 E1.01764
G1 X79.734 Y160.247 E1.0318
G1 X79.736 Y160.345 E1.03506
G1 X80.101 Y160.72 E1.05246
G1 X80.389 Y160.818 E1.06258
G1 X80.723 Y160.95 E1.07452
G1 X81.558 Y160.951 E1.1023
G1 X81.559 Y161.477 E1.11979
G1 X79.929 Y163.15 E1.19748
G1 X74.751 Y163.154 E1.3697
G1 X73.111 Y161.48 E1.44765
G1 X73.109 Y161.151 E1.45859
G1 X73.109 Y160.952 E1.46521
G1 X73.308 Y160.952 E1.46949
G1 X73.94 Y160.95 E1.49051
G1 X74.195 Y160.849 E1.49963
G1 X74.432 Y160.849 E1.50751
G1 X75.034 Y160.245 E1.53588
G1 X75.038 Y159.745 E1.55251
G1 X75.038 Y157.52 E1.62651
G1 X72.651 Y157.515 E1.7059
G1 X72.653 Y151.948 E1.89106
G1 X72.66 Y105.569 E3.43364
G1 X72.66 Y105.37 E3.44025
G1 X72.859 Y105.37 E3.44454
G1 X120.765 Y105.378 E5.0379
G1 X120.772 Y104.663 E5.06168
G1 X120.786 Y27.046 E7.64323
G1 X120.786 Y26.847 E7.64985
G1 X120.985 Y26.847 E7.65413
G1 X131.62 Y26.849 E8.00785
G1 X131.611 Y82.84 E9.87012
G1 X131.603 Y129.88 E11.43468
G1 X131.598 Y157.525 E12.35415
G1 X99.607 Y157.52 E13.41818
G1 X99.593 Y159.939 E13.49864
G1 X99.7 Y160.265 E13.51005
G1 X100.022 Y160.744 E13.52925
G1 X100.25 Y160.748 E13.53683
G1 X100.661 Y160.953 E13.55211
G1 X101.522 Y160.954 E13.58074
G1 X101.523 Y161.484 E13.59837
G1 X99.939 Y163.153 E13.6749
G0 F6000 X100.111 Y163.553
;TYPE:WALL-OUTER
G1 F1200 X94.55 Y163.557 E13.85986
G1 X92.726 Y161.649 E13.94766
G1 X92.723 Y160.549 E13.98424
G1 X93.977 Y160.502 E14.02598
G1 X94.129 Y160.452 E14.0313
G1 X94.23 Y160.45 E14.03466
G1 X94.333 Y160.349 E14.03946
G1 X94.447 Y160.345 E14.04325
G1 X94.601 Y159.88 E14.05955
G1 X94.602 Y159.747 E14.06397
G1 X94.602 Y157.933 E14.1243
G1 X94.338 Y157.918 E14.1331
G1 X80.177 Y157.917 E14.60409
G1 X79.979 Y157.972 E14.61093
G1 X79.978 Y159.775 E14.6709
G1 X80.108 Y160.104 E14.68266
G1 X80.132 Y160.128 E14.68379
G1 X80.133 Y160.179 E14.68549
G1 X80.321 Y160.372 E14.69445
G1 X80.518 Y160.439 E14.70137
G1 X80.799 Y160.55 E14.71142
G1 X81.957 Y160.551 E14.74994
G1 X81.959 Y161.639 E14.78612
G1 X80.097 Y163.55 E14.87487
G1 X74.583 Y163.554 E15.05826
G1 X72.711 Y161.644 E15.14721
G1 X72.708 Y160.553 E15.1835
G1 X73.863 Y160.55 E15.22192
G1 X74.119 Y160.449 E15.23107
G1 X74.266 Y160.449 E15.23596
G1 X74.635 Y160.078 E15.25336
G1 X74.638 Y159.743 E15.2645
G1 X74.638 Y157.919 E15.32517
G1 X72.251 Y157.914 E15.40456
G1 X72.253 Y151.948 E15.60299
G1 X72.26 Y104.97 E17.16549
G1 X120.369 Y104.978 E18.7656
G1 X120.372 Y104.661 E18.77614
G1 X120.386 Y26.447 E21.37755
G1 X132.02 Y26.449 E21.7645
G1 X132.011 Y82.84 E23.64007
G1 X132.003 Y129.88 E25.20463
G1 X131.998 Y157.925 E26.13741
G1 X100.005 Y157.92 E27.2015
G1 X99.993 Y159.876 E27.26656
G1 X100.063 Y160.087 E27.27395
G1 X100.238 Y160.348 E27.2844
G1 X100.347 Y160.35 E27.28803
G1 X100.755 Y160.553 E27.30319
G1 X101.921 Y160.555 E27.34197
G1 X101.923 Y161.643 E27.37816
G1 X100.111 Y163.553 E27.46572
G0 F6000 X99.938 Y163.149
G0 X99.771 Y162.763
;TYPE:SKIN
G1 F1200 X94.887 Y162.767 E27.62816
G1 X93.516 Y161.332 E27.69417
G1 X93.516 Y161.311 E27.69487
G1 X94.118 Y161.288 E27.71491
G1 X94.263 Y161.239 E27.72
G1 X94.559 Y161.233 E27.72985
G1 X94.667 Y161.127 E27.73488
G1 X95.024 Y161.115 E27.74676
G1 X95.391 Y160.01 E27.78549
G1 X95.392 Y159.751 E27.7941
G1 X95.393 Y157.187 E27.87938
G1 X94.36 Y157.128 E27.9138
G1 X80.069 Y157.127 E28.38912
G1 X79.189 Y157.372 E28.4195
G1 X79.188 Y159.925 E28.50441
G1 X79.346 Y160.326 E28.51875
G1 X79.35 Y160.507 E28.52477
G1 X79.887 Y161.059 E28.55038
G1 X80.245 Y161.181 E28.56296
G1 X80.649 Y161.34 E28.5774
G1 X81.147 Y161.341 E28.59397
G1 X79.764 Y162.76 E28.65987
G1 X74.915 Y162.764 E28.82115
G1 X73.522 Y161.341 E28.88738
G1 X74.014 Y161.34 E28.90374
G1 X74.271 Y161.239 E28.91293
G1 X74.594 Y161.239 E28.92367
G1 X75.422 Y160.407 E28.96271
G1 X75.428 Y159.747 E28.98466
G1 X75.428 Y157.13 E29.07171
G1 X73.041 Y157.125 E29.1511
G1 X73.043 Y151.948 E29.32329
G1 X73.05 Y105.76 E30.85951
G1 X121.151 Y105.768 E32.45935
G1 X121.162 Y104.665 E32.49604
G1 X121.176 Y27.237 E35.0713
G1 X131.23 Y27.239 E35.4057
G1 X131.221 Y82.84 E37.255
G1 X131.213 Y129.88 E38.81956
G1 X131.208 Y157.135 E39.72606
G1 X99.219 Y157.13 E40.79002
G1 X99.203 Y160 E40.88548
G1 X99.347 Y160.438 E40.90081
G1 X99.812 Y161.13 E40.92854
G1 X100.155 Y161.136 E40.93995
G1 X100.569 Y161.343 E40.95535
G1 X101.118 Y161.344 E40.97361
G1 X99.771 Y162.763 E41.03868
G1 F1500 E34.53868
G0 F6000 X99.973 Y162.956
G0 X94.312 Y162.976
G0 X92.963 Y161.554
G0 X92.952 Y160.769
G0 X94.328 Y160.684
G0 X94.616 Y160.572
G0 X94.84 Y159.919
G0 X94.831 Y157.717
G0 X80.145 Y157.678
G0 X79.748 Y157.796
G0 X79.739 Y159.82
G0 X79.899 Y160.277
G0 X80.19 Y160.579
G0 X80.754 Y160.789
G0 X81.729 Y160.779
G0 X81.722 Y161.543
G0 X80.287 Y163.026
G0 X75.487 Y163.044
G0 X75.487 Y162.602
G1 F1500 E41.03868
G1 F1200 X74.287 Y161.403 E41.0951
G0 F6000 X74.753 Y161.303
G1 F1200 X76.052 Y162.602 E41.1562
G0 F6000 X76.617 Y162.601
G1 F1200 X75.036 Y161.02 E41.23057
G0 F6000 X75.318 Y160.736
G1 F1200 X77.182 Y162.601 E41.31827
G0 F6000 X77.747 Y162.6
G1 F1200 X75.581 Y160.434 E41.42015
G0 F6000 X75.586 Y159.873
G1 F1200 X78.312 Y162.599 E41.54837
G0 F6000 X78.878 Y162.599
G1 F1200 X75.587 Y159.309 E41.70315
G0 F6000 X75.587 Y158.743
G1 F1200 X79.443 Y162.599 E41.88452
G0 F6000 X79.851 Y162.441
G1 F1200 X75.587 Y158.177 E42.08509
G0 F6000 X75.587 Y157.611
G1 F1200 X80.13 Y162.154 E42.29878
G0 F6000 X80.409 Y161.868
G1 F1200 X75.587 Y157.046 E42.52559
G0 F6000 X75.509 Y156.968
G1 F1200 X73.201 Y154.659 E42.63417
G0 F6000 X73.201 Y154.094
G1 F1200 X79.029 Y159.922 E42.90831
G0 F6000 X79.029 Y159.356
G1 F1200 X73.201 Y153.529 E43.18241
G0 F6000 X73.201 Y152.963
G1 F1200 X79.029 Y158.79 E43.45652
G0 F6000 X79.029 Y158.225
G1 F1200 X73.201 Y152.397 E43.73065
G0 F6000 X73.202 Y151.832
G1 F1200 X79.029 Y157.659 E44.00474
G0 F6000 X79.151 Y157.216
G1 F1200 X73.202 Y151.267 E44.28456
G0 F6000 X73.202 Y150.701
G1 F1200 X79.594 Y157.092 E44.5852
G0 F6000 X80.036 Y156.969
G1 F1200 X73.202 Y150.135 E44.90665
G0 F6000 X73.202 Y149.57
G1 F1200 X80.598 Y156.966 E45.25453
G0 F6000 X81.164 Y156.966
G1 F1200 X73.202 Y149.004 E45.62904
G0 F6000 X73.202 Y148.438
G1 F1200 X81.73 Y156.966 E46.03017
G0 F6000 X82.295 Y156.966
G1 F1200 X73.202 Y147.872 E46.4579
G0 F6000 X73.203 Y147.308
G1 F1200 X82.861 Y156.966 E46.91218
G0 F6000 X83.427 Y156.966
G1 F1200 X73.203 Y146.742 E47.39309
G0 F6000 X73.203 Y146.176
G1 F1200 X83.992 Y156.966 E47.90059
G0 F6000 X84.558 Y156.966
G1 F1200 X73.203 Y145.61 E48.43472
G0 F6000 X73.203 Y145.045
G1 F1200 X85.124 Y156.966 E48.99545
G0 F6000 X85.69 Y156.966
G1 F1200 X73.203 Y144.479 E49.5828
G0 F6000 X73.203 Y143.913
G1 F1200 X86.255 Y156.966 E50.19675
G0 F6000 X86.821 Y156.966
G1 F1200 X73.203 Y143.348 E50.8373
G0 F6000 X73.203 Y142.783
G1 F1200 X87.387 Y156.966 E51.50445
G0 F6000 X87.952 Y156.966
G1 F1200 X73.203 Y142.217 E52.19819
G0 F6000 X73.203 Y141.651
G1 F1200 X88.518 Y156.966 E52.91856
G0 F6000 X89.084 Y156.966
G1 F1200 X73.203 Y141.086 E53.66553
G0 F6000 X73.203 Y140.52
G1 F1200 X89.649 Y156.966 E54.4391
G0 F6000 X90.215 Y156.966
G1 F1200 X73.203 Y139.954 E55.2393
G0 F6000 X73.204 Y139.389
G1 F1200 X90.781 Y156.966 E56.06606
G0 F6000 X91.346 Y156.966
G1 F1200 X73.204 Y138.824 E56.91941
G0 F6000 X73.204 Y138.258
G1 F1200 X91.912 Y156.966 E57.79938
G0 F6000 X92.478 Y156.966
G1 F1200 X73.204 Y137.692 E58.70597
G0 F6000 X73.204 Y137.127
G1 F1200 X93.043 Y156.966 E59.63913
G0 F6000 X93.609 Y156.966
G1 F1200 X73.204 Y136.561 E60.59892
G0 F6000 X73.204 Y135.995
G1 F1200 X94.175 Y156.966 E61.58533
G0 F6000 X94.764 Y156.989
G1 F1200 X73.204 Y135.43 E62.59942
G0 F6000 X73.205 Y134.865
G1 F1200 X95.364 Y157.024 E63.64172
G0 F6000 X95.553 Y157.213
G1 F1200 X100.306 Y161.966 E63.86528
G0 F6000 X100.03 Y162.256
G1 F1200 X95.553 Y157.778 E64.07589
G0 F6000 X95.552 Y158.343
G1 F1200 X99.755 Y162.546 E64.27359
G0 F6000 X99.245 Y162.602
G1 F1200 X95.552 Y158.908 E64.44732
G0 F6000 X95.552 Y159.474
G1 F1200 X98.68 Y162.602 E64.59445
G0 F6000 X98.115 Y162.603
G1 F1200 X95.549 Y160.038 E64.71512
G0 F6000 X95.409 Y160.463
G1 F1200 X97.549 Y162.603 E64.81578
G0 F6000 X96.984 Y162.604
G1 F1200 X95.267 Y160.887 E64.89654
G0 F6000 X95.086 Y161.271
G1 F1200 X96.419 Y162.604 E64.95924
G0 F6000 X95.853 Y162.604
G1 F1200 X94.632 Y161.383 E65.01668
G0 F6000 X94.13 Y161.447
G1 F1200 X95.289 Y162.605 E65.07117
G0 F6000 X95.289 Y163.047
G0 X99.864 Y162.979
G0 X101.35 Y161.414
G0 X101.34 Y161.136
G0 X99.887 Y160.493
G0 X99.516 Y160.055
G0 X99.098 Y160.192
G1 F1200 X73.205 Y134.299 E66.28909
G0 F6000 X73.205 Y133.733
G1 F1200 X99.045 Y159.574 E67.50455
G0 F6000 X99.048 Y159.011
G1 F1200 X73.205 Y133.168 E68.72013
G0 F6000 X73.205 Y132.602
G1 F1200 X99.052 Y158.449 E69.93589
G0 F6000 X99.055 Y157.886
G1 F1200 X73.205 Y132.036 E71.1518
G0 F6000 X73.205 Y131.47
G1 F1200 X99.058 Y157.324 E72.36787
G0 F6000 X99.269 Y156.969
G1 F1200 X73.206 Y130.905 E73.59381
G0 F6000 X73.206 Y130.34
G1 F1200 X99.834 Y156.969 E74.84634
G0 F6000 X100.4 Y156.969
G1 F1200 X73.206 Y129.774 E76.12548
G0 F6000 X73.206 Y129.208
G1 F1200 X100.966 Y156.969 E77.43125
G0 F6000 X101.532 Y156.969
G1 F1200 X73.206 Y128.643 E78.76362
G0 F6000 X73.206 Y128.077
G1 F1200 X102.097 Y156.969 E80.12259
G0 F6000 X102.663 Y156.969
G1 F1200 X73.206 Y127.511 E81.50818
G0 F6000 X73.206 Y126.946
G1 F1200 X103.229 Y156.969 E82.92037
G0 F6000 X103.795 Y156.969
G1 F1200 X73.206 Y126.381 E84.35916
G0 F6000 X73.206 Y125.815
G1 F1200 X104.361 Y156.969 E85.82457
G0 F6000 X104.926 Y156.969
G1 F1200 X73.206 Y125.249 E87.31658
G0 F6000 X73.206 Y124.684
G1 F1200 X105.492 Y156.969 E88.83519
G0 F6000 X106.058 Y156.969
G1 F1200 X73.206 Y124.118 E90.38042
G0 F6000 X73.206 Y123.552
G1 F1200 X106.623 Y156.969 E91.95226
G0 F6000 X107.19 Y156.97
G1 F1200 X73.206 Y122.987 E93.55074
G0 F6000 X73.207 Y122.422
G1 F1200 X107.756 Y156.97 E95.17579
G0 F6000 X108.321 Y156.97
G1 F1200 X73.207 Y121.856 E96.82745
G0 F6000 X73.207 Y121.29
G1 F1200 X108.887 Y156.97 E98.50573
G0 F6000 X109.453 Y156.97
G1 F1200 X73.207 Y120.725 E100.2106
G0 F6000 X73.207 Y120.159
G1 F1200 X110.018 Y156.97 E101.94208
G0 F6000 X110.584 Y156.97
G1 F1200 X73.207 Y119.593 E103.70018
G0 F6000 X73.207 Y119.027
G1 F1200 X111.15 Y156.971 E105.48493
G0 F6000 X111.716 Y156.971
G1 F1200 X73.208 Y118.463 E107.29622
G0 F6000 X73.208 Y117.897
G1 F1200 X112.282 Y156.971 E109.13414
G0 F6000 X112.847 Y156.971
G1 F1200 X73.208 Y117.331 E110.99867
G0 F6000 X73.208 Y116.765
G1 F1200 X113.413 Y156.971 E112.88981
G0 F6000 X113.979 Y156.971
G1 F1200 X73.208 Y116.2 E114.80755
G0 F6000 X73.208 Y115.634
G1 F1200 X114.544 Y156.971 E116.75189
G0 F6000 X115.111 Y156.972
G1 F1200 X73.208 Y115.068 E118.72291
G0 F6000 X73.208 Y114.503
G1 F1200 X115.677 Y156.972 E120.72052
G0 F6000 X116.242 Y156.972
G1 F1200 X73.208 Y113.938 E122.7447
G0 F6000 X73.208 Y113.372
G1 F1200 X116.808 Y156.972 E124.79552
G0 F6000 X117.374 Y156.972
G1 F1200 X73.208 Y112.806 E126.87295
G0 F6000 X73.208 Y112.241
G1 F1200 X117.939 Y156.972 E128.97696
G0 F6000 X118.505 Y156.972
G1 F1200 X73.208 Y111.675 E131.10759
G0 F6000 X73.208 Y111.109
G1 F1200 X119.071 Y156.972 E133.26484
G0 F6000 X119.637 Y156.972
G1 F1200 X73.208 Y110.544 E135.4487
G0 F6000 X73.209 Y109.979
G1 F1200 X120.203 Y156.972 E137.65913
G0 F6000 X120.768 Y156.972
G1 F1200 X73.209 Y109.413 E139.89616
G0 F6000 X73.209 Y108.847
G1 F1200 X121.334 Y156.972 E142.15981
G0 F6000 X121.9 Y156.972
G1 F1200 X73.209 Y108.282 E144.45006
G0 F6000 X73.209 Y107.716
G1 F1200 X122.465 Y156.972 E146.76691
G0 F6000 X123.031 Y156.972
G1 F1200 X73.209 Y107.15 E149.11039
G0 F6000 X73.209 Y106.585
G1 F1200 X123.598 Y156.973 E151.48051
G0 F6000 X124.163 Y156.973
G1 F1200 X73.209 Y106.019 E153.87723
G0 F6000 X73.676 Y105.92
G1 F1200 X124.729 Y156.973 E156.27861
G0 F6000 X125.295 Y156.973
G1 F1200 X74.241 Y105.92 E158.68001
G0 F6000 X74.807 Y105.92
G1 F1200 X125.86 Y156.973 E161.08138
G0 F6000 X126.426 Y156.973
G1 F1200 X75.373 Y105.92 E163.48276
G0 F6000 X75.939 Y105.92
G1 F1200 X126.992 Y156.973 E165.88413
G0 F6000 X127.558 Y156.974
G1 F1200 X76.504 Y105.92 E168.28556
G0 F6000 X77.07 Y105.92
G1 F1200 X128.124 Y156.974 E170.68698
G0 F6000 X128.689 Y156.974
G1 F1200 X77.636 Y105.921 E173.08836
G0 F6000 X78.202 Y105.921
G1 F1200 X129.255 Y156.974 E175.48974
G0 F6000 X129.821 Y156.974
G1 F1200 X78.768 Y105.921 E177.89111
G0 F6000 X79.333 Y105.921
G1 F1200 X130.386 Y156.974 E180.29249
G0 F6000 X130.952 Y156.974
G1 F1200 X79.899 Y105.921 E182.69387
G0 F6000 X80.465 Y105.921
G1 F1200 X131.048 Y156.504 E185.07313
G0 F6000 X131.048 Y155.938
G1 F1200 X81.03 Y105.921 E187.4258
G0 F6000 X81.596 Y105.921
G1 F1200 X131.048 Y155.373 E189.75187
G0 F6000 X131.048 Y154.807
G1 F1200 X82.162 Y105.921 E192.05132
G0 F6000 X82.728 Y105.921
G1 F1200 X131.048 Y154.241 E194.32415
G0 F6000 X131.048 Y153.676
G1 F1200 X83.294 Y105.921 E196.57037
G0 F6000 X83.86 Y105.921
G1 F1200 X131.048 Y153.11 E198.78997
G0 F6000 X131.048 Y152.544
G1 F1200 X84.425 Y105.921 E200.98298
G0 F6000 X84.991 Y105.921
G1 F1200 X131.049 Y151.979 E203.1494
G0 F6000 X131.049 Y151.414
G1 F1200 X85.557 Y105.921 E205.28923
G0 F6000 X86.122 Y105.921
G1 F1200 X131.049 Y150.848 E207.40246
G0 F6000 X131.049 Y150.282
G1 F1200 X86.689 Y105.922 E209.48902
G0 F6000 X87.254 Y105.922
G1 F1200 X131.049 Y149.717 E211.549
G0 F6000 X131.049 Y149.151
G1 F1200 X87.82 Y105.922 E213.58236
G0 F6000 X88.386 Y105.922
G1 F1200 X131.049 Y148.585 E215.5891
G0 F6000 X131.049 Y148.02
G1 F1200 X88.951 Y105.922 E217.56926
G0 F6000 X89.517 Y105.922
G1 F1200 X131.05 Y147.455 E219.52284
G0 F6000 X131.05 Y146.889
G1 F1200 X90.083 Y105.922 E221.44981
G0 F6000 X90.648 Y105.922
G1 F1200 X131.05 Y146.323 E223.35017
G0 F6000 X131.05 Y145.758
G1 F1200 X91.215 Y105.923 E225.22388
G0 F6000 X91.781 Y105.923
G1 F1200 X131.05 Y145.192 E227.07098
G0 F6000 X131.05 Y144.626
G1 F1200 X92.346 Y105.923 E228.89147
G0 F6000 X92.912 Y105.923
G1 F1200 X131.05 Y144.06 E230.68534
G0 F6000 X131.05 Y143.495
G1 F1200 X93.478 Y105.923 E232.45261
G0 F6000 X94.043 Y105.923
G1 F1200 X131.05 Y142.93 E234.19331
G0 F6000 X131.05 Y142.364
G1 F1200 X94.609 Y105.923 E235.90738
G0 F6000 X95.175 Y105.923
G1 F1200 X131.05 Y141.798 E237.59483
G0 F6000 X131.05 Y141.233
G1 F1200 X95.741 Y105.923 E239.25568
G0 F6000 X96.307 Y105.923
G1 F1200 X131.05 Y140.667 E240.88991
G0 F6000 X131.05 Y140.101
G1 F1200 X96.872 Y105.923 E242.49754
G0 F6000 X97.438 Y105.923
G1 F1200 X131.05 Y139.536 E244.07857
G0 F6000 X131.05 Y138.97
G1 F1200 X98.004 Y105.923 E245.63298
G0 F6000 X98.569 Y105.923
G1 F1200 X131.051 Y138.405 E247.16083
G0 F6000 X131.051 Y137.839
G1 F1200 X99.135 Y105.923 E248.66206
G0 F6000 X99.702 Y105.924
G1 F1200 X131.051 Y137.274 E250.13664
G0 F6000 X131.051 Y136.708
G1 F1200 X100.267 Y105.924 E251.58463
G0 F6000 X100.833 Y105.924
