;FLAVOR:Marlin
;TIME:11918
;Filament used: 11.6558m
;Layer height: 0.3
;MINX:70.467
;MINY:79.697
;MINZ:0.2
;MAXX:173.1
;MAXY:157.171
;MAXZ:57.8
;Generated with Cura_SteamEngine 4.6.2
M140 S55
M105
M190 S55
M104 S205
M105
M109 S205
M82 ;absolute extrusion mode
; Ender 3 Custom Start G-code
G92 E0 ; Reset Extruder
G28 ; Home all axes
G1 Z2.0 F3000 ; Move Z Axis up little to prevent scratching of Heat Bed
G1 X0.1 Y20 Z0.3 F5000.0 ; Move to start position
G1 X0.1 Y200.0 Z0.3 F1500.0 E15 ; Draw the first line
G1 X0.4 Y200.0 Z0.3 F5000.0 ; Move to side a little
G1 X0.4 Y20 Z0.3 F1500.0 E30 ; Draw the second line
G92 E0 ; Reset Extruder
G1 Z2.0 F3000 ; Move Z Axis up little to prevent scratching of Heat Bed
G1 X5 Y20 Z0.3 F5000.0 ; Move over to prevent blob squish
G92 E0
G92 E0
G1 F1500 E-6.5
;LAYER_COUNT:193
;LAYER:0
M107
G0 F6000 X95.474 Y80.508 Z0.2
;TYPE:SKIRT
G1 F1500 E0
G1 F1200 X96.376 Y80.561 E0.03005
G1 X97.269 Y80.693 E0.06008
G1 X98.147 Y80.904 E0.09011
G1 X99.003 Y81.192 E0.12015
G1 X100.052 Y81.667 E0.15845
G1 X102.778 Y83.091 E0.26074
G1 X105.063 Y84.202 E0.34525
G1 X107.367 Y85.243 E0.42934
G1 X109.737 Y86.236 E0.5148
G1 X112.06 Y87.128 E0.59757
G1 X114.492 Y87.987 E0.68335
G1 X116.898 Y88.76 E0.76741
G1 X119.342 Y89.47 E0.85205
G1 X121.797 Y90.109 E0.93643
G1 X124.263 Y90.678 E1.0206
G1 X126.778 Y91.18 E1.1059
G1 X129.268 Y91.607 E1.18993
G1 X131.748 Y91.96 E1.27325
G1 X134.332 Y92.254 E1.35974
G1 X136.8 Y92.463 E1.44212
G1 X139.333 Y92.607 E1.52651
G1 X143.291 Y92.691 E1.65818
G1 X161.541 Y92.693 E2.26518
G1 X162.237 Y92.703 E2.28833
G1 X163.138 Y92.756 E2.31835
G1 X164.031 Y92.888 E2.34837
G1 X164.91 Y93.099 E2.37844
G1 X165.766 Y93.387 E2.40848
G1 X166.593 Y93.75 E2.43852
G1 X167.385 Y94.184 E2.46856
G1 X168.135 Y94.686 E2.49857
G1 X168.838 Y95.253 E2.52861
G1 X169.488 Y95.88 E2.55865
G1 X170.08 Y96.562 E2.58869
G1 X170.61 Y97.294 E2.61875
G1 X171.072 Y98.069 E2.64876
G1 X171.465 Y98.883 E2.67882
G1 X171.783 Y99.728 E2.70885
G1 X172.026 Y100.598 E2.73889
G1 X172.191 Y101.485 E2.7689
G1 X172.285 Y102.587 E2.80569
G1 X172.3 Y103.226 E2.82694
G1 X172.298 Y137.604 E3.97036
G1 X172.288 Y138.329 E3.99448
G1 X172.236 Y139.23 E4.02449
G1 X172.104 Y140.124 E4.05455
G1 X171.893 Y141.002 E4.08459
G1 X171.606 Y141.858 E4.11461
G1 X171.244 Y142.685 E4.14464
G1 X170.81 Y143.478 E4.17471
G1 X170.308 Y144.228 E4.20472
G1 X169.742 Y144.932 E4.23477
G1 X169.115 Y145.582 E4.26481
G1 X168.434 Y146.175 E4.29484
G1 X167.702 Y146.705 E4.3249
G1 X166.927 Y147.168 E4.35492
G1 X166.114 Y147.56 E4.38494
G1 X165.269 Y147.88 E4.415
G1 X164.399 Y148.123 E4.44504
G1 X163.511 Y148.288 E4.47508
G1 X162.405 Y148.383 E4.512
G1 X161.766 Y148.398 E4.53326
G1 X138.447 Y148.397 E5.30885
G1 X135.841 Y148.434 E5.39554
G1 X133.299 Y148.542 E5.48016
G1 X130.758 Y148.721 E5.56489
G1 X128.247 Y148.971 E5.64882
G1 X125.706 Y149.296 E5.73402
G1 X123.195 Y149.69 E5.81856
G1 X120.728 Y150.148 E5.90201
G1 X118.207 Y150.691 E5.98778
G1 X115.782 Y151.286 E6.07083
G1 X113.316 Y151.963 E6.15588
G1 X110.889 Y152.706 E6.2403
G1 X108.487 Y153.517 E6.32463
G1 X106.085 Y154.403 E6.40978
G1 X103.061 Y155.62 E6.5182
G1 X102.209 Y155.92 E6.54824
G1 X101.334 Y156.143 E6.57827
G1 X100.442 Y156.288 E6.60833
G1 X99.414 Y156.357 E6.6426
G1 X98.434 Y156.371 E6.6752
G1 X82.43 Y156.37 E7.20749
G1 X81.752 Y156.36 E7.23005
G1 X80.85 Y156.307 E7.2601
G1 X79.957 Y156.174 E7.29013
G1 X79.079 Y155.962 E7.32017
G1 X78.223 Y155.674 E7.35021
G1 X77.396 Y155.312 E7.38023
G1 X76.604 Y154.877 E7.41029
G1 X75.854 Y154.374 E7.44032
G1 X75.151 Y153.807 E7.47036
G1 X74.501 Y153.18 E7.5004
G1 X73.909 Y152.498 E7.53044
G1 X73.38 Y151.766 E7.56048
G1 X72.855 Y150.872 E7.59496
G1 X72.629 Y150.438 E7.61123
G1 X72.248 Y149.619 E7.64128
G1 X71.927 Y148.727 E7.67281
G1 X71.751 Y148.155 E7.69271
G1 X71.524 Y147.281 E7.72275
G1 X71.363 Y146.291 E7.75611
G1 X71.336 Y146.05 E7.76417
G1 X71.274 Y145.08 E7.7965
G1 X71.267 Y144.545 E7.8143
G1 X71.27 Y93.71 E9.50507
G1 X71.28 Y93.006 E9.52849
G1 X71.333 Y92.105 E9.55851
G1 X71.465 Y91.211 E9.58857
G1 X71.802 Y89.925 E9.63278
G1 X71.891 Y89.658 E9.64215
G1 X72.111 Y89.064 E9.66321
G1 X72.376 Y88.408 E9.68675
G1 X72.905 Y87.295 E9.72773
G1 X73.152 Y86.848 E9.74472
G1 X73.624 Y86.077 E9.77479
G1 X74.161 Y85.352 E9.80479
G1 X74.776 Y84.661 E9.83556
G1 X75.008 Y84.423 E9.84662
G1 X75.666 Y83.805 E9.87664
G1 X76.041 Y83.498 E9.89276
G1 X76.236 Y83.346 E9.90098
G1 X76.735 Y82.981 E9.92154
G1 X77.419 Y82.516 E9.94905
G1 X77.74 Y82.308 E9.96178
G1 X78.519 Y81.851 E9.99182
G1 X79.499 Y81.398 E10.02772
G1 X79.764 Y81.292 E10.03722
G1 X80.616 Y80.994 E10.06724
G1 X81.492 Y80.772 E10.09729
G1 X82.35 Y80.633 E10.1262
G1 X83.109 Y80.553 E10.15159
G1 X83.895 Y80.51 E10.17777
G1 X84.815 Y80.497 E10.20837
G1 X94.776 Y80.498 E10.53968
G1 X95.474 Y80.508 E10.56289
G0 F6000 X95.48 Y80.108
G1 F1200 X96.399 Y80.161 E10.59351
G1 X97.31 Y80.294 E10.62413
G1 X98.206 Y80.505 E10.65475
G1 X99.08 Y80.793 E10.68536
G1 X100.238 Y81.313 E10.72758
G1 X102.946 Y82.728 E10.8292
G1 X105.224 Y83.836 E10.91345
G1 X107.537 Y84.88 E10.99786
G1 X109.87 Y85.857 E11.08198
G1 X112.233 Y86.765 E11.16618
G1 X114.61 Y87.604 E11.25002
G1 X117.016 Y88.378 E11.33408
G1 X119.417 Y89.075 E11.41723
G1 X121.916 Y89.726 E11.50313
G1 X124.366 Y90.291 E11.58675
G1 X126.816 Y90.78 E11.66985
G1 X129.354 Y91.216 E11.7555
G1 X131.809 Y91.565 E11.83797
G1 X134.344 Y91.853 E11.92283
G1 X136.858 Y92.066 E12.00674
G1 X139.335 Y92.207 E12.08926
G1 X143.299 Y92.291 E12.22114
G1 X161.546 Y92.293 E12.82803
G1 X162.242 Y92.303 E12.85119
G1 X163.161 Y92.356 E12.8818
G1 X164.072 Y92.489 E12.91242
G1 X164.969 Y92.7 E12.94307
G1 X165.843 Y92.989 E12.97369
G1 X166.689 Y93.352 E13.00431
G1 X167.5 Y93.787 E13.03492
G1 X168.271 Y94.291 E13.06555
G1 X168.995 Y94.859 E13.09616
G1 X169.667 Y95.489 E13.1268
G1 X170.281 Y96.174 E13.15739
G1 X170.834 Y96.91 E13.18801
G1 X171.321 Y97.692 E13.21865
G1 X171.738 Y98.512 E13.24925
G1 X172.083 Y99.366 E13.27988
G1 X172.352 Y100.247 E13.31052
G1 X172.544 Y101.147 E13.34113
G1 X172.657 Y102.061 E13.37176
G1 X172.685 Y102.575 E13.38888
G1 X172.695 Y102.899 E13.39966
G1 X172.7 Y103.226 E13.41054
G1 X172.698 Y137.609 E14.55412
G1 X172.688 Y138.334 E14.57824
G1 X172.635 Y139.253 E14.60886
G1 X172.503 Y140.164 E14.63947
G1 X172.292 Y141.061 E14.67012
G1 X172.005 Y141.935 E14.70072
G1 X171.642 Y142.781 E14.73134
G1 X171.207 Y143.593 E14.76198
G1 X170.704 Y144.364 E14.79259
G1 X170.136 Y145.088 E14.8232
G1 X169.507 Y145.76 E14.85382
G1 X168.821 Y146.375 E14.88446
G1 X168.086 Y146.929 E14.91507
G1 X167.305 Y147.416 E14.94568
G1 X166.484 Y147.834 E14.97633
G1 X165.631 Y148.179 E15.00693
G1 X164.75 Y148.448 E15.03757
G1 X163.85 Y148.641 E15.06818
G1 X162.936 Y148.754 E15.09881
G1 X162.417 Y148.783 E15.1161
G1 X162.094 Y148.793 E15.12685
G1 X161.766 Y148.798 E15.13776
G1 X138.453 Y148.797 E15.91315
G1 X135.828 Y148.834 E16.00047
G1 X133.344 Y148.94 E16.08316
G1 X130.789 Y149.12 E16.16835
G1 X128.27 Y149.37 E16.25255
G1 X125.782 Y149.689 E16.33598
G1 X123.259 Y150.084 E16.42091
G1 X120.813 Y150.539 E16.50366
G1 X118.314 Y151.077 E16.58869
G1 X115.878 Y151.674 E16.6721
G1 X113.412 Y152.352 E16.75717
G1 X111.019 Y153.085 E16.84041
G1 X108.605 Y153.899 E16.92514
G1 X106.236 Y154.773 E17.00913
G1 X103.21 Y155.991 E17.11762
G1 X102.342 Y156.298 E17.14824
G1 X101.45 Y156.528 E17.17888
G1 X100.542 Y156.679 E17.20949
G1 X99.42 Y156.757 E17.2469
G1 X98.434 Y156.771 E17.2797
G1 X82.424 Y156.77 E17.81219
G1 X81.746 Y156.76 E17.83475
G1 X80.827 Y156.706 E17.86537
G1 X79.916 Y156.573 E17.89599
G1 X79.02 Y156.362 E17.9266
G1 X78.145 Y156.073 E17.95725
G1 X77.299 Y155.71 E17.98787
G1 X76.488 Y155.274 E18.0185
G1 X75.718 Y154.77 E18.0491
G1 X74.994 Y154.201 E18.07973
G1 X74.323 Y153.571 E18.11034
G1 X73.708 Y152.886 E18.14096
G1 X73.156 Y152.149 E18.17159
G1 X72.5 Y151.057 E18.21396
G1 X72.274 Y150.623 E18.23023
G1 X71.885 Y149.789 E18.26084
G1 X71.545 Y148.844 E18.29424
G1 X71.369 Y148.272 E18.31415
G1 X71.136 Y147.381 E18.34478
G1 X70.966 Y146.335 E18.38003
G1 X70.939 Y146.094 E18.38809
G1 X70.874 Y145.086 E18.42169
G1 X70.867 Y144.545 E18.43968
G1 X70.87 Y93.704 E20.13066
G1 X70.88 Y93 E20.15408
G1 X70.933 Y92.081 E20.1847
G1 X71.066 Y91.17 E20.21532
G1 X71.277 Y90.274 E20.24593
G1 X71.423 Y89.799 E20.26246
G1 X71.512 Y89.532 E20.27182
G1 X71.74 Y88.914 E20.29373
G1 X72.005 Y88.258 E20.31726
G1 X72.555 Y87.101 E20.35987
G1 X72.802 Y86.654 E20.37686
G1 X73.282 Y85.869 E20.40746
G1 X73.828 Y85.128 E20.43808
G1 X74.49 Y84.382 E20.47125
G1 X74.722 Y84.144 E20.4823
G1 X75.392 Y83.513 E20.51291
G1 X75.795 Y83.183 E20.53024
G1 X75.99 Y83.031 E20.53846
G1 X76.509 Y82.651 E20.55986
G1 X77.202 Y82.18 E20.58773
G1 X77.523 Y81.972 E20.60045
G1 X78.316 Y81.506 E20.63104
G1 X79.35 Y81.026 E20.66896
G1 X79.615 Y80.92 E20.67845
G1 X80.484 Y80.616 E20.70907
G1 X81.376 Y80.388 E20.73969
G1 X82.303 Y80.236 E20.77094
G1 X83.071 Y80.155 E20.79662
G1 X83.888 Y80.11 E20.82384
G1 X84.815 Y80.097 E20.85467
G1 X94.782 Y80.098 E21.18617
G1 X95.48 Y80.108 E21.20939
G0 F6000 X95.486 Y79.708
G1 F1200 X96.422 Y79.762 E21.24058
G1 X97.35 Y79.894 E21.27175
G1 X98.264 Y80.106 E21.30296
G1 X99.156 Y80.395 E21.33414
G1 X100.423 Y80.958 E21.38026
G1 X103.127 Y82.371 E21.48173
G1 X105.413 Y83.483 E21.56628
G1 X107.69 Y84.511 E21.64938
G1 X110.03 Y85.491 E21.73376
G1 X112.361 Y86.386 E21.8168
G1 X114.729 Y87.222 E21.90033
G1 X117.135 Y87.996 E21.98439
G1 X119.533 Y88.693 E22.06745
G1 X121.992 Y89.332 E22.15195
G1 X124.462 Y89.903 E22.23627
G1 X126.891 Y90.388 E22.31866
G1 X129.407 Y90.819 E22.40356
G1 X131.879 Y91.171 E22.48661
G1 X134.352 Y91.452 E22.56939
G1 X136.914 Y91.669 E22.6549
G1 X139.338 Y91.807 E22.73566
G1 X143.308 Y91.891 E22.86773
G1 X161.552 Y91.893 E23.47453
G1 X162.248 Y91.903 E23.49768
G1 X163.184 Y91.957 E23.52886
G1 X164.113 Y92.09 E23.56008
G1 X165.026 Y92.301 E23.59124
G1 X165.919 Y92.59 E23.62246
G1 X166.783 Y92.953 E23.65363
G1 X167.614 Y93.389 E23.68484
G1 X168.404 Y93.895 E23.71605
G1 X169.148 Y94.465 E23.74722
G1 X169.841 Y95.097 E23.77841
G1 X170.478 Y95.786 E23.80962
G1 X171.054 Y96.526 E23.84081
G1 X171.564 Y97.313 E23.872
G1 X172.006 Y98.14 E23.90319
G1 X172.375 Y99.002 E23.93438
G1 X172.67 Y99.892 E23.96557
G1 X172.888 Y100.805 E23.99679
G1 X173.028 Y101.732 E24.02797
G1 X173.085 Y102.563 E24.05567
G1 X173.095 Y102.887 E24.06645
G1 X173.1 Y103.226 E24.07773
G1 X173.098 Y137.615 E25.22151
G1 X173.088 Y138.34 E25.24563
G1 X173.035 Y139.276 E25.27681
G1 X172.903 Y140.205 E25.30802
G1 X172.691 Y141.118 E25.33919
G1 X172.403 Y142.011 E25.3704
G1 X172.04 Y142.876 E25.4016
G1 X171.605 Y143.706 E25.43277
G1 X171.1 Y144.497 E25.46398
G1 X170.53 Y145.241 E25.49515
G1 X169.898 Y145.935 E25.52637
G1 X169.21 Y146.572 E25.55756
G1 X168.47 Y147.148 E25.58875
G1 X167.684 Y147.659 E25.61993
G1 X166.857 Y148.101 E25.65112
G1 X165.995 Y148.471 E25.68232
G1 X165.105 Y148.767 E25.71351
G1 X164.193 Y148.985 E25.7447
G1 X163.265 Y149.125 E25.77592
G1 X162.429 Y149.183 E25.80379
G1 X162.106 Y149.193 E25.81454
G1 X161.766 Y149.198 E25.82585
G1 X138.459 Y149.197 E26.60104
G1 X135.851 Y149.234 E26.68779
G1 X133.353 Y149.34 E26.77095
G1 X130.824 Y149.518 E26.85527
G1 X128.324 Y149.767 E26.93884
G1 X125.824 Y150.087 E27.02266
G1 X123.363 Y150.473 E27.10552
G1 X120.859 Y150.938 E27.19023
G1 X118.396 Y151.468 E27.27402
G1 X116 Y152.056 E27.35608
G1 X113.53 Y152.735 E27.44128
G1 X111.127 Y153.471 E27.52487
G1 X108.735 Y154.278 E27.60883
G1 X106.375 Y155.148 E27.69249
G1 X103.359 Y156.362 E27.80062
G1 X102.475 Y156.675 E27.83181
G1 X101.568 Y156.911 E27.86298
G1 X100.643 Y157.07 E27.8942
G1 X99.427 Y157.157 E27.93475
G1 X98.434 Y157.171 E27.96778
G1 X82.418 Y157.17 E28.50047
G1 X81.74 Y157.16 E28.52302
G1 X80.803 Y157.106 E28.55424
G1 X79.875 Y156.973 E28.58542
G1 X78.962 Y156.761 E28.6166
G1 X78.069 Y156.472 E28.64781
G1 X77.205 Y156.108 E28.679
G1 X76.375 Y155.671 E28.7102
G1 X75.585 Y155.166 E28.74138
G1 X74.841 Y154.595 E28.77257
G1 X74.148 Y153.963 E28.80377
G1 X73.511 Y153.274 E28.83498
G1 X72.936 Y152.534 E28.86615
G1 X72.426 Y151.747 E28.89734
G1 X72.146 Y151.242 E28.91654
G1 X71.92 Y150.808 E28.93282
G1 X71.522 Y149.958 E28.96404
G1 X71.162 Y148.962 E28.99926
G1 X70.986 Y148.39 E29.01917
G1 X70.749 Y147.483 E29.05035
G1 X70.568 Y146.38 E29.08752
G1 X70.541 Y146.139 E29.09559
G1 X70.474 Y145.093 E29.13045
G1 X70.467 Y144.545 E29.14868
G1 X70.47 Y93.699 E30.83982
G1 X70.48 Y92.995 E30.86324
G1 X70.533 Y92.058 E30.89445
G1 X70.666 Y91.13 E30.92564
G1 X70.878 Y90.216 E30.95684
G1 X71.043 Y89.672 E30.97575
G1 X71.132 Y89.405 E30.98511
G1 X71.369 Y88.764 E31.00784
G1 X71.634 Y88.108 E31.03137
G1 X72.205 Y86.908 E31.07557
G1 X72.452 Y86.461 E31.09256
G1 X72.94 Y85.66 E31.12376
G1 X73.495 Y84.904 E31.15495
G1 X74.203 Y84.103 E31.1905
G1 X74.435 Y83.865 E31.20156
G1 X75.118 Y83.222 E31.23276
G1 X75.549 Y82.867 E31.25133
G1 X75.744 Y82.715 E31.25955
G1 X76.283 Y82.321 E31.28176
G1 X76.984 Y81.845 E31.30994
G1 X77.305 Y81.637 E31.32266
G1 X78.113 Y81.161 E31.35386
G1 X79.202 Y80.655 E31.39379
G1 X79.467 Y80.549 E31.40329
G1 X80.352 Y80.238 E31.43449
G1 X81.26 Y80.004 E31.46567
G1 X82.256 Y79.839 E31.49925
G1 X83.034 Y79.757 E31.52527
G1 X83.882 Y79.71 E31.55352
G1 X84.815 Y79.697 E31.58456
G1 X94.788 Y79.698 E31.91626
G1 X95.486 Y79.708 E31.93948
G1 F1500 E25.43948
;MESH:Object 3
G0 F6000 X90.115 Y94.154
G0 X90.541 Y92.7
G0 X91.444 Y93.808
G0 X91.706 Y94.419
G0 X91.762 Y94.991
G0 X91.689 Y95.512
G0 X91.437 Y96.109
G0 X90.48 Y96.977
;TYPE:WALL-INNER
G1 F1500 E31.93948
G1 F1200 X91.025 Y96.647 E31.96067
G1 X91.539 Y96.281 E31.98165
G1 X91.846 Y95.556 E32.00784
G1 X91.925 Y94.995 E32.02668
G1 X91.864 Y94.377 E32.04734
G1 X91.578 Y93.711 E32.07145
G1 X91.094 Y93.282 E32.09296
G1 X90.484 Y92.891 E32.11706
G1 X89.266 Y92.891 E32.15757
G1 X88.58 Y93.253 E32.18337
G1 X88.147 Y93.742 E32.20509
G1 X87.871 Y94.279 E32.22517
G1 X87.717 Y94.94 E32.24774
G1 X87.847 Y95.529 E32.26781
G1 X88.117 Y96.21 E32.29217
G1 X88.572 Y96.613 E32.31239
G1 X89.18 Y96.955 E32.33559
G1 X89.818 Y97.038 E32.35699
G1 X90.48 Y96.977 E32.3791
G0 F6000 X90.351 Y96.587
;TYPE:WALL-OUTER
G1 F1200 X90.805 Y96.312 E32.39675
G1 X91.215 Y96.021 E32.41348
G1 X91.457 Y95.448 E32.43416
G1 X91.522 Y94.987 E32.44965
G1 X91.472 Y94.478 E32.46666
G1 X91.246 Y93.951 E32.48573
G1 X90.852 Y93.602 E32.50324
G1 X90.367 Y93.291 E32.5224
G1 X89.365 Y93.291 E32.55573
G1 X88.831 Y93.573 E32.57581
G1 X88.48 Y93.97 E32.59344
G1 X88.249 Y94.418 E32.6102
G1 X88.127 Y94.942 E32.6281
G1 X88.231 Y95.411 E32.64407
G1 X88.454 Y95.974 E32.66422
G1 X88.805 Y96.285 E32.67981
G1 X89.309 Y96.568 E32.69904
G1 X89.826 Y96.636 E32.71638
G1 X90.351 Y96.587 E32.73392
G0 F6000 X90.488 Y97.004
G1 F1500 E26.23392
G0 F6000 X89.814 Y97.23
G0 X89.843 Y95.767
G0 X89.758 Y142.486
G0 X89.783 Y140.977
G0 X89.833 Y141.372
G0 X90.396 Y141.506
G0 X90.894 Y141.824
G0 X91.34 Y142.221
G0 X91.603 Y142.832
G0 X91.658 Y143.404
G0 X91.584 Y143.938
G0 X91.36 Y144.37
G0 X90.347 Y145.399
;TYPE:WALL-INNER
G1 F1500 E32.73392
G1 F1200 X90.704 Y145.188 E32.74771
G1 X90.96 Y145.037 E32.7576
G1 X91.438 Y144.569 E32.77985
G1 X91.74 Y143.987 E32.80166
G1 X91.821 Y143.409 E32.82107
G1 X91.761 Y142.79 E32.84175
G1 X91.474 Y142.124 E32.86587
G1 X90.991 Y141.695 E32.88736
G1 X90.461 Y141.356 E32.90828
G1 X89.779 Y141.192 E32.93161
G1 X89.089 Y141.332 E32.95503
G1 X88.534 Y141.669 E32.97663
G1 X88.057 Y142.134 E32.99878
G1 X87.756 Y142.713 E33.02049
G1 X87.613 Y143.357 E33.04243
G1 X87.75 Y143.965 E33.06316
G1 X88.033 Y144.544 E33.08459
G1 X88.489 Y144.999 E33.10602
G1 X88.786 Y145.189 E33.11775
G1 X89.088 Y145.382 E33.12967
G1 X89.718 Y145.399 E33.15063
G1 X90.347 Y145.399 E33.17155
G0 F6000 X90.238 Y144.999
;TYPE:WALL-OUTER
G1 F1200 X90.715 Y144.717 E33.18998
G1 X91.112 Y144.328 E33.20846
G1 X91.353 Y143.864 E33.22585
G1 X91.418 Y143.4 E33.24144
G1 X91.369 Y142.891 E33.25845
G1 X91.142 Y142.364 E33.27753
G1 X90.749 Y142.015 E33.29501
G1 X90.302 Y141.729 E33.31266
G1 X89.772 Y141.602 E33.33079
G1 X89.237 Y141.71 E33.34894
