;FLAVOR:Marlin
;TIME:184
;Filament used: 0.0502705m
;Layer height: 0.2
;MINX:100.5
;MINY:99.971
;MINZ:0.2
;MAXX:129.5
;MAXY:130.029
;MAXZ:3
;Generated with Cura_SteamEngine 4.6.1
M140 S50
M105
M190 S50
M104 S200
M105
M109 S200
M82 ;absolute extrusion mode
; Ender 3 Custom Start G-code
G92 E0 ; Reset Extruder
G28 ; Home all axes
G1 Z2.0 F3000 ; Move Z Axis up little to prevent scratching of Heat Bed
G1 X0.1 Y20 Z0.3 F5000.0 ; Move to start position
G1 X0.1 Y200.0 Z0.3 F1500.0 E15 ; Draw the first line
G1 X0.4 Y200.0 Z0.3 F5000.0 ; Move to side a little
G1 X0.4 Y20 Z0.3 F1500.0 E30 ; Draw the second line
G92 E0 ; Reset Extruder
G1 Z2.0 F3000 ; Move Z Axis up little to prevent scratching of Heat Bed
G1 X5 Y20 Z0.3 F5000.0 ; Move over to prevent blob squish
G92 E0
G92 E0
G1 F2700 E-5
;LAYER_COUNT:15
;LAYER:0
M107
G0 F6000 X117.013 Y100.972 Z0.2
;TYPE:SKIRT
G1 F2700 E0
G1 F1200 X117.889 Y101.189 E0.03002
G1 X118.743 Y101.483 E0.06006
G1 X119.897 Y102.024 E0.10245
G1 X120.542 Y102.38 E0.12695
G1 X123.065 Y103.838 E0.22387
G1 X123.711 Y104.223 E0.24888
G1 X124.465 Y104.719 E0.2789
G1 X125.173 Y105.28 E0.30895
G1 X125.828 Y105.902 E0.33899
G1 X126.426 Y106.579 E0.36903
G1 X126.962 Y107.306 E0.39907
G1 X127.431 Y108.078 E0.42912
G1 X127.83 Y108.888 E0.45915
G1 X128.156 Y109.73 E0.48918
G1 X128.406 Y110.598 E0.51922
G1 X128.578 Y111.484 E0.54924
G1 X128.688 Y112.832 E0.59423
G1 X128.7 Y113.719 E0.62373
G1 X128.699 Y116.421 E0.7136
G1 X128.689 Y117.152 E0.73791
G1 X128.637 Y118.053 E0.76793
G1 X128.505 Y118.947 E0.79799
G1 X128.294 Y119.825 E0.82802
G1 X128.007 Y120.681 E0.85805
G1 X127.645 Y121.508 E0.88808
G1 X127.212 Y122.301 E0.91813
G1 X126.71 Y123.051 E0.94814
G1 X126.143 Y123.755 E0.97821
G1 X125.517 Y124.405 E1.00822
G1 X124.835 Y124.998 E1.03828
G1 X124.104 Y125.528 E1.06831
G1 X123.702 Y125.78 E1.0841
G1 X122.753 Y126.343 E1.1208
G1 X120.62 Y127.573 E1.20269
G1 X119.982 Y127.93 E1.22701
G1 X119.175 Y128.336 E1.25705
G1 X118.335 Y128.669 E1.28711
G1 X117.47 Y128.926 E1.31712
G1 X116.585 Y129.105 E1.34715
G1 X115.687 Y129.206 E1.37721
G1 X114.784 Y129.227 E1.40725
G1 X113.883 Y129.168 E1.43728
G1 X112.991 Y129.029 E1.46731
G1 X112.114 Y128.812 E1.49735
G1 X111.26 Y128.518 E1.5274
G1 X110.103 Y127.976 E1.56989
G1 X109.459 Y127.62 E1.59436
G1 X106.918 Y126.152 E1.69197
G1 X106.286 Y125.775 E1.71644
G1 X105.531 Y125.278 E1.74651
G1 X104.824 Y124.717 E1.77653
G1 X104.169 Y124.095 E1.80657
G1 X103.571 Y123.418 E1.83661
G1 X103.036 Y122.691 E1.86664
G1 X102.567 Y121.919 E1.89668
G1 X102.168 Y121.108 E1.92674
G1 X101.843 Y120.266 E1.95676
G1 X101.593 Y119.398 E1.9868
G1 X101.421 Y118.512 E2.01682
G1 X101.312 Y117.163 E2.06184
G1 X101.3 Y116.255 E2.09204
G1 X101.301 Y113.54 E2.18234
G1 X101.311 Y112.842 E2.20556
G1 X101.364 Y111.94 E2.23561
G1 X101.496 Y111.047 E2.26563
G1 X101.707 Y110.169 E2.29567
G1 X101.995 Y109.313 E2.32571
G1 X102.357 Y108.486 E2.35573
G1 X102.792 Y107.694 E2.38579
G1 X103.294 Y106.943 E2.41583
G1 X103.861 Y106.24 E2.44587
G1 X104.488 Y105.59 E2.47591
G1 X105.17 Y104.998 E2.50595
G1 X105.901 Y104.468 E2.53598
G1 X106.298 Y104.22 E2.55155
G1 X107.247 Y103.657 E2.58825
G1 X109.395 Y102.418 E2.67072
G1 X110.021 Y102.068 E2.69458
G1 X110.828 Y101.663 E2.72461
G1 X111.668 Y101.33 E2.75466
G1 X112.534 Y101.073 E2.78471
G1 X113.419 Y100.894 E2.81474
G1 X114.316 Y100.794 E2.84476
G1 X115.219 Y100.773 E2.8748
G1 X116.121 Y100.833 E2.90487
G1 X117.013 Y100.972 E2.93489
G0 F6000 X116.951 Y100.552
G1 F1200 X117.848 Y100.761 E2.96553
G1 X118.723 Y101.047 E2.99614
G1 X119.57 Y101.407 E3.02675
G1 X120.09 Y101.673 E3.04618
G1 X120.742 Y102.033 E3.07095
G1 X123.27 Y103.494 E3.16807
G1 X123.916 Y103.879 E3.19308
G1 X124.685 Y104.385 E3.2237
G1 X125.408 Y104.955 E3.25432
G1 X126.079 Y105.585 E3.28493
G1 X126.692 Y106.272 E3.31555
G1 X127.244 Y107.009 E3.34618
G1 X127.729 Y107.791 E3.37678
G1 X128.145 Y108.613 E3.40743
G1 X128.488 Y109.467 E3.43804
G1 X128.756 Y110.348 E3.46866
G1 X128.946 Y111.249 E3.49929
G1 X129.057 Y112.163 E3.52991
G1 X129.088 Y112.826 E3.55199
G1 X129.1 Y113.719 E3.58169
G1 X129.099 Y116.426 E3.67173
G1 X129.089 Y117.157 E3.69604
G1 X129.036 Y118.076 E3.72666
G1 X128.904 Y118.987 E3.75728
G1 X128.694 Y119.883 E3.78789
G1 X128.406 Y120.758 E3.81852
G1 X128.044 Y121.604 E3.84913
G1 X127.609 Y122.416 E3.87977
G1 X127.106 Y123.187 E3.91039
G1 X126.537 Y123.911 E3.94101
G1 X125.908 Y124.583 E3.97163
G1 X125.223 Y125.199 E4.00227
G1 X124.488 Y125.752 E4.03286
G1 X123.907 Y126.123 E4.05579
G1 X122.953 Y126.69 E4.0927
G1 X120.815 Y127.922 E4.17477
G1 X120.177 Y128.279 E4.19909
G1 X119.355 Y128.694 E4.22971
G1 X118.5 Y129.035 E4.26033
G1 X117.618 Y129.301 E4.29097
G1 X116.717 Y129.489 E4.32158
G1 X115.803 Y129.599 E4.3522
G1 X114.883 Y129.628 E4.38282
G1 X113.964 Y129.578 E4.41343
G1 X113.052 Y129.448 E4.44407
G1 X112.155 Y129.24 E4.47469
G1 X111.28 Y128.955 E4.5053
G1 X110.433 Y128.594 E4.53593
G1 X109.91 Y128.327 E4.55546
G1 X109.259 Y127.967 E4.5802
G1 X106.713 Y126.495 E4.67801
G1 X106.081 Y126.118 E4.70249
G1 X105.311 Y125.613 E4.73312
G1 X104.589 Y125.042 E4.76373
G1 X103.918 Y124.411 E4.79437
G1 X103.305 Y123.725 E4.82497
G1 X102.754 Y122.987 E4.8556
G1 X102.268 Y122.205 E4.88622
G1 X101.853 Y121.383 E4.91685
G1 X101.51 Y120.529 E4.94746
G1 X101.243 Y119.648 E4.97808
G1 X101.053 Y118.747 E5.0087
G1 X100.943 Y117.833 E5.03932
G1 X100.912 Y117.168 E5.06146
G1 X100.9 Y116.255 E5.09183
G1 X100.901 Y113.534 E5.18233
G1 X100.911 Y112.836 E5.20555
G1 X100.964 Y111.917 E5.23617
G1 X101.097 Y111.006 E5.26679
G1 X101.308 Y110.11 E5.29741
G1 X101.596 Y109.236 E5.32801
G1 X101.959 Y108.389 E5.35866
G1 X102.394 Y107.578 E5.38927
G1 X102.898 Y106.808 E5.41988
G1 X103.467 Y106.084 E5.45051
G1 X104.097 Y105.412 E5.48115
G1 X104.782 Y104.797 E5.51176
G1 X105.518 Y104.244 E5.54238
G1 X106.093 Y103.877 E5.56507
G1 X107.047 Y103.311 E5.60197
G1 X109.2 Y102.069 E5.68463
G1 X109.826 Y101.719 E5.70849
G1 X110.648 Y101.305 E5.7391
G1 X111.504 Y100.964 E5.76975
G1 X112.385 Y100.698 E5.80036
G1 X113.286 Y100.51 E5.83097
G1 X114.201 Y100.401 E5.86162
G1 X115.121 Y100.372 E5.89223
G1 X116.04 Y100.422 E5.92284
G1 X116.951 Y100.552 E5.95345
G0 F6000 X116.887 Y100.134
G1 F1200 X117.803 Y100.334 E5.98463
G1 X118.699 Y100.612 E6.01584
G1 X119.568 Y100.965 E6.04703
G1 X120.282 Y101.323 E6.0736
G1 X120.942 Y101.687 E6.09867
G1 X123.474 Y103.151 E6.19595
G1 X124.12 Y103.536 E6.22096
G1 X124.905 Y104.05 E6.25217
G1 X125.643 Y104.629 E6.28337
G1 X126.329 Y105.269 E6.31457
G1 X126.957 Y105.964 E6.34572
G1 X127.525 Y106.711 E6.37694
G1 X128.026 Y107.504 E6.40813
G1 X128.458 Y108.336 E6.43931
G1 X128.818 Y109.202 E6.47051
G1 X129.103 Y110.096 E6.50172
G1 X129.31 Y111.011 E6.53292
G1 X129.439 Y111.94 E6.56411
G1 X129.488 Y112.82 E6.59343
G1 X129.5 Y113.719 E6.62333
G1 X129.499 Y116.431 E6.71353
G1 X129.489 Y117.162 E6.73785
G1 X129.436 Y118.099 E6.76906
G1 X129.304 Y119.027 E6.80024
G1 X129.093 Y119.941 E6.83144
G1 X128.805 Y120.834 E6.86265
G1 X128.442 Y121.698 E6.89382
G1 X128.006 Y122.529 E6.92503
G1 X127.502 Y123.32 E6.95622
G1 X126.932 Y124.064 E6.9874
G1 X126.3 Y124.758 E7.01862
G1 X125.612 Y125.395 E7.0498
G1 X124.872 Y125.971 E7.08099
G1 X124.111 Y126.467 E7.1112
G1 X123.153 Y127.036 E7.14826
G1 X121.01 Y128.271 E7.23053
G1 X120.372 Y128.628 E7.25485
G1 X119.535 Y129.051 E7.28604
G1 X118.665 Y129.401 E7.31723
G1 X117.768 Y129.675 E7.34842
G1 X116.851 Y129.872 E7.37962
G1 X115.921 Y129.99 E7.4108
G1 X114.984 Y130.029 E7.44199
G1 X114.047 Y129.988 E7.47318
G1 X113.117 Y129.866 E7.50438
G1 X112.2 Y129.667 E7.53559
G1 X111.305 Y129.389 E7.56676
G1 X110.435 Y129.037 E7.59798
G1 X109.718 Y128.677 E7.62466
G1 X109.059 Y128.313 E7.6497
G1 X106.508 Y126.839 E7.74769
G1 X105.876 Y126.462 E7.77217
G1 X105.092 Y125.948 E7.80335
G1 X104.354 Y125.368 E7.83457
G1 X103.668 Y124.728 E7.86577
G1 X103.04 Y124.032 E7.89695
G1 X102.473 Y123.285 E7.92814
G1 X101.972 Y122.492 E7.95934
G1 X101.54 Y121.66 E7.99052
G1 X101.18 Y120.794 E8.02172
G1 X100.896 Y119.9 E8.05291
G1 X100.689 Y118.985 E8.08412
G1 X100.56 Y118.056 E8.11531
G1 X100.512 Y117.174 E8.14469
G1 X100.5 Y116.255 E8.17526
G1 X100.501 Y113.528 E8.26596
G1 X100.511 Y112.83 E8.28918
G1 X100.565 Y111.894 E8.32036
G1 X100.697 Y110.966 E8.35154
G1 X100.909 Y110.052 E8.38274
G1 X101.198 Y109.16 E8.41393
G1 X101.561 Y108.295 E8.44513
G1 X101.997 Y107.465 E8.47631
G1 X102.502 Y106.674 E8.50753
G1 X103.073 Y105.93 E8.53872
G1 X103.705 Y105.237 E8.56992
G1 X104.393 Y104.6 E8.6011
G1 X105.134 Y104.025 E8.6323
G1 X105.889 Y103.533 E8.66227
G1 X106.847 Y102.964 E8.69933
G1 X109.005 Y101.72 E8.78218
G1 X109.631 Y101.37 E8.80603
G1 X110.468 Y100.947 E8.83722
G1 X111.339 Y100.598 E8.86843
G1 X112.236 Y100.324 E8.89963
G1 X113.153 Y100.127 E8.93082
G1 X114.083 Y100.009 E8.962
G1 X115.02 Y99.971 E8.99319
G1 X115.957 Y100.013 E9.02439
G1 X116.887 Y100.134 E9.05558
G1 F2700 E4.05558
;MESH:M4XMountX15.stl
G0 F6000 X115.448 Y110.45
G0 X115 Y111.441
G0 X113.412 Y113.107
G0 X112.86 Y113.765
G0 X112.567 Y114.572
G0 X112.567 Y115.428
G0 X112.87 Y116.245
G0 X113.442 Y116.878
G0 X114.012 Y117.235
G0 X115 Y117.634
;TYPE:WALL-INNER
G1 F2700 E9.05558
G1 F1200 X115.638 Y117.522 E9.07712
G1 X115.902 Y117.476 E9.08604
G1 X116.692 Y117.017 E9.11643
G1 X116.863 Y116.814 E9.12525
G1 X117.282 Y116.318 E9.14685
G1 X117.504 Y115.705 E9.16853
G1 X117.594 Y115.457 E9.17731
G1 X117.594 Y114.543 E9.20771
G1 X117.504 Y114.295 E9.21648
G1 X117.282 Y113.682 E9.23817
G1 X116.865 Y113.186 E9.25972
G1 X116.694 Y112.982 E9.26857
G1 X115.901 Y112.524 E9.29903
G1 X115.64 Y112.479 E9.30784
G1 X115 Y112.366 E9.32946
G1 X114.362 Y112.478 E9.351
G1 X114.099 Y112.524 E9.35988
G1 X113.306 Y112.982 E9.39034
G1 X113.133 Y113.188 E9.39929
G1 X112.718 Y113.682 E9.42075
G1 X112.496 Y114.295 E9.44243
G1 X112.406 Y114.543 E9.4512
G1 X112.406 Y115.457 E9.4816
G1 X112.496 Y115.707 E9.49044
G1 X112.578 Y115.934 E9.49847
G1 X112.731 Y116.331 E9.51262
G1 X113.144 Y116.783 E9.53298
G1 X113.226 Y116.864 E9.53682
G1 X113.261 Y116.899 E9.53846
G1 X113.327 Y116.997 E9.54239
G1 X114.088 Y117.473 E9.57225
G1 X114.355 Y117.52 E9.58127
G1 X115 Y117.634 E9.60305
G0 F6000 X115 Y117.228
;TYPE:WALL-OUTER
G1 F1200 X115.763 Y117.094 E9.62882
G1 X116.431 Y116.706 E9.65451
G1 X116.93 Y116.115 E9.68024
G1 X117.194 Y115.387 E9.70599
G1 X117.194 Y114.613 E9.73174
G1 X116.93 Y113.885 E9.75749
G1 X116.433 Y113.293 E9.7832
G1 X115.762 Y112.906 E9.80896
G1 X115 Y112.772 E9.8347
G1 X114.238 Y112.906 E9.86043
G1 X113.567 Y113.293 E9.88619
G1 X113.07 Y113.885 E9.9119
G1 X112.806 Y114.613 E9.93766
G1 X112.806 Y115.387 E9.9634
G1 X112.953 Y115.794 E9.9778
G1 X113.077 Y116.117 E9.9893
G1 X113.432 Y116.506 E10.00682
G1 X113.57 Y116.642 E10.01326
G1 X113.611 Y116.703 E10.01571
G1 X114.234 Y117.093 E10.04015
G1 X115 Y117.228 E10.06602
G0 F6000 X115 Y117.668
G0 X115 Y118.349
;TYPE:WALL-INNER
G1 F1200 X114.172 Y117.871 E10.09782
G1 X113.937 Y117.736 E10.10577
G1 X113.16 Y117.287 E10.12964
G1 X113.069 Y117.234 E10.13279
G1 X113.026 Y117.209 E10.13441
G1 X112.1 Y116.674 E10.16998
G1 X112.1 Y115.723 E10.20161
G1 X112.1 Y115.457 E10.20945
G1 X112.1 Y114.543 E10.23276
G1 X112.1 Y114.279 E10.24054
G1 X112.1 Y113.327 E10.2722
G1 X112.92 Y112.853 E10.3037
G1 X113.153 Y112.719 E10.31159
G1 X113.946 Y112.261 E10.3348
G1 X114.177 Y112.128 E10.34262
G1 X115 Y111.651 E10.37426
G1 X115.824 Y112.127 E10.40591
G1 X116.053 Y112.259 E10.41368
G1 X116.846 Y112.717 E10.43696
G1 X117.077 Y112.85 E10.4448
G1 X117.9 Y113.326 E10.47642
G1 X117.9 Y114.279 E10.50812
G1 X117.9 Y114.543 E10.51589
G1 X117.9 Y115.457 E10.53921
G1 X117.9 Y115.721 E10.54698
G1 X117.9 Y116.673 E10.57865
G1 X117.076 Y117.149 E10.6103
G1 X116.846 Y117.282 E10.61812
G1 X116.055 Y117.739 E10.64134
G1 X115.823 Y117.873 E10.6492
G1 X115 Y118.349 E10.68083
G0 F6000 X115 Y118.81
;TYPE:WALL-OUTER
G1 F1200 X114.982 Y118.8 E10.68151
G1 X111.7 Y116.905 E10.80756
G1 X111.7 Y113.095 E10.93428
G1 X111.716 Y113.086 E10.93489
G1 X115 Y111.19 E11.06102
G1 X115.018 Y111.2 E11.0617
G1 X118.3 Y113.095 E11.18775
G1 X118.3 Y116.905 E11.31447
G1 X118.284 Y116.914 E11.31508
G1 X115 Y118.81 E11.4412
G0 F6000 X114.971 Y118.319
G0 X114.273 Y117.667
;TYPE:SKIN
G1 F1200 X114.453 Y117.847 E11.44967
G0 F6000 X114.961 Y117.789
G1 F1200 X115.211 Y118.04 E11.46145
G0 F6000 X115.454 Y117.717
G1 F1200 X115.57 Y117.833 E11.46691
G0 F6000 X115.595 Y117.877
G0 X115.681 Y117.721
G0 X114.147 Y117.32
G0 X112.557 Y116.388
G0 X112.304 Y115.771
G0 X112.21 Y116.219
G0 X112.259 Y116.219
G1 F1200 X113.11 Y117.07 E11.50694
G0 F6000 X112.622 Y115.593
G0 X112.444 Y114.112
G0 X112.398 Y114.095
G1 F1200 X112.26 Y113.957 E11.51343
G0 F6000 X112.548 Y113.68
G1 F1200 X112.277 Y113.409 E11.52618
G0 F6000 X112.636 Y113.202
G1 F1200 X112.786 Y113.352 E11.53323
G0 F6000 X112.823 Y113.384
G0 X114.404 Y112.123
G0 X114.428 Y112.165
G1 F1200 X114.544 Y112.282 E11.53871
G0 F6000 X114.787 Y111.959
G1 F1200 X115.037 Y112.209 E11.55047
G0 F6000 X115.546 Y112.152
G1 F1200 X115.724 Y112.33 E11.55884
G0 F6000 X117.433 Y113.594
G0 X117.696 Y114.23
G0 X117.79 Y113.779
G0 X117.739 Y113.779
G1 F1200 X116.972 Y113.012 E11.59492
G0 F6000 X116.971 Y113.012
G0 X117.386 Y114.416
G0 X117.556 Y115.886
G0 X117.601 Y115.903
G1 F1200 X117.738 Y116.041 E11.60139
G0 F6000 X117.45 Y116.319
G1 F1200 X117.721 Y116.589 E11.61411
G0 F6000 X117.362 Y116.797
G1 F1200 X117.212 Y116.646 E11.62119
G0 F6000 X117.244 Y116.673
;MESH:NONMESH
G0 F300 X117.244 Y116.673 Z0.4
G0 F6000 X117.176 Y116.615
G0 X115.846 Y117.322
G0 X115 Y117.471
G0 X113.786 Y117.201
;TIME_ELAPSED:25.076500
;LAYER:1
M140 S50
M106 S85
;TYPE:WALL-INNER
;MESH:M4XMountX15.stl
G1 F600 X113.914 Y117.443 E11.6303
G1 X114.354 Y117.52 E11.64515
G1 X115 Y117.634 E11.66697
G1 X115.639 Y117.522 E11.68855
G1 X115.903 Y117.476 E11.69746
G1 X116.691 Y117.015 E11.72783
G1 X116.858 Y116.818 E11.73642
G1 X117.282 Y116.319 E11.7582
G1 X117.504 Y115.706 E11.77988
G1 X117.594 Y115.457 E11.78869
G1 X117.594 Y114.543 E11.81909
G1 X117.504 Y114.295 E11.82786
G1 X117.282 Y113.682 E11.84954
G1 X116.865 Y113.185 E11.87112
G1 X116.694 Y112.982 E11.87995
G1 X115.9 Y112.524 E11.91044
G1 X115.639 Y112.479 E11.91925
G1 X115.001 Y112.366 E11.9408
G1 X114.591 Y112.436 E11.95463
G1 X114.355 Y112.482 E11.96263
G1 X114.092 Y112.533 E11.97154
G1 X113.944 Y112.622 E11.97728
G1 X113.641 Y112.818 E11.98929
G1 X113.296 Y113.067 E12.00344
G1 X113.265 Y113.113 E12.00528
G1 X112.798 Y113.8 E12.03291
G1 X112.585 Y114.639 E12.0617
G1 X112.675 Y115.476 E12.0897
G1 X113.037 Y116.211 E12.11695
G1 X113.474 Y116.627 E12.13702
G1 X113.507 Y116.674 E12.13893
G1 X113.786 Y117.201 E12.15876
G0 F7500 X114.176 Y117.083
;TYPE:WALL-OUTER
G1 F600 X115 Y117.228 E12.18659
G1 X115.763 Y117.094 E12.21235
G1 X116.43 Y116.704 E12.23805
G1 X116.93 Y116.115 E12.26375
G1 X117.194 Y115.387 E12.28951
G1 X117.194 Y114.613 E12.31525
G1 X116.93 Y113.885 E12.34101
G1 X116.433 Y113.293 E12.36671
G1 X115.762 Y112.906 E12.39248
G1 X115.62 Y112.882 E12.39727
G1 X115 Y112.772 E12.41821
G1 X114.663 Y112.83 E12.42958
G1 X114.237 Y112.912 E12.44401
G1 X114.159 Y112.959 E12.44704
G1 X114.03 Y113.046 E12.45222
G1 X113.865 Y113.15 E12.4587
G1 X113.587 Y113.35 E12.47009
G1 X113.168 Y113.967 E12.4949
G1 X112.99 Y114.668 E12.51896
G1 X113.065 Y115.363 E12.54221
G1 X113.364 Y115.97 E12.56471
G1 X113.778 Y116.364 E12.58372
G1 X113.85 Y116.467 E12.5879
G1 X114.176 Y117.083 E12.61108
G0 F7500 X114.124 Y117.377
G0 X114.297 Y117.686
G0 X115 Y118.349
;TYPE:WALL-INNER
G1 F600 X114.181 Y117.876 E12.64254
G1 X113.794 Y117.653 E12.65449
G1 X113.557 Y117.516 E12.66186
G1 X112.1 Y116.675 E12.71782
G1 X112.1 Y113.325 E12.82924
G1 X113.061 Y112.771 E12.86613
G1 X113.109 Y112.744 E12.86791
G1 X113.475 Y112.532 E12.88029
G1 X113.787 Y112.352 E12.88993
G1 X113.937 Y112.265 E12.89442
G1 X114.169 Y112.131 E12.90234
G1 X115 Y111.651 E12.93425
G1 X115.823 Y112.127 E12.96588
G1 X116.052 Y112.259 E12.97365
G1 X116.846 Y112.717 E12.99695
G1 X117.076 Y112.85 E13.00476
G1 X117.9 Y113.325 E13.0364
G1 X117.9 Y114.279 E13.06813
G1 X117.9 Y114.543 E13.0759
