;FLAVOR:Marlin
;TIME:1922
;Filament used: 0.688422m
;Layer height: 0.2
;MINX:65.972
;MINY:64.5
;MINZ:0.2
;MAXX:162.031
;MAXY:161.5
;MAXZ:3.2
;Generated with Cura_SteamEngine 4.6.1
M140 S55
M105
M190 S55
M104 S210
M105
M109 S210
M82 ;absolute extrusion mode
; Ender 3 Custom Start G-code
G92 E0 ; Reset Extruder
G28 ; Home all axes
G1 Z2.0 F3000 ; Move Z Axis up little to prevent scratching of Heat Bed
G1 X0.1 Y20 Z0.3 F5000.0 ; Move to start position
G1 X0.1 Y200.0 Z0.3 F1500.0 E15 ; Draw the first line
G1 X0.4 Y200.0 Z0.3 F5000.0 ; Move to side a little
G1 X0.4 Y20 Z0.3 F1500.0 E30 ; Draw the second line
G92 E0 ; Reset Extruder
G1 Z2.0 F3000 ; Move Z Axis up little to prevent scratching of Heat Bed
G1 X5 Y20 Z0.3 F5000.0 ; Move over to prevent blob squish
G92 E0
G92 E0
G1 F2700 E-5
;LAYER_COUNT:15
;LAYER:0
M107
G1 F300 Z0.4
G0 F6000 X115.158 Y65.311 Z0.4
;TYPE:SKIRT
G1 F300 Z0.2
G1 F2700 E0
G1 F1200 X116.06 Y65.364 E0.03005
G1 X116.953 Y65.496 E0.06008
G1 X117.831 Y65.707 E0.09011
G1 X118.687 Y65.995 E0.12015
G1 X119.805 Y66.506 E0.16103
G1 X120.521 Y66.889 E0.18804
G1 X121.813 Y67.61 E0.23725
G1 X124.081 Y68.792 E0.32232
G1 X126.326 Y69.883 E0.40533
G1 X128.658 Y70.934 E0.49041
G1 X130.99 Y71.91 E0.57449
G1 X133.388 Y72.833 E0.65995
G1 X135.827 Y73.693 E0.74597
G1 X136.282 Y73.847 E0.76195
G1 X137.124 Y74.173 E0.79198
G1 X138.237 Y74.748 E0.83365
G1 X140.647 Y76.185 E0.92697
G1 X142.9 Y77.443 E1.01279
G1 X145.135 Y78.609 E1.09664
G1 X147.424 Y79.722 E1.18129
G1 X149.704 Y80.752 E1.26451
G1 X152.178 Y81.787 E1.3537
G1 X152.806 Y82.039 E1.37621
G1 X153.628 Y82.412 E1.40623
G1 X154.414 Y82.857 E1.43627
G1 X155.158 Y83.369 E1.46631
G1 X155.853 Y83.946 E1.49636
G1 X156.495 Y84.581 E1.52639
G1 X157.078 Y85.271 E1.55643
G1 X157.751 Y86.258 E1.59617
G1 X158.337 Y87.236 E1.63409
G1 X159.573 Y89.38 E1.7164
G1 X159.93 Y90.018 E1.74072
G1 X160.336 Y90.825 E1.77076
G1 X160.669 Y91.665 E1.80082
G1 X160.926 Y92.53 E1.83083
G1 X161.105 Y93.415 E1.86086
G1 X161.206 Y94.313 E1.89092
G1 X161.227 Y95.216 E1.92096
G1 X161.195 Y95.829 E1.94137
G1 X161.151 Y96.368 E1.95936
G1 X160.971 Y98.917 E2.04435
G1 X160.863 Y101.473 E2.12944
G1 X160.827 Y104.013 E2.21393
G1 X160.863 Y106.54 E2.29799
G1 X160.973 Y109.111 E2.38358
G1 X161.159 Y111.722 E2.47064
G1 X161.193 Y112.121 E2.48396
G1 X161.231 Y113.023 E2.51399
G1 X161.189 Y113.925 E2.54402
G1 X161.067 Y114.82 E2.57406
G1 X160.825 Y115.85 E2.60925
G1 X160.715 Y116.227 E2.62231
G1 X160.033 Y118.71 E2.70796
G1 X159.428 Y121.187 E2.79276
G1 X158.895 Y123.664 E2.87704
G1 X158.427 Y126.189 E2.96245
G1 X158.039 Y128.671 E3.046
G1 X157.719 Y131.185 E3.13029
G1 X157.469 Y133.707 E3.21459
G1 X157.285 Y136.315 E3.30154
G1 X157.215 Y137.568 E3.34328
G1 X157.125 Y138.467 E3.37333
G1 X156.955 Y139.354 E3.40337
G1 X156.708 Y140.222 E3.43339
G1 X156.384 Y141.066 E3.46346
G1 X155.97 Y141.909 E3.49469
G1 X155.621 Y142.54 E3.51868
G1 X154.165 Y145.061 E3.61551
G1 X153.784 Y145.702 E3.64031
G1 X153.289 Y146.457 E3.67034
G1 X152.729 Y147.165 E3.70036
G1 X152.108 Y147.821 E3.7304
G1 X151.432 Y148.42 E3.76044
G1 X150.705 Y148.956 E3.79049
G1 X149.934 Y149.426 E3.82052
G1 X149.124 Y149.826 E3.85057
G1 X148.282 Y150.153 E3.88061
G1 X147.415 Y150.404 E3.91063
G1 X146.528 Y150.577 E3.94069
G1 X145.447 Y150.681 E3.97681
G1 X144.955 Y150.702 E3.99319
G1 X142.388 Y150.849 E4.0787
G1 X139.836 Y151.067 E4.16389
G1 X137.312 Y151.356 E4.24839
G1 X134.821 Y151.712 E4.33208
G1 X132.318 Y152.142 E4.41655
G1 X129.814 Y152.645 E4.5015
G1 X127.342 Y153.216 E4.58588
G1 X124.871 Y153.86 E4.67081
G1 X122.44 Y154.568 E4.75503
G1 X120.057 Y155.337 E4.83831
G1 X117.617 Y156.2 E4.92439
G1 X115.295 Y157.096 E5.00717
G1 X112.898 Y158.098 E5.09358
G1 X110.527 Y159.172 E5.18016
G1 X109.366 Y159.718 E5.22283
G1 X108.533 Y160.066 E5.25286
G1 X107.672 Y160.339 E5.2829
G1 X106.791 Y160.535 E5.31292
G1 X105.895 Y160.652 E5.34297
G1 X105.17 Y160.688 E5.36711
G1 X104.262 Y160.7 E5.39732
G1 X101.541 Y160.699 E5.48782
G1 X100.84 Y160.689 E5.51114
G1 X99.938 Y160.636 E5.54119
G1 X99.045 Y160.504 E5.57121
G1 X98.166 Y160.293 E5.60128
G1 X97.31 Y160.005 E5.63132
G1 X96.483 Y159.643 E5.66134
G1 X95.691 Y159.209 E5.69138
G1 X94.941 Y158.706 E5.72142
G1 X94.238 Y158.139 E5.75146
G1 X93.588 Y157.513 E5.78147
G1 X92.995 Y156.831 E5.81153
G1 X92.382 Y155.97 E5.84668
G1 X92.047 Y155.442 E5.86748
G1 X91.254 Y154.15 E5.9179
G1 X89.87 Y152.031 E6.00208
G1 X88.44 Y149.973 E6.08543
G1 X86.908 Y147.894 E6.17133
G1 X85.336 Y145.882 E6.25625
G1 X83.746 Y143.962 E6.33916
G1 X81.874 Y141.833 E6.43345
G1 X81.437 Y141.351 E6.45509
G1 X80.86 Y140.656 E6.48514
G1 X80.224 Y139.709 E6.52308
G1 X79.657 Y138.753 E6.56005
G1 X78.427 Y136.62 E6.64194
G1 X78.07 Y135.982 E6.66626
G1 X77.664 Y135.175 E6.6963
G1 X77.331 Y134.335 E6.72636
G1 X77.067 Y133.439 E6.75743
G1 X76.457 Y130.959 E6.84237
G1 X75.773 Y128.477 E6.928
G1 X75.042 Y126.084 E7.01122
G1 X74.218 Y123.644 E7.09688
G1 X73.342 Y121.269 E7.18107
G1 X72.408 Y118.94 E7.26453
G1 X71.373 Y116.563 E7.35076
G1 X70.311 Y114.296 E7.43403
G1 X69.154 Y111.999 E7.51957
G1 X67.99 Y109.838 E7.60121
G1 X67.597 Y109.025 E7.63124
G1 X67.278 Y108.18 E7.66128
G1 X67.035 Y107.31 E7.69133
G1 X66.87 Y106.422 E7.72137
G1 X66.783 Y105.523 E7.75141
G1 X66.777 Y104.62 E7.78144
G1 X66.851 Y103.72 E7.81148
G1 X67.004 Y102.83 E7.84151
G1 X67.235 Y101.957 E7.87155
G1 X67.542 Y101.108 E7.90158
G1 X68.032 Y100.087 E7.93924
G1 X68.379 Y99.459 E7.96311
G1 X69.843 Y96.926 E8.06041
G1 X70.219 Y96.294 E8.08487
G1 X70.715 Y95.539 E8.11492
G1 X71.275 Y94.831 E8.14494
G1 X71.896 Y94.175 E8.17499
G1 X72.573 Y93.577 E8.20503
G1 X73.299 Y93.041 E8.23504
G1 X74.12 Y92.544 E8.26696
G1 X74.907 Y92.118 E8.29673
G1 X76.021 Y91.536 E8.33853
G1 X78.218 Y90.307 E8.42226
G1 X80.389 Y89.01 E8.50637
G1 X82.561 Y87.63 E8.59196
G1 X84.632 Y86.229 E8.67513
G1 X86.733 Y84.719 E8.76118
G1 X88.699 Y83.219 E8.84343
G1 X90.713 Y81.593 E8.92952
G1 X92.646 Y79.939 E9.01414
G1 X94.507 Y78.253 E9.09766
G1 X96.364 Y76.472 E9.18324
G1 X98.125 Y74.684 E9.26671
G1 X99.873 Y72.808 E9.35199
G1 X101.534 Y70.919 E9.43565
G1 X103.244 Y68.866 E9.52452
G1 X103.862 Y68.208 E9.55454
G1 X104.536 Y67.607 E9.58458
G1 X105.26 Y67.068 E9.6146
G1 X106.03 Y66.594 E9.64467
G1 X106.838 Y66.191 E9.67471
G1 X107.678 Y65.861 E9.70472
G1 X108.545 Y65.607 E9.73477
G1 X109.431 Y65.43 E9.76482
G1 X110.328 Y65.332 E9.79483
G1 X110.834 Y65.312 E9.81168
G1 X111.738 Y65.3 E9.84175
G1 X114.46 Y65.301 E9.93228
G1 X115.158 Y65.311 E9.9555
G0 F6000 X115.164 Y64.911
G1 F1200 X116.083 Y64.964 E9.98612
G1 X116.994 Y65.097 E10.01674
G1 X117.89 Y65.308 E10.04735
G1 X118.764 Y65.596 E10.07796
G1 X119.993 Y66.153 E10.12284
G1 X120.715 Y66.54 E10.15008
G1 X121.971 Y67.241 E10.19793
G1 X124.262 Y68.435 E10.28385
G1 X126.5 Y69.523 E10.36662
G1 X128.827 Y70.572 E10.45152
G1 X131.151 Y71.544 E10.5353
G1 X133.527 Y72.459 E10.61998
G1 X135.913 Y73.3 E10.70413
G1 X136.41 Y73.468 E10.72158
G1 X137.268 Y73.8 E10.75218
G1 X138.442 Y74.404 E10.79609
G1 X140.867 Y75.85 E10.88999
G1 X143.073 Y77.082 E10.97403
G1 X145.316 Y78.252 E11.05817
G1 X147.586 Y79.356 E11.14213
G1 X149.888 Y80.395 E11.22613
G1 X152.332 Y81.418 E11.31425
G1 X152.955 Y81.668 E11.33658
G1 X153.794 Y82.048 E11.36722
G1 X154.596 Y82.499 E11.39782
G1 X155.356 Y83.018 E11.42843
G1 X156.069 Y83.601 E11.45906
G1 X156.728 Y84.244 E11.48968
G1 X157.329 Y84.942 E11.52032
G1 X158.094 Y86.052 E11.56516
G1 X158.683 Y87.036 E11.6033
G1 X159.922 Y89.185 E11.68581
G1 X160.279 Y89.823 E11.71012
G1 X160.694 Y90.645 E11.74075
G1 X161.035 Y91.5 E11.77136
G1 X161.301 Y92.382 E11.802
G1 X161.489 Y93.283 E11.83262
G1 X161.599 Y94.197 E11.86324
G1 X161.628 Y95.117 E11.89385
G1 X161.594 Y95.861 E11.91862
G1 X161.55 Y96.4 E11.93661
G1 X161.371 Y98.928 E12.0209
G1 X161.263 Y101.496 E12.10639
G1 X161.227 Y104.013 E12.19011
G1 X161.263 Y106.549 E12.27447
G1 X161.371 Y109.063 E12.35816
G1 X161.556 Y111.665 E12.44492
G1 X161.592 Y112.087 E12.45901
G1 X161.631 Y113.006 E12.4896
G1 X161.59 Y113.926 E12.52023
G1 X161.47 Y114.839 E12.55086
G1 X161.209 Y115.961 E12.58918
G1 X161.085 Y116.387 E12.60393
G1 X160.421 Y118.805 E12.68733
G1 X159.822 Y121.26 E12.77138
G1 X159.286 Y123.75 E12.8561
G1 X158.828 Y126.219 E12.93962
G1 X158.433 Y128.744 E13.02462
G1 X158.115 Y131.243 E13.10841
G1 X157.868 Y133.738 E13.1918
G1 X157.683 Y136.363 E13.27932
G1 X157.614 Y137.591 E13.32023
G1 X157.523 Y138.507 E13.35085
G1 X157.352 Y139.411 E13.38145
G1 X157.104 Y140.298 E13.41208
G1 X156.779 Y141.16 E13.44272
G1 X156.321 Y142.102 E13.47756
G1 X155.967 Y142.74 E13.50182
G1 X154.509 Y145.265 E13.5988
G1 X154.128 Y145.906 E13.6236
G1 X153.624 Y146.676 E13.65421
G1 X153.054 Y147.4 E13.68486
G1 X152.424 Y148.071 E13.71547
G1 X151.739 Y148.685 E13.74607
G1 X151.002 Y149.238 E13.77671
G1 X150.221 Y149.724 E13.80731
G1 X149.4 Y150.141 E13.83794
G1 X148.546 Y150.485 E13.86856
G1 X147.665 Y150.754 E13.8992
G1 X146.764 Y150.945 E13.92983
G1 X145.464 Y151.081 E13.9733
G1 X144.994 Y151.101 E13.98895
G1 X142.374 Y151.251 E14.07623
G1 X139.917 Y151.461 E14.15825
G1 X137.343 Y151.755 E14.24442
G1 X134.874 Y152.108 E14.32737
G1 X132.393 Y152.535 E14.41111
G1 X129.911 Y153.033 E14.4953
G1 X127.427 Y153.607 E14.5801
G1 X124.979 Y154.246 E14.66425
G1 X122.57 Y154.947 E14.74769
G1 X120.176 Y155.719 E14.83136
G1 X117.746 Y156.578 E14.91708
G1 X115.458 Y157.461 E14.99865
G1 X113.081 Y158.455 E15.08434
G1 X110.656 Y159.553 E15.17288
G1 X109.537 Y160.08 E15.21402
G1 X108.688 Y160.435 E15.24463
G1 X107.811 Y160.716 E15.27526
G1 X106.913 Y160.919 E15.30588
G1 X106.001 Y161.044 E15.3365
G1 X105.176 Y161.088 E15.36397
G1 X104.262 Y161.1 E15.39438
G1 X101.535 Y161.099 E15.48508
G1 X100.834 Y161.089 E15.50839
G1 X99.915 Y161.036 E15.53901
G1 X99.004 Y160.903 E15.56963
G1 X98.108 Y160.692 E15.60025
G1 X97.233 Y160.404 E15.63089
G1 X96.387 Y160.041 E15.66151
G1 X95.576 Y159.606 E15.69212
G1 X94.805 Y159.102 E15.72275
G1 X94.081 Y158.533 E15.75338
G1 X93.409 Y157.904 E15.78399
G1 X92.794 Y157.219 E15.81461
G1 X92.045 Y156.185 E15.85708
G1 X91.707 Y155.651 E15.8781
G1 X90.938 Y154.398 E15.927
G1 X89.535 Y152.249 E16.01236
G1 X88.11 Y150.199 E16.09539
G1 X86.587 Y148.132 E16.18079
G1 X85.042 Y146.156 E16.26422
G1 X83.422 Y144.199 E16.34871
G1 X81.591 Y142.117 E16.44093
G1 X81.14 Y141.62 E16.46325
G1 X80.552 Y140.912 E16.49386
G1 X79.88 Y139.913 E16.53391
G1 X79.31 Y138.953 E16.57104
G1 X78.078 Y136.815 E16.65311
G1 X77.721 Y136.177 E16.67743
G1 X77.306 Y135.355 E16.70805
G1 X76.965 Y134.5 E16.73867
G1 X76.678 Y133.534 E16.77219
G1 X76.068 Y131.055 E16.8571
G1 X75.391 Y128.595 E16.94196
G1 X74.656 Y126.192 E17.02554
G1 X73.836 Y123.762 E17.11084
G1 X72.97 Y121.414 E17.19408
G1 X72.029 Y119.07 E17.27809
G1 X71.022 Y116.756 E17.36202
G1 X69.95 Y114.467 E17.44609
G1 X68.802 Y112.19 E17.5309
G1 X67.638 Y110.028 E17.61257
G1 X67.237 Y109.199 E17.6432
G1 X66.909 Y108.339 E17.67382
G1 X66.657 Y107.453 E17.70445
G1 X66.484 Y106.549 E17.73507
G1 X66.389 Y105.633 E17.76569
G1 X66.374 Y104.713 E17.7963
G1 X66.439 Y103.794 E17.82694
G1 X66.583 Y102.885 E17.85755
G1 X66.806 Y101.992 E17.88816
G1 X67.106 Y101.121 E17.9188
G1 X67.681 Y99.894 E17.96387
G1 X68.033 Y99.259 E17.98802
G1 X69.499 Y96.721 E18.08551
G1 X69.875 Y96.089 E18.10997
G1 X70.38 Y95.319 E18.14059
G1 X70.949 Y94.596 E18.17119
G1 X71.58 Y93.925 E18.20183
G1 X72.266 Y93.311 E18.23245
G1 X73.002 Y92.759 E18.26305
G1 X73.929 Y92.192 E18.29919
G1 X74.722 Y91.764 E18.32916
G1 X75.804 Y91.199 E18.36976
G1 X78.012 Y89.964 E18.45391
G1 X80.201 Y88.656 E18.53872
G1 X82.32 Y87.31 E18.62222
G1 X84.427 Y85.884 E18.70684
G1 X86.479 Y84.409 E18.79089
G1 X88.468 Y82.892 E18.87409
G1 X90.468 Y81.277 E18.95959
G1 X92.343 Y79.673 E19.04166
G1 X94.263 Y77.933 E19.12784
G1 X96.066 Y76.203 E19.21095
G1 X97.83 Y74.413 E19.29453
G1 X99.579 Y72.536 E19.37986
G1 X101.241 Y70.645 E19.4636
G1 X102.941 Y68.606 E19.55189
G1 X103.57 Y67.934 E19.58251
G1 X104.256 Y67.319 E19.61315
G1 X104.992 Y66.767 E19.64375
G1 X105.773 Y66.28 E19.67436
G1 X106.594 Y65.862 E19.70501
G1 X107.448 Y65.518 E19.73563
G1 X108.328 Y65.249 E19.76623
G1 X109.228 Y65.057 E19.79684
G1 X110.142 Y64.944 E19.82747
G1 X110.829 Y64.912 E19.85035
G1 X111.738 Y64.9 E19.88058
G1 X114.466 Y64.901 E19.97132
G1 X115.164 Y64.911 E19.99453
G0 F6000 X115.17 Y64.511
G1 F1200 X116.106 Y64.565 E20.02572
G1 X117.034 Y64.697 E20.05689
G1 X117.948 Y64.909 E20.0881
G1 X118.84 Y65.198 E20.11929
G1 X119.705 Y65.561 E20.15049
G1 X120.181 Y65.8 E20.1682
G1 X120.91 Y66.191 E20.19572
G1 X122.172 Y66.895 E20.24378
G1 X124.415 Y68.064 E20.32791
G1 X126.661 Y69.156 E20.41097
G1 X128.998 Y70.209 E20.49623
G1 X131.283 Y71.165 E20.57861
G1 X133.667 Y72.084 E20.66359
G1 X136.095 Y72.939 E20.7492
G1 X136.538 Y73.089 E20.76476
G1 X137.413 Y73.427 E20.79596
G1 X138.647 Y74.061 E20.8421
G1 X141.061 Y75.5 E20.93558
G1 X143.247 Y76.721 E21.01885
G1 X145.488 Y77.89 E21.10292
G1 X147.775 Y79.003 E21.18752
G1 X150.028 Y80.02 E21.26973
G1 X152.512 Y81.059 E21.35929
G1 X153.104 Y81.297 E21.38051
G1 X153.959 Y81.683 E21.41171
G1 X154.777 Y82.141 E21.44289
G1 X155.554 Y82.667 E21.4741
G1 X156.283 Y83.257 E21.50529
G1 X156.959 Y83.907 E21.53648
G1 X157.577 Y84.612 E21.56767
G1 X158.133 Y85.367 E21.59885
G1 X158.437 Y85.846 E21.61772
G1 X159.03 Y86.836 E21.6561
G1 X160.271 Y88.99 E21.73879
G1 X160.628 Y89.628 E21.7631
G1 X161.051 Y90.465 E21.79429
G1 X161.401 Y91.335 E21.82548
G1 X161.675 Y92.232 E21.85668
G1 X161.872 Y93.149 E21.88787
G1 X161.99 Y94.079 E21.91905
G1 X162.029 Y95.016 E21.95025
G1 X161.993 Y95.894 E21.97947
G1 X161.949 Y96.433 E21.99746
G1 X161.769 Y98.972 E22.08212
G1 X161.663 Y101.482 E22.16568
G1 X161.627 Y104.013 E22.24987
G1 X161.663 Y106.528 E22.33352
G1 X161.771 Y109.056 E22.41768
G1 X161.956 Y111.663 E22.50461
G1 X161.99 Y112.052 E22.5176
G1 X162.031 Y112.989 E22.54879
G1 X161.992 Y113.926 E22.57998
G1 X161.873 Y114.857 E22.6112
G1 X161.593 Y116.073 E22.6527
G1 X161.483 Y116.452 E22.66583
G1 X160.811 Y118.899 E22.75023
G1 X160.207 Y121.368 E22.83477
G1 X159.677 Y123.835 E22.9187
G1 X159.223 Y126.282 E23.00147
G1 X158.83 Y128.792 E23.08597
G1 X158.512 Y131.293 E23.16983
G1 X158.266 Y133.773 E23.25272
G1 X158.085 Y136.345 E23.33847
G1 X158.014 Y137.613 E23.38071
G1 X157.921 Y138.546 E23.4119
G1 X157.75 Y139.468 E23.44309
G1 X157.5 Y140.373 E23.47431
G1 X157.175 Y141.252 E23.50548
G1 X156.671 Y142.295 E23.54401
G1 X156.314 Y142.94 E23.56853
G1 X154.853 Y145.469 E23.66567
G1 X154.472 Y146.11 E23.69048
G1 X153.959 Y146.895 E23.72167
G1 X153.381 Y147.634 E23.75287
G1 X152.742 Y148.32 E23.78405
G1 X152.046 Y148.95 E23.81528
G1 X151.3 Y149.518 E23.84646
G1 X150.508 Y150.021 E23.87767
G1 X149.677 Y150.454 E23.90883
G1 X148.811 Y150.815 E23.94004
G1 X147.918 Y151.1 E23.97122
G1 X147.003 Y151.309 E24.00243
G1 X146.074 Y151.439 E24.03363
G1 X145.481 Y151.48 E24.0534
G1 X145.034 Y151.499 E24.06828
G1 X142.43 Y151.648 E24.15504
G1 X139.925 Y151.863 E24.23866
G1 X137.408 Y152.15 E24.32292
G1 X134.961 Y152.5 E24.40513
G1 X132.44 Y152.934 E24.49021
G1 X130.008 Y153.422 E24.57272
G1 X127.513 Y153.998 E24.65788
G1 X125.119 Y154.622 E24.74017
G1 X122.667 Y155.336 E24.82511
G1 X120.284 Y156.105 E24.90839
G1 X117.887 Y156.952 E24.99295
G1 X115.607 Y157.832 E25.07423
G1 X113.234 Y158.824 E25.15978
G1 X110.841 Y159.908 E25.24715
G1 X109.707 Y160.442 E25.28884
G1 X108.842 Y160.805 E25.32004
G1 X107.95 Y161.093 E25.35122
G1 X107.036 Y161.303 E25.38241
G1 X106.107 Y161.435 E25.41362
G1 X105.182 Y161.488 E25.44444
G1 X104.262 Y161.5 E25.47504
G1 X101.529 Y161.499 E25.56594
G1 X100.828 Y161.489 E25.58926
G1 X99.892 Y161.436 E25.62044
G1 X98.963 Y161.303 E25.65165
G1 X98.05 Y161.091 E25.68283
G1 X97.157 Y160.803 E25.71403
G1 X96.293 Y160.439 E25.74522
G1 X95.462 Y160.003 E25.77643
G1 X94.672 Y159.498 E25.80762
G1 X93.928 Y158.928 E25.83879
G1 X93.235 Y158.296 E25.86998
G1 X92.598 Y157.607 E25.90119
G1 X92.022 Y156.867 E25.93238
G1 X91.708 Y156.4 E25.9511
G1 X91.366 Y155.861 E25.97233
G1 X90.585 Y154.588 E26.022
G1 X89.207 Y152.478 E26.10582
G1 X87.775 Y150.418 E26.18927
