;FLAVOR:Marlin
;TIME:847
;Filament used: 0.471011m
;Layer height: 0.2
;MINX:86.054
;MINY:97.178
;MINZ:0.2
;MAXX:143.933
;MAXY:132.822
;MAXZ:5
;Generated with Cura_SteamEngine 4.6.1
M140 S55
M105
M190 S55
M104 S210
M105
M109 S210
M82 ;absolute extrusion mode
; Ender 3 Custom Start G-code
G92 E0 ; Reset Extruder
G28 ; Home all axes
G1 Z2.0 F3000 ; Move Z Axis up little to prevent scratching of Heat Bed
G1 X0.1 Y20 Z0.3 F5000.0 ; Move to start position
G1 X0.1 Y200.0 Z0.3 F1500.0 E15 ; Draw the first line
G1 X0.4 Y200.0 Z0.3 F5000.0 ; Move to side a little
G1 X0.4 Y20 Z0.3 F1500.0 E30 ; Draw the second line
G92 E0 ; Reset Extruder
G1 Z2.0 F3000 ; Move Z Axis up little to prevent scratching of Heat Bed
G1 X5 Y20 Z0.3 F5000.0 ; Move over to prevent blob squish
G92 E0
G92 E0
G1 F2700 E-5
;LAYER_COUNT:25
;LAYER:0
M107
G0 F6000 X103.541 Y98.13 Z0.2
;TYPE:SKIRT
G1 F2700 E0
G1 F1200 X105.205 Y98.308 E0.05566
G1 X107.748 Y98.511 E0.14051
G1 X110.277 Y98.642 E0.22474
G1 X112.818 Y98.702 E0.30928
G1 X115.381 Y98.69 E0.39452
G1 X117.887 Y98.606 E0.47792
G1 X120.397 Y98.452 E0.56156
G1 X124.817 Y98.025 E0.70925
G1 X125.922 Y97.979 E0.74604
G1 X126.797 Y97.994 E0.77514
G1 X127.186 Y98.01 E0.78809
G1 X128.361 Y98.126 E0.82736
G1 X129.012 Y98.229 E0.84929
G1 X129.325 Y98.284 E0.85986
G1 X129.677 Y98.351 E0.87177
G1 X130.861 Y98.651 E0.9124
G1 X131.742 Y98.935 E0.94318
G1 X132.08 Y99.053 E0.95509
G1 X133.174 Y99.508 E0.9945
G1 X134.018 Y99.923 E1.02578
G1 X134.353 Y100.099 E1.03837
G1 X135.341 Y100.692 E1.07669
G1 X135.868 Y101.05 E1.09788
G1 X136.153 Y101.251 E1.10948
G1 X136.435 Y101.457 E1.1211
G1 X137.325 Y102.188 E1.1594
G1 X137.827 Y102.65 E1.1821
G1 X138.087 Y102.898 E1.19405
G1 X138.329 Y103.137 E1.20536
G1 X139.098 Y103.987 E1.24348
G1 X139.471 Y104.449 E1.26323
G1 X139.683 Y104.72 E1.27468
G1 X139.924 Y105.04 E1.288
G1 X140.56 Y105.991 E1.32605
G1 X141.042 Y106.817 E1.35786
G1 X141.219 Y107.139 E1.37008
G1 X141.728 Y108.208 E1.40946
G1 X141.94 Y108.729 E1.42817
G1 X142.058 Y109.034 E1.43905
G1 X142.206 Y109.434 E1.45323
G1 X142.546 Y110.541 E1.49175
G1 X142.767 Y111.462 E1.52325
G1 X142.842 Y111.814 E1.53522
G1 X143.021 Y112.987 E1.57469
G1 X143.105 Y113.926 E1.60604
G1 X143.129 Y114.306 E1.61871
G1 X143.134 Y115.499 E1.65839
G1 X143.083 Y116.374 E1.68754
G1 X143.051 Y116.765 E1.70059
G1 X142.885 Y117.943 E1.74015
G1 X142.762 Y118.555 E1.76092
G1 X142.688 Y118.893 E1.77242
G1 X142.6 Y119.265 E1.78514
G1 X142.272 Y120.369 E1.82344
G1 X141.944 Y121.267 E1.85524
G1 X141.807 Y121.613 E1.86762
G1 X141.305 Y122.692 E1.9072
G1 X140.874 Y123.484 E1.93719
G1 X140.684 Y123.814 E1.94986
G1 X140.025 Y124.817 E1.98977
G1 X139.453 Y125.577 E2.02141
G1 X139.214 Y125.878 E2.03419
G1 X138.43 Y126.756 E2.07334
G1 X137.812 Y127.366 E2.10222
G1 X137.508 Y127.652 E2.11611
G1 X136.598 Y128.414 E2.15558
G1 X135.838 Y128.972 E2.18694
G1 X135.532 Y129.185 E2.19934
G1 X134.523 Y129.803 E2.2387
G1 X134.008 Y130.079 E2.25813
G1 X133.702 Y130.237 E2.26959
G1 X133.329 Y130.421 E2.28342
G1 X132.285 Y130.865 E2.32115
G1 X131.707 Y131.074 E2.34159
G1 X131.373 Y131.189 E2.35334
G1 X131.023 Y131.302 E2.36558
G1 X129.907 Y131.593 E2.40394
G1 X128.912 Y131.789 E2.43767
G1 X128.578 Y131.845 E2.44893
G1 X127.422 Y131.971 E2.48761
G1 X126.52 Y132.014 E2.51764
G1 X126.11 Y132.023 E2.53128
G1 X124.931 Y131.98 E2.57052
G1 X123.613 Y131.855 E2.61455
G1 X122.031 Y131.685 E2.66747
G1 X119.516 Y131.486 E2.75138
G1 X116.938 Y131.354 E2.83724
G1 X114.446 Y131.299 E2.92015
G1 X111.873 Y131.313 E3.00573
G1 X109.341 Y131.399 E3.08999
G1 X106.857 Y131.554 E3.17277
G1 X102.505 Y131.975 E3.31819
G1 X101.398 Y132.021 E3.35504
G1 X100.493 Y132.005 E3.38515
G1 X100.093 Y131.987 E3.39847
G1 X98.924 Y131.866 E3.43755
G1 X98.25 Y131.757 E3.46026
G1 X97.913 Y131.697 E3.47165
G1 X97.582 Y131.632 E3.48287
G1 X96.431 Y131.335 E3.5224
G1 X95.556 Y131.051 E3.553
G1 X95.214 Y130.931 E3.56506
G1 X94.083 Y130.456 E3.60586
G1 X93.262 Y130.046 E3.63638
G1 X92.913 Y129.861 E3.64952
G1 X91.924 Y129.263 E3.68796
G1 X91.727 Y129.128 E3.6959
G1 X91.005 Y128.585 E3.72595
G1 X90.214 Y127.859 E3.76166
G1 X90.054 Y127.696 E3.76925
G1 X89.45 Y127.024 E3.7993
G1 X88.909 Y126.302 E3.82931
G1 X88.345 Y125.374 E3.86543
G1 X88.118 Y124.951 E3.8814
G1 X87.727 Y124.137 E3.91143
G1 X87.409 Y123.292 E3.94146
G1 X87.167 Y122.422 E3.9715
G1 X87.006 Y121.553 E4.00089
G1 X86.95 Y121.156 E4.01423
G1 X86.864 Y120.257 E4.04426
G1 X86.853 Y119.468 E4.07051
G1 X86.88 Y118.475 E4.10355
G1 X86.926 Y117.321 E4.14196
G1 X86.954 Y114.811 E4.22545
G1 X86.899 Y111.893 E4.32252
G1 X86.856 Y110.647 E4.36399
G1 X86.865 Y109.744 E4.39402
G1 X86.976 Y108.699 E4.42897
G1 X87.054 Y108.208 E4.44551
G1 X87.235 Y107.323 E4.47555
G1 X87.494 Y106.458 E4.50559
G1 X87.828 Y105.619 E4.53562
G1 X88.309 Y104.683 E4.57062
G1 X88.524 Y104.313 E4.58486
G1 X89.012 Y103.553 E4.6149
G1 X89.565 Y102.839 E4.64493
G1 X90.179 Y102.177 E4.67496
G1 X90.799 Y101.614 E4.70282
G1 X91.135 Y101.333 E4.71739
G1 X91.853 Y100.784 E4.74745
G1 X92.748 Y100.228 E4.78249
G1 X92.987 Y100.096 E4.79157
G1 X93.363 Y99.899 E4.80569
G1 X93.946 Y99.608 E4.82736
G1 X95.015 Y99.148 E4.86607
G1 X95.565 Y98.948 E4.88554
G1 X95.872 Y98.842 E4.89634
G1 X96.25 Y98.718 E4.90957
G1 X97.381 Y98.418 E4.94849
G1 X98.025 Y98.286 E4.97035
G1 X98.358 Y98.223 E4.98163
G1 X98.704 Y98.164 E4.9933
G1 X99.853 Y98.035 E5.03176
G1 X100.483 Y98 E5.05274
G1 X100.815 Y97.987 E5.06379
G1 X101.207 Y97.978 E5.07683
G1 X102.409 Y98.021 E5.11684
G1 X103.541 Y98.13 E5.15466
G0 F6000 X103.584 Y97.732
G1 F1200 X105.243 Y97.909 E5.21015
G1 X107.767 Y98.111 E5.29437
G1 X110.307 Y98.243 E5.37897
G1 X112.825 Y98.302 E5.46274
G1 X115.366 Y98.29 E5.54725
G1 X117.885 Y98.206 E5.63108
G1 X120.363 Y98.054 E5.71366
G1 X124.779 Y97.627 E5.86122
G1 X125.927 Y97.579 E5.89943
G1 X126.814 Y97.594 E5.92894
G1 X127.203 Y97.61 E5.94189
G1 X128.424 Y97.731 E5.9827
G1 X129.075 Y97.834 E6.00462
G1 X129.4 Y97.891 E6.01559
G1 X129.752 Y97.958 E6.02751
G1 X130.983 Y98.27 E6.06975
G1 X131.874 Y98.557 E6.10088
G1 X132.212 Y98.675 E6.11279
G1 X133.348 Y99.148 E6.15372
G1 X134.204 Y99.569 E6.18545
G1 X134.539 Y99.745 E6.19803
G1 X135.565 Y100.361 E6.23784
G1 X136.092 Y100.719 E6.25903
G1 X136.389 Y100.928 E6.27111
G1 X136.671 Y101.134 E6.28272
G1 X137.596 Y101.893 E6.32252
G1 X138.098 Y102.355 E6.34521
G1 X138.368 Y102.613 E6.35763
G1 X138.61 Y102.852 E6.36894
G1 X139.41 Y103.735 E6.40857
G1 X139.783 Y104.197 E6.42832
G1 X140.002 Y104.479 E6.4402
G1 X140.243 Y104.799 E6.45352
G1 X140.904 Y105.788 E6.49309
G1 X141.392 Y106.624 E6.52528
G1 X141.569 Y106.946 E6.5375
G1 X142.098 Y108.057 E6.57843
G1 X142.31 Y108.578 E6.59714
G1 X142.433 Y108.895 E6.60845
G1 X142.581 Y109.295 E6.62263
G1 X142.934 Y110.445 E6.66264
G1 X143.085 Y111.06 E6.68371
G1 X143.158 Y111.379 E6.69459
G1 X143.233 Y111.731 E6.70656
G1 X143.42 Y112.95 E6.74758
G1 X143.479 Y113.579 E6.76859
G1 X143.504 Y113.901 E6.77933
G1 X143.528 Y114.281 E6.792
G1 X143.534 Y115.52 E6.83321
G1 X143.482 Y116.407 E6.86276
G1 X143.45 Y116.798 E6.87581
G1 X143.277 Y118.022 E6.91692
G1 X143.154 Y118.634 E6.93769
G1 X143.077 Y118.985 E6.94964
G1 X142.989 Y119.357 E6.96235
G1 X142.648 Y120.504 E7.00215
G1 X142.316 Y121.414 E7.03437
G1 X142.179 Y121.76 E7.04675
G1 X141.657 Y122.881 E7.08788
G1 X141.22 Y123.684 E7.11828
G1 X141.03 Y124.014 E7.13095
G1 X140.346 Y125.056 E7.1724
G1 X139.967 Y125.565 E7.19351
G1 X139.527 Y126.126 E7.21722
G1 X138.712 Y127.04 E7.25795
G1 X138.309 Y127.442 E7.27689
G1 X138.086 Y127.657 E7.28719
G1 X137.782 Y127.943 E7.30107
G1 X136.836 Y128.735 E7.34211
G1 X136.067 Y129.3 E7.37385
G1 X135.761 Y129.513 E7.38625
G1 X134.712 Y130.156 E7.42717
G1 X134.197 Y130.432 E7.4466
G1 X133.879 Y130.595 E7.45849
G1 X133.506 Y130.779 E7.47232
G1 X132.421 Y131.241 E7.51154
G1 X131.843 Y131.45 E7.53199
G1 X131.496 Y131.569 E7.54419
G1 X131.146 Y131.682 E7.55642
G1 X129.986 Y131.986 E7.5963
G1 X129.322 Y132.12 E7.61883
G1 X128.978 Y132.183 E7.63047
G1 X128.644 Y132.239 E7.64173
G1 X127.443 Y132.371 E7.68192
G1 X126.848 Y132.402 E7.70173
G1 X126.529 Y132.413 E7.71235
G1 X126.119 Y132.422 E7.72599
G1 X124.893 Y132.378 E7.76679
G1 X123.57 Y132.253 E7.81099
G1 X121.993 Y132.083 E7.86375
G1 X119.462 Y131.883 E7.94819
G1 X116.944 Y131.755 E8.03205
G1 X114.439 Y131.699 E8.11539
G1 X111.889 Y131.713 E8.2002
G1 X109.344 Y131.8 E8.2849
G1 X106.889 Y131.953 E8.36671
G1 X102.543 Y132.373 E8.51193
G1 X101.393 Y132.421 E8.55021
G1 X100.822 Y132.414 E8.56921
G1 X100.475 Y132.404 E8.58075
G1 X100.075 Y132.386 E8.59407
G1 X98.86 Y132.261 E8.63469
G1 X98.186 Y132.152 E8.6574
G1 X97.835 Y132.089 E8.66926
G1 X97.504 Y132.024 E8.68048
G1 X96.309 Y131.716 E8.72153
G1 X95.423 Y131.428 E8.75251
G1 X95.081 Y131.308 E8.76457
G1 X93.906 Y130.814 E8.80696
G1 X93.074 Y130.4 E8.83787
G1 X92.725 Y130.215 E8.85101
G1 X91.698 Y129.593 E8.89094
G1 X91.501 Y129.458 E8.89889
G1 X90.765 Y128.905 E8.92951
G1 X89.928 Y128.139 E8.96724
G1 X89.768 Y127.976 E8.97484
G1 X89.153 Y127.292 E9.00543
G1 X88.599 Y126.557 E9.03605
G1 X87.993 Y125.563 E9.07477
G1 X87.766 Y125.14 E9.09073
G1 X87.366 Y124.311 E9.12135
G1 X87.04 Y123.45 E9.15197
G1 X86.79 Y122.564 E9.18259
G1 X86.61 Y121.609 E9.21491
G1 X86.554 Y121.212 E9.22825
G1 X86.465 Y120.295 E9.25889
G1 X86.454 Y119.457 E9.28676
G1 X86.48 Y118.459 E9.31997
G1 X86.526 Y117.3 E9.35855
G1 X86.554 Y114.814 E9.44124
G1 X86.499 Y111.915 E9.53768
G1 X86.456 Y110.661 E9.57941
G1 X86.465 Y109.74 E9.61004
G1 X86.581 Y108.636 E9.64696
G1 X86.659 Y108.145 E9.6635
G1 X86.843 Y107.243 E9.69412
G1 X87.104 Y106.36 E9.72474
G1 X87.441 Y105.503 E9.75537
G1 X87.963 Y104.482 E9.79351
G1 X88.178 Y104.112 E9.80774
G1 X88.675 Y103.337 E9.83836
G1 X89.237 Y102.608 E9.86898
G1 X89.86 Y101.93 E9.8996
G1 X90.543 Y101.307 E9.93035
G1 X90.879 Y101.026 E9.94492
G1 X91.61 Y100.466 E9.97555
G1 X92.554 Y99.878 E10.01254
G1 X92.793 Y99.746 E10.02162
G1 X93.184 Y99.541 E10.0363
G1 X93.767 Y99.25 E10.05798
G1 X94.879 Y98.772 E10.09823
G1 X95.429 Y98.572 E10.1177
G1 X95.747 Y98.462 E10.12889
G1 X96.125 Y98.338 E10.14212
G1 X97.301 Y98.026 E10.18259
G1 X97.945 Y97.894 E10.20445
G1 X98.291 Y97.829 E10.21616
G1 X98.637 Y97.77 E10.22784
G1 X99.831 Y97.635 E10.2678
G1 X100.461 Y97.6 E10.28879
G1 X100.806 Y97.587 E10.30027
G1 X101.198 Y97.578 E10.31331
G1 X102.446 Y97.623 E10.35485
G1 X103.584 Y97.732 E10.39287
G0 F6000 X103.626 Y97.334
G1 F1200 X105.278 Y97.51 E10.44813
G1 X107.819 Y97.714 E10.53291
G1 X110.302 Y97.842 E10.61561
G1 X112.832 Y97.902 E10.69978
G1 X115.349 Y97.89 E10.7835
G1 X117.883 Y97.806 E10.86782
G1 X120.328 Y97.656 E10.9493
G1 X124.74 Y97.229 E11.09673
G1 X125.932 Y97.179 E11.13641
G1 X126.83 Y97.194 E11.16628
G1 X127.219 Y97.21 E11.17923
G1 X128.486 Y97.336 E11.22158
G1 X129.137 Y97.439 E11.2435
G1 X129.475 Y97.498 E11.25491
G1 X129.827 Y97.565 E11.26683
G1 X131.104 Y97.888 E11.31064
G1 X132.006 Y98.18 E11.34217
G1 X132.344 Y98.298 E11.35408
G1 X133.523 Y98.788 E11.39655
G1 X134.079 Y99.058 E11.4171
G1 X134.39 Y99.215 E11.42869
G1 X134.725 Y99.391 E11.44128
G1 X135.79 Y100.03 E11.48259
G1 X136.317 Y100.388 E11.50378
G1 X136.625 Y100.605 E11.51631
G1 X136.907 Y100.811 E11.52792
G1 X137.867 Y101.599 E11.56923
G1 X138.369 Y102.061 E11.59192
G1 X138.65 Y102.328 E11.60482
G1 X138.892 Y102.567 E11.61613
G1 X139.721 Y103.484 E11.65724
G1 X140.094 Y103.946 E11.67699
G1 X140.322 Y104.238 E11.68931
G1 X140.563 Y104.558 E11.70264
G1 X141.249 Y105.585 E11.74372
G1 X141.743 Y106.431 E11.7763
G1 X141.92 Y106.753 E11.78852
G1 X142.469 Y107.906 E11.831
G1 X142.681 Y108.427 E11.8497
G1 X142.808 Y108.756 E11.86143
G1 X142.956 Y109.156 E11.87562
G1 X143.323 Y110.35 E11.91717
G1 X143.474 Y110.965 E11.93823
G1 X143.55 Y111.296 E11.94952
G1 X143.625 Y111.648 E11.96149
G1 X143.818 Y112.913 E12.00405
G1 X143.877 Y113.542 E12.02507
G1 X143.903 Y113.876 E12.03621
G1 X143.927 Y114.256 E12.04887
G1 X143.933 Y115.542 E12.09165
G1 X143.88 Y116.439 E12.12153
G1 X143.848 Y116.83 E12.13458
G1 X143.669 Y118.1 E12.17724
G1 X143.546 Y118.712 E12.198
G1 X143.467 Y119.077 E12.21042
G1 X143.379 Y119.449 E12.22314
G1 X143.025 Y120.64 E12.26446
G1 X142.811 Y121.235 E12.28549
G1 X142.687 Y121.562 E12.29712
G1 X142.55 Y121.908 E12.3095
G1 X142.009 Y123.071 E12.35216
G1 X141.567 Y123.884 E12.38294
G1 X141.377 Y124.214 E12.39561
G1 X140.667 Y125.294 E12.4386
G1 X140.08 Y126.074 E12.47106
G1 X139.841 Y126.375 E12.48385
G1 X138.995 Y127.323 E12.52611
G1 X138.592 Y127.725 E12.54504
G1 X138.36 Y127.949 E12.55577
G1 X138.056 Y128.235 E12.56965
G1 X137.074 Y129.056 E12.61222
G1 X136.295 Y129.628 E12.64437
G1 X135.989 Y129.841 E12.65677
G1 X134.901 Y130.508 E12.69921
G1 X134.386 Y130.784 E12.71865
G1 X134.056 Y130.954 E12.73099
G1 X133.683 Y131.138 E12.74483
G1 X132.557 Y131.618 E12.78554
G1 X131.979 Y131.827 E12.80598
G1 X131.619 Y131.95 E12.81863
G1 X131.269 Y132.063 E12.83087
G1 X130.065 Y132.378 E12.87226
G1 X129.401 Y132.512 E12.89479
G1 X129.044 Y132.578 E12.90686
G1 X128.71 Y132.634 E12.91813
G1 X127.463 Y132.77 E12.95985
G1 X126.868 Y132.801 E12.97967
G1 X126.537 Y132.813 E12.99068
G1 X126.127 Y132.822 E13.00432
G1 X124.856 Y132.777 E13.04662
G1 X123.527 Y132.651 E13.09102
G1 X121.952 Y132.481 E13.14371
G1 X119.449 Y132.283 E13.22722
G1 X116.914 Y132.154 E13.31165
G1 X114.433 Y132.099 E13.39418
G1 X111.904 Y132.113 E13.4783
G1 X109.383 Y132.199 E13.5622
G1 X106.896 Y132.354 E13.64508
G1 X102.582 Y132.771 E13.78923
G1 X101.388 Y132.821 E13.82898
G1 X100.817 Y132.814 E13.84797
G1 X100.458 Y132.804 E13.85991
G1 X100.058 Y132.786 E13.87323
G1 X98.796 Y132.656 E13.91543
G1 X98.122 Y132.547 E13.93814
G1 X97.758 Y132.482 E13.95044
G1 X97.427 Y132.417 E13.96166
G1 X96.186 Y132.097 E14.00428
G1 X95.291 Y131.806 E14.03558
G1 X94.949 Y131.686 E14.04764
G1 X93.729 Y131.173 E14.09166
G1 X92.887 Y130.753 E14.12295
G1 X92.538 Y130.568 E14.13609
G1 X91.472 Y129.923 E14.17753
G1 X91.275 Y129.788 E14.18547
G1 X90.525 Y129.225 E14.21666
G1 X89.643 Y128.42 E14.25638
G1 X89.483 Y128.257 E14.26398
G1 X88.855 Y127.56 E14.29518
G1 X88.289 Y126.812 E14.32638
G1 X87.64 Y125.752 E14.36772
G1 X87.413 Y125.329 E14.38369
G1 X87.006 Y124.485 E14.41485
G1 X86.671 Y123.609 E14.44605
G1 X86.413 Y122.707 E14.47725
G1 X86.214 Y121.664 E14.51257
G1 X86.158 Y121.267 E14.5259
G1 X86.067 Y120.334 E14.55708
G1 X86.054 Y119.447 E14.58658
G1 X86.081 Y118.443 E14.61999
G1 X86.126 Y117.315 E14.65754
G1 X86.154 Y114.818 E14.74059
G1 X86.099 Y111.937 E14.83643
G1 X86.056 Y110.675 E14.87843
G1 X86.064 Y109.737 E14.90963
G1 X86.186 Y108.573 E14.94856
G1 X86.264 Y108.082 E14.96509
G1 X86.451 Y107.163 E14.99629
G1 X86.715 Y106.263 E15.02748
G1 X87.055 Y105.389 E15.05867
G1 X87.617 Y104.281 E15.09999
G1 X87.832 Y103.911 E15.11423
G1 X88.337 Y103.121 E15.14541
G1 X88.908 Y102.377 E15.17661
G1 X89.54 Y101.684 E15.2078
G1 X90.286 Y101 E15.24146
G1 X90.622 Y100.719 E15.25603
G1 X91.367 Y100.148 E15.28725
G1 X92.361 Y99.528 E15.32622
G1 X92.6 Y99.396 E15.3353
G1 X93.005 Y99.183 E15.35052
G1 X93.588 Y98.892 E15.37219
G1 X94.742 Y98.396 E15.41397
G1 X95.292 Y98.196 E15.43343
G1 X95.622 Y98.082 E15.44504
G1 X96 Y97.958 E15.45827
G1 X97.22 Y97.634 E15.50026
G1 X97.864 Y97.502 E15.52212
G1 X98.224 Y97.435 E15.5343
G1 X98.57 Y97.376 E15.54598
G1 X99.809 Y97.236 E15.58745
G1 X100.439 Y97.201 E15.60843
G1 X100.797 Y97.187 E15.62035
G1 X101.189 Y97.178 E15.63339
G1 X102.484 Y97.225 E15.67649
G1 X103.626 Y97.334 E15.71465
G1 F2700 E10.71465
;MESH:M4XWrenchX1.stl
G0 F6000 X123.205 Y113.318
G0 X121.753 Y112.479
G0 X122.112 Y117.312
G0 X126.119 Y119.819
;TYPE:WALL-INNER
G1 F2700 E15.71465
G1 F1200 X130.292 Y117.409 E15.87493
G1 X130.292 Y112.591 E16.03517
G1 X126.119 Y110.181 E16.19545
G1 X121.946 Y112.591 E16.35573
G1 X121.946 Y117.409 E16.51598
G1 X126.119 Y119.819 E16.67626
G0 F6000 X126.119 Y119.357
;TYPE:WALL-OUTER
G1 F1200 X129.892 Y117.178 E16.82117
G1 X129.892 Y112.822 E16.96605
G1 X126.119 Y110.643 E17.11097
G1 X122.346 Y112.822 E17.25588
G1 X122.346 Y117.178 E17.40076
G1 X126.119 Y119.357 E17.54568
G1 F2700 E12.54568
G0 F6000 X125.967 Y119.615
G0 X125.721 Y119.832
