;FLAVOR:Marlin
;TIME:604
;Filament used: 0.187811m
;Layer height: 0.2
;MINX:99.97
;MINY:100.5
;MINZ:0.2
;MAXX:130.029
;MAXY:129.5
;MAXZ:38
;Generated with Cura_SteamEngine 4.6.1
M140 S55
M105
M190 S55
M104 S210
M105
M109 S210
M82 ;absolute extrusion mode
; Ender 3 Custom Start G-code
G92 E0 ; Reset Extruder
G28 ; Home all axes
G1 Z2.0 F3000 ; Move Z Axis up little to prevent scratching of Heat Bed
G1 X0.1 Y20 Z0.3 F5000.0 ; Move to start position
G1 X0.1 Y200.0 Z0.3 F1500.0 E15 ; Draw the first line
G1 X0.4 Y200.0 Z0.3 F5000.0 ; Move to side a little
G1 X0.4 Y20 Z0.3 F1500.0 E30 ; Draw the second line
G92 E0 ; Reset Extruder
G1 Z2.0 F3000 ; Move Z Axis up little to prevent scratching of Heat Bed
G1 X5 Y20 Z0.3 F5000.0 ; Move over to prevent blob squish
G92 E0
G92 E0
G1 F2700 E-5
;LAYER_COUNT:190
;LAYER:0
M107
G0 F6000 X117.158 Y101.311 Z0.2
;TYPE:SKIRT
G1 F2700 E0
G1 F1200 X118.06 Y101.364 E0.03005
G1 X118.953 Y101.496 E0.06008
G1 X119.831 Y101.707 E0.09011
G1 X120.687 Y101.995 E0.12015
G1 X121.514 Y102.357 E0.15018
G1 X122.306 Y102.792 E0.18023
G1 X123.057 Y103.294 E0.21027
G1 X123.76 Y103.861 E0.24031
G1 X124.41 Y104.488 E0.27035
G1 X125.002 Y105.17 E0.30039
G1 X125.532 Y105.901 E0.33042
G1 X125.78 Y106.298 E0.34599
G1 X126.337 Y107.236 E0.38227
G1 X127.573 Y109.38 E0.46458
G1 X127.93 Y110.018 E0.4889
G1 X128.336 Y110.825 E0.51895
G1 X128.669 Y111.665 E0.549
G1 X128.926 Y112.53 E0.57901
G1 X129.105 Y113.415 E0.60904
G1 X129.206 Y114.313 E0.6391
G1 X129.227 Y115.216 E0.66914
G1 X129.168 Y116.117 E0.69917
G1 X129.029 Y117.009 E0.7292
G1 X128.812 Y117.886 E0.75925
G1 X128.518 Y118.74 E0.78929
G1 X127.976 Y119.897 E0.83178
G1 X127.621 Y120.54 E0.85621
G1 X126.156 Y123.076 E0.95362
G1 X125.772 Y123.719 E0.97853
G1 X125.275 Y124.473 E1.00857
G1 X124.714 Y125.18 E1.03859
G1 X124.092 Y125.835 E1.06863
G1 X123.414 Y126.432 E1.09868
G1 X122.686 Y126.967 E1.12873
G1 X121.914 Y127.435 E1.15875
G1 X121.104 Y127.834 E1.18878
G1 X120.261 Y128.159 E1.21883
G1 X119.393 Y128.408 E1.24887
G1 X118.506 Y128.579 E1.27891
G1 X117.164 Y128.688 E1.32369
G1 X116.262 Y128.7 E1.3537
G1 X113.541 Y128.699 E1.4442
G1 X112.84 Y128.689 E1.46752
G1 X111.938 Y128.636 E1.49757
G1 X111.045 Y128.504 E1.52759
G1 X110.166 Y128.293 E1.55766
G1 X109.31 Y128.005 E1.5877
G1 X108.483 Y127.643 E1.61772
G1 X107.691 Y127.209 E1.64776
G1 X106.941 Y126.706 E1.6778
G1 X106.238 Y126.139 E1.70784
G1 X105.588 Y125.513 E1.73785
G1 X104.995 Y124.831 E1.76791
G1 X104.228 Y123.721 E1.81279
G1 X103.793 Y122.99 E1.84108
G1 X102.416 Y120.601 E1.93279
G1 X102.068 Y119.979 E1.9565
G1 X101.663 Y119.172 E1.98653
G1 X101.33 Y118.333 E2.01655
G1 X101.073 Y117.467 E2.0466
G1 X100.894 Y116.582 E2.07663
G1 X100.793 Y115.684 E2.10668
G1 X100.772 Y114.782 E2.13669
G1 X100.832 Y113.88 E2.16676
G1 X100.97 Y112.988 E2.19678
G1 X101.187 Y112.111 E2.22683
G1 X101.481 Y111.257 E2.25687
G1 X102.043 Y110.065 E2.3007
G1 X102.377 Y109.465 E2.32354
G1 X103.85 Y106.914 E2.42152
G1 X104.228 Y106.281 E2.44604
G1 X104.724 Y105.527 E2.47605
G1 X105.286 Y104.82 E2.50609
G1 X105.908 Y104.165 E2.53614
G1 X106.586 Y103.568 E2.56618
G1 X107.313 Y103.033 E2.59621
G1 X108.085 Y102.565 E2.62623
G1 X108.896 Y102.167 E2.65628
G1 X109.738 Y101.841 E2.68631
G1 X110.607 Y101.592 E2.71638
G1 X111.493 Y101.421 E2.74639
G1 X112.836 Y101.312 E2.7912
G1 X113.738 Y101.3 E2.82121
G1 X116.46 Y101.301 E2.91174
G1 X117.158 Y101.311 E2.93496
G0 F6000 X117.164 Y100.911
G1 F1200 X118.083 Y100.964 E2.96558
G1 X118.994 Y101.097 E2.9962
G1 X119.89 Y101.308 E3.02681
G1 X120.764 Y101.596 E3.05742
G1 X121.611 Y101.959 E3.08807
G1 X122.422 Y102.394 E3.11868
G1 X123.192 Y102.898 E3.14929
G1 X123.916 Y103.467 E3.17991
G1 X124.588 Y104.097 E3.21055
G1 X125.203 Y104.782 E3.24117
G1 X125.756 Y105.518 E3.27179
G1 X126.124 Y106.094 E3.29452
G1 X126.683 Y107.036 E3.33096
G1 X127.922 Y109.185 E3.41346
G1 X128.279 Y109.823 E3.43778
G1 X128.694 Y110.645 E3.4684
G1 X129.035 Y111.5 E3.49902
G1 X129.301 Y112.382 E3.52966
G1 X129.489 Y113.283 E3.56027
G1 X129.599 Y114.197 E3.59089
G1 X129.628 Y115.117 E3.62151
G1 X129.578 Y116.036 E3.65212
G1 X129.448 Y116.948 E3.68276
G1 X129.24 Y117.845 E3.71338
G1 X128.955 Y118.72 E3.74399
G1 X128.594 Y119.567 E3.77461
G1 X128.327 Y120.09 E3.79414
G1 X127.968 Y120.739 E3.81881
G1 X126.5 Y123.281 E3.91645
G1 X126.116 Y123.924 E3.94135
G1 X125.61 Y124.693 E3.97197
G1 X125.039 Y125.415 E4.00259
G1 X124.408 Y126.086 E4.03322
G1 X123.721 Y126.698 E4.06383
G1 X122.983 Y127.249 E4.09446
G1 X122.2 Y127.734 E4.12509
G1 X121.379 Y128.149 E4.15569
G1 X120.524 Y128.491 E4.18632
G1 X119.643 Y128.758 E4.21693
G1 X118.742 Y128.947 E4.24755
G1 X117.828 Y129.058 E4.27818
G1 X117.17 Y129.088 E4.30009
G1 X116.262 Y129.1 E4.33029
G1 X113.535 Y129.099 E4.42099
G1 X112.834 Y129.089 E4.44431
G1 X111.915 Y129.036 E4.47492
G1 X111.004 Y128.903 E4.50554
G1 X110.108 Y128.692 E4.53616
G1 X109.233 Y128.404 E4.5668
G1 X108.387 Y128.041 E4.59742
G1 X107.576 Y127.606 E4.62803
G1 X106.805 Y127.102 E4.65866
G1 X106.081 Y126.533 E4.68929
G1 X105.409 Y125.904 E4.71991
G1 X104.794 Y125.219 E4.75052
G1 X104.241 Y124.483 E4.78114
G1 X103.885 Y123.926 E4.80313
G1 X103.447 Y123.19 E4.83162
G1 X102.067 Y120.797 E4.92349
G1 X101.719 Y120.175 E4.9472
G1 X101.305 Y119.352 E4.97784
G1 X100.964 Y118.497 E5.00846
G1 X100.698 Y117.616 E5.03906
G1 X100.51 Y116.715 E5.06968
G1 X100.4 Y115.801 E5.1003
G1 X100.371 Y114.88 E5.13094
G1 X100.421 Y113.961 E5.16156
G1 X100.551 Y113.05 E5.19216
G1 X100.759 Y112.153 E5.22279
G1 X101.045 Y111.278 E5.25341
G1 X101.405 Y110.43 E5.28405
G1 X101.693 Y109.871 E5.30496
G1 X102.03 Y109.265 E5.32802
G1 X103.506 Y106.709 E5.42619
G1 X103.884 Y106.076 E5.45072
G1 X104.39 Y105.307 E5.48133
G1 X104.961 Y104.585 E5.51195
G1 X105.592 Y103.915 E5.54256
G1 X106.279 Y103.302 E5.57318
G1 X107.017 Y102.751 E5.60382
G1 X107.799 Y102.266 E5.63442
G1 X108.621 Y101.851 E5.66505
G1 X109.476 Y101.509 E5.69568
G1 X110.357 Y101.242 E5.7263
G1 X111.258 Y101.053 E5.75691
G1 X112.172 Y100.942 E5.78754
G1 X112.83 Y100.912 E5.80945
G1 X113.738 Y100.9 E5.83965
G1 X116.466 Y100.901 E5.93038
G1 X117.164 Y100.911 E5.9536
G0 F6000 X117.17 Y100.511
G1 F1200 X118.106 Y100.565 E5.98478
G1 X119.034 Y100.697 E6.01596
G1 X119.948 Y100.909 E6.04717
G1 X120.84 Y101.198 E6.07835
G1 X121.705 Y101.561 E6.10955
G1 X122.535 Y101.997 E6.14074
G1 X123.326 Y102.502 E6.17195
G1 X124.07 Y103.073 E6.20314
G1 X124.763 Y103.705 E6.23434
G1 X125.4 Y104.393 E6.26552
G1 X125.975 Y105.134 E6.29672
G1 X126.468 Y105.889 E6.32671
G1 X127.03 Y106.836 E6.36334
G1 X128.271 Y108.99 E6.44602
G1 X128.628 Y109.628 E6.47033
G1 X129.051 Y110.465 E6.50153
G1 X129.401 Y111.335 E6.53272
G1 X129.675 Y112.232 E6.56391
G1 X129.872 Y113.149 E6.59511
G1 X129.99 Y114.079 E6.62629
G1 X130.029 Y115.016 E6.65748
G1 X129.988 Y115.953 E6.68867
G1 X129.866 Y116.883 E6.71987
G1 X129.667 Y117.8 E6.75108
G1 X129.389 Y118.695 E6.78225
G1 X129.037 Y119.565 E6.81346
G1 X128.677 Y120.282 E6.84015
G1 X128.314 Y120.939 E6.86512
G1 X126.843 Y123.486 E6.96294
G1 X126.459 Y124.129 E6.98785
G1 X125.944 Y124.913 E7.01905
G1 X125.365 Y125.65 E7.05022
G1 X124.724 Y126.335 E7.08143
G1 X124.028 Y126.964 E7.11263
G1 X123.28 Y127.53 E7.14383
G1 X122.488 Y128.031 E7.175
G1 X121.655 Y128.463 E7.20621
G1 X120.788 Y128.822 E7.23742
G1 X119.894 Y129.105 E7.26861
G1 X118.98 Y129.312 E7.29977
G1 X118.051 Y129.44 E7.33097
G1 X117.176 Y129.488 E7.36011
G1 X116.262 Y129.5 E7.39051
G1 X113.529 Y129.499 E7.48141
G1 X112.828 Y129.489 E7.50473
G1 X111.892 Y129.436 E7.53591
G1 X110.963 Y129.303 E7.56713
G1 X110.05 Y129.091 E7.5983
G1 X109.157 Y128.803 E7.62951
G1 X108.293 Y128.439 E7.66069
G1 X107.462 Y128.003 E7.6919
G1 X106.672 Y127.498 E7.72309
G1 X105.928 Y126.928 E7.75426
G1 X105.235 Y126.296 E7.78546
G1 X104.598 Y125.607 E7.81667
G1 X104.022 Y124.867 E7.84786
G1 X103.541 Y124.131 E7.8771
G1 X103.1 Y123.39 E7.90578
G1 X101.718 Y120.992 E7.99784
G1 X101.37 Y120.37 E8.02154
G1 X100.948 Y119.533 E8.05272
G1 X100.598 Y118.662 E8.08394
G1 X100.324 Y117.766 E8.1151
G1 X100.127 Y116.849 E8.1463
G1 X100.008 Y115.918 E8.17751
G1 X99.97 Y114.981 E8.20871
G1 X100.012 Y114.044 E8.2399
G1 X100.133 Y113.114 E8.27109
G1 X100.333 Y112.198 E8.30228
G1 X100.61 Y111.302 E8.33347
G1 X100.962 Y110.433 E8.36465
G1 X101.343 Y109.678 E8.39278
G1 X101.684 Y109.065 E8.41611
G1 X103.163 Y106.504 E8.51448
G1 X103.541 Y105.871 E8.539
G1 X104.055 Y105.087 E8.57018
G1 X104.635 Y104.35 E8.60137
G1 X105.275 Y103.665 E8.63255
G1 X105.972 Y103.037 E8.66376
G1 X106.719 Y102.47 E8.69495
G1 X107.512 Y101.969 E8.72615
G1 X108.345 Y101.538 E8.75734
G1 X109.211 Y101.179 E8.78852
G1 X110.105 Y100.895 E8.81972
G1 X111.02 Y100.688 E8.85092
G1 X111.949 Y100.56 E8.88211
G1 X112.824 Y100.512 E8.91126
G1 X113.738 Y100.5 E8.94166
G1 X116.472 Y100.501 E9.03259
G1 X117.17 Y100.511 E9.05581
G1 F2700 E4.05581
;MESH:M4X35mmX1.stl
G0 F6000 X116.779 Y110.835
G0 X116.779 Y111.917
G0 X113.427 Y112.276
G0 X111.854 Y115
G0 X113.325 Y117.9
;TYPE:WALL-INNER
G1 F2700 E9.05581
G1 F1200 X111.651 Y115 E9.16718
G1 X113.326 Y112.1 E9.27857
G1 X116.673 Y112.1 E9.38989
G1 X118.349 Y115 E9.5013
G1 X116.674 Y117.9 E9.61268
G1 X113.325 Y117.9 E9.72407
G0 F6000 X113.094 Y118.3
;TYPE:WALL-OUTER
G1 F1200 X111.19 Y115 E9.85079
G1 X111.2 Y114.982 E9.85147
G1 X113.095 Y111.7 E9.97752
G1 X116.905 Y111.7 E10.10424
G1 X116.914 Y111.716 E10.10485
G1 X118.81 Y115 E10.23098
G1 X118.8 Y115.018 E10.23166
G1 X116.905 Y118.3 E10.35771
G1 X113.094 Y118.3 E10.48447
G0 F6000 X113.366 Y117.891
G0 X113.55 Y117.51
;TYPE:SKIN
G1 F1200 X112.102 Y115 E10.58084
G1 X113.551 Y112.49 E10.67724
G1 X116.448 Y112.49 E10.77359
G1 X117.898 Y115 E10.87001
G1 X116.449 Y117.51 E10.9664
G1 X113.55 Y117.51 E11.06282
G0 F6000 X113.955 Y117.349
G1 F1200 X113.216 Y116.61 E11.09758
G0 F6000 X112.835 Y116.829
G0 X113.426 Y117.724
G0 X114.52 Y117.79
G0 X114.52 Y117.349
G1 F1200 X112.444 Y115.273 E11.19523
G0 F6000 X112.451 Y114.713
G1 F1200 X115.086 Y117.349 E11.3192
G0 F6000 X115.652 Y117.349
G1 F1200 X112.658 Y114.355 E11.46003
G0 F6000 X112.865 Y113.996
G1 F1200 X116.217 Y117.349 E11.61772
G0 F6000 X116.512 Y117.078
G1 F1200 X113.072 Y113.637 E11.77955
G0 F6000 X113.279 Y113.279
G1 F1200 X116.719 Y116.719 E11.94136
G0 F6000 X116.927 Y116.361
G1 F1200 X113.486 Y112.92 E12.10321
G0 F6000 X113.781 Y112.649
G1 F1200 X117.133 Y116.002 E12.2609
G0 F6000 X117.34 Y115.643
G1 F1200 X114.346 Y112.649 E12.40173
G0 F6000 X114.912 Y112.649
G1 F1200 X117.548 Y115.285 E12.52572
G0 F6000 X117.553 Y114.725
G1 F1200 X115.478 Y112.649 E12.62334
G0 F6000 X116.044 Y112.649
G1 F1200 X116.78 Y113.386 E12.65799
G0 F6000 X117.084 Y113.21
;MESH:NONMESH
G0 F300 X117.084 Y113.21 Z0.4
G0 F6000 X117.161 Y113.166
G0 X118.146 Y115
G0 X116.675 Y117.9
;TIME_ELAPSED:26.297159
;LAYER:1
M140 S55
M106 S85
;TYPE:WALL-INNER
;MESH:M4X35mmX1.stl
G1 F655.2 X113.325 Y117.9 E12.76941
G1 X111.651 Y115 E12.88078
G1 X113.325 Y112.1 E12.99215
G1 X116.675 Y112.1 E13.10357
G1 X118.349 Y115 E13.21494
G1 X116.675 Y117.9 E13.32631
G0 F7500 X116.906 Y118.3
;TYPE:WALL-OUTER
G1 F655.2 X113.094 Y118.3 E13.4531
G1 X111.19 Y115 E13.57982
G1 X113.094 Y111.7 E13.70653
G1 X116.906 Y111.7 E13.83332
G1 X118.81 Y115 E13.96004
G1 X116.906 Y118.3 E14.08676
G0 F7500 X116.686 Y117.86
G0 X116.45 Y117.51
;TYPE:SKIN
G1 F655.2 X113.55 Y117.51 E14.18321
G1 X112.102 Y115 E14.27959
G1 X113.55 Y112.49 E14.37597
G1 X116.45 Y112.49 E14.47242
G1 X117.898 Y115 E14.5688
G1 X116.45 Y117.51 E14.66518
G0 F7500 X116.278 Y117.349
G1 F655.2 X116.465 Y117.162 E14.67398
G0 F7500 X115.713 Y117.349
G1 F655.2 X117.234 Y115.827 E14.74554
G0 F7500 X117.616 Y116.047
G0 X118.146 Y115
G0 X118.015 Y114.644
G0 X117.632 Y114.863
G1 F655.2 X115.147 Y117.349 E14.86245
G0 F7500 X114.581 Y117.349
G1 F655.2 X117.426 Y114.504 E14.99627
G0 F7500 X117.219 Y114.146
G1 F655.2 X114.016 Y117.349 E15.14693
G0 F7500 X113.572 Y117.226
G1 F655.2 X117.012 Y113.787 E15.30872
G0 F7500 X116.805 Y113.428
G1 F655.2 X113.365 Y116.868 E15.47052
G0 F7500 X113.159 Y116.509
G1 F655.2 X116.598 Y113.069 E15.63231
G0 F7500 X116.391 Y112.71
G1 F655.2 X112.951 Y116.15 E15.79411
G0 F7500 X112.744 Y115.792
G1 F655.2 X115.887 Y112.649 E15.94195
G0 F7500 X115.321 Y112.649
G1 F655.2 X112.538 Y115.433 E16.07288
G0 F7500 X112.33 Y115.074
G1 F655.2 X114.755 Y112.649 E16.18694
G0 F7500 X114.189 Y112.649
G1 F655.2 X112.895 Y113.944 E16.24783
G0 F7500 X112.592 Y113.769
;MESH:NONMESH
G0 F300 X112.592 Y113.769 Z0.6
G0 F7500 X112.516 Y113.725
G0 X111.854 Y115
G0 X113.426 Y117.724
G0 X116.675 Y117.9
;TIME_ELAPSED:37.621554
;LAYER:2
M106 S170
;TYPE:WALL-INNER
;MESH:M4X35mmX1.stl
G1 F658.4 X113.325 Y117.9 E16.35925
G1 X111.651 Y115 E16.47062
G1 X113.325 Y112.1 E16.58199
G1 X116.675 Y112.1 E16.69342
G1 X118.349 Y115 E16.80479
G1 X116.675 Y117.9 E16.91616
G0 F9000 X116.906 Y118.3
;TYPE:WALL-OUTER
G1 F658.4 X113.094 Y118.3 E17.04295
G1 X111.19 Y115 E17.16966
G1 X113.094 Y111.7 E17.29638
G1 X116.906 Y111.7 E17.42317
G1 X118.81 Y115 E17.54988
G1 X116.906 Y118.3 E17.6766
G0 F9000 X116.686 Y117.86
G0 X116.45 Y117.51
;TYPE:SKIN
G1 F658.4 X113.55 Y117.51 E17.77306
G1 X112.102 Y115 E17.86943
G1 X113.55 Y112.49 E17.96581
G1 X116.45 Y112.49 E18.06227
G1 X117.898 Y115 E18.15865
G1 X116.45 Y117.51 E18.25503
G0 F9000 X116.691 Y117.649
G0 X116.626 Y117.691
G0 X113.955 Y117.79
G0 X113.955 Y117.349
G1 F658.4 X113.216 Y116.61 E18.28979
G0 F9000 X112.835 Y116.829
G0 X113.426 Y117.724
G0 X114.52 Y117.79
G0 X114.52 Y117.349
G1 F658.4 X112.444 Y115.273 E18.38743
G0 F9000 X112.451 Y114.713
G1 F658.4 X115.086 Y117.349 E18.5114
G0 F9000 X115.652 Y117.349
G1 F658.4 X112.657 Y114.354 E18.65228
G0 F9000 X112.864 Y113.996
G1 F658.4 X116.217 Y117.349 E18.80999
G0 F9000 X116.514 Y117.079
G1 F658.4 X113.071 Y113.637 E18.97192
G0 F9000 X113.278 Y113.278
G1 F658.4 X116.72 Y116.72 E19.13382
G0 F9000 X116.927 Y116.362
G1 F658.4 X113.484 Y112.919 E19.29576
G0 F9000 X113.781 Y112.65
G1 F658.4 X117.134 Y116.002 E19.45346
G0 F9000 X117.341 Y115.644
G1 F658.4 X114.347 Y112.65 E19.59428
G0 F9000 X114.913 Y112.65
G1 F658.4 X117.548 Y115.285 E19.71823
G0 F9000 X117.554 Y114.725
G1 F658.4 X115.479 Y112.65 E19.81583
G0 F9000 X116.044 Y112.65
G1 F658.4 X116.783 Y113.389 E19.85059
G0 F9000 X117.088 Y113.214
;MESH:NONMESH
G0 F300 X117.088 Y113.214 Z0.8
G0 F9000 X117.165 Y113.171
G0 X118.146 Y115
G0 X116.675 Y117.9
;TIME_ELAPSED:49.031728
;LAYER:3
M106 S255
;TYPE:WALL-INNER
;MESH:M4X35mmX1.stl
G1 F653.9 X113.325 Y117.9 E19.96201
G1 X111.651 Y115 E20.07338
G1 X113.325 Y112.1 E20.18475
G1 X116.675 Y112.1 E20.29617
G1 X118.349 Y115 E20.40754
G1 X116.675 Y117.9 E20.51891
G0 F9000 X116.906 Y118.3
;TYPE:WALL-OUTER
G1 F653.9 X113.094 Y118.3 E20.6457
G1 X111.19 Y115 E20.77242
G1 X113.094 Y111.7 E20.89914
G1 X116.906 Y111.7 E21.02592
G1 X118.81 Y115 E21.15264
G1 X116.906 Y118.3 E21.27936
G0 F9000 X116.686 Y117.86
G0 X116.45 Y117.51
;TYPE:SKIN
G1 F653.9 X113.55 Y117.51 E21.37581
G1 X112.102 Y115 E21.47219
G1 X113.55 Y112.49 E21.56857
G1 X116.45 Y112.49 E21.66502
G1 X117.898 Y115 E21.7614
G1 X116.45 Y117.51 E21.85778
G0 F9000 X116.278 Y117.349
G1 F653.9 X116.465 Y117.162 E21.86658
G0 F9000 X115.713 Y117.349
G1 F653.9 X117.234 Y115.827 E21.93814
G0 F9000 X117.616 Y116.047
G0 X118.146 Y115
G0 X118.015 Y114.644
G0 X117.632 Y114.863
G1 F653.9 X115.147 Y117.349 E22.05506
G0 F9000 X114.581 Y117.349
G1 F653.9 X117.426 Y114.504 E22.18888
G0 F9000 X117.219 Y114.146
G1 F653.9 X114.016 Y117.349 E22.33953
G0 F9000 X113.572 Y117.226
G1 F653.9 X117.012 Y113.787 E22.50132
G0 F9000 X116.805 Y113.428
G1 F653.9 X113.365 Y116.868 E22.66312
G0 F9000 X113.159 Y116.509
G1 F653.9 X116.598 Y113.069 E22.82491
G0 F9000 X116.391 Y112.71
G1 F653.9 X112.951 Y116.15 E22.98672
G0 F9000 X112.744 Y115.792
G1 F653.9 X115.887 Y112.649 E23.13455
G0 F9000 X115.321 Y112.649
G1 F653.9 X112.538 Y115.433 E23.26548
G0 F9000 X112.33 Y115.074
G1 F653.9 X114.755 Y112.649 E23.37954
G0 F9000 X114.189 Y112.649
G1 F653.9 X112.895 Y113.944 E23.44043
G0 F9000 X112.592 Y113.769
;MESH:NONMESH
G0 F300 X112.592 Y113.769 Z1
G0 F9000 X112.516 Y113.725
G0 X111.854 Y115
G0 X113.426 Y117.724
