;FLAVOR:Marlin
;TIME:1868
;Filament used: 1.10124m
;Layer height: 0.2
;MINX:102.044
;MINY:89.265
;MINZ:0.2
;MAXX:139.044
;MAXY:136.265
;MAXZ:25.6
;Generated with Cura_SteamEngine 4.6.1
M140 S70
M105
M190 S70
M104 S200
M105
M109 S200
M82 ;absolute extrusion mode
; Ender 3 Custom Start G-code
G92 E0 ; Reset Extruder
G28 ; Home all axes
G1 Z2.0 F3000 ; Move Z Axis up little to prevent scratching of Heat Bed
G1 X0.1 Y20 Z0.3 F5000.0 ; Move to start position
G1 X0.1 Y200.0 Z0.3 F1500.0 E15 ; Draw the first line
G1 X0.4 Y200.0 Z0.3 F5000.0 ; Move to side a little
G1 X0.4 Y20 Z0.3 F1500.0 E30 ; Draw the second line
G92 E0 ; Reset Extruder
G1 Z2.0 F3000 ; Move Z Axis up little to prevent scratching of Heat Bed
G1 X5 Y20 Z0.3 F5000.0 ; Move over to prevent blob squish
G92 E0
G92 E0
G1 F2700 E-5
;LAYER_COUNT:128
;LAYER:0
M107
G0 F6000 X128.181 Y90.076 Z0.2
;TYPE:SKIRT
G1 F2700 E0
G1 F1200 X129.083 Y90.129 E0.03005
G1 X129.976 Y90.261 E0.06008
G1 X130.854 Y90.472 E0.09011
G1 X131.71 Y90.76 E0.12015
G1 X132.537 Y91.122 E0.15018
G1 X133.329 Y91.557 E0.18023
G1 X134.08 Y92.059 E0.21027
G1 X134.783 Y92.626 E0.24031
G1 X135.433 Y93.253 E0.27035
G1 X136.025 Y93.935 E0.30039
G1 X136.555 Y94.666 E0.33042
G1 X137.017 Y95.442 E0.36046
G1 X137.41 Y96.255 E0.39049
G1 X137.728 Y97.1 E0.42052
G1 X137.971 Y97.97 E0.45056
G1 X138.136 Y98.858 E0.4806
G1 X138.231 Y99.988 E0.51832
G1 X138.244 Y100.595 E0.53851
G1 X138.243 Y124.655 E1.33875
G1 X138.234 Y125.382 E1.36294
G1 X138.183 Y126.284 E1.39298
G1 X138.052 Y127.178 E1.42304
G1 X137.843 Y128.056 E1.45305
G1 X137.557 Y128.913 E1.4831
G1 X137.196 Y129.741 E1.51315
G1 X136.764 Y130.533 E1.54315
G1 X136.263 Y131.285 E1.57321
G1 X135.697 Y131.989 E1.60325
G1 X135.072 Y132.64 E1.63327
G1 X134.391 Y133.234 E1.66332
G1 X133.66 Y133.765 E1.69337
G1 X132.886 Y134.229 E1.72339
G1 X132.073 Y134.623 E1.75344
G1 X131.229 Y134.943 E1.78346
G1 X130.359 Y135.188 E1.81352
G1 X129.472 Y135.354 E1.84353
G1 X128.321 Y135.452 E1.88195
G1 X127.714 Y135.465 E1.90215
G1 X113.619 Y135.464 E2.37095
G1 X112.921 Y135.455 E2.39417
G1 X112.02 Y135.404 E2.42418
G1 X111.126 Y135.272 E2.45424
G1 X110.248 Y135.063 E2.48426
G1 X109.391 Y134.776 E2.51432
G1 X108.564 Y134.415 E2.54433
G1 X107.771 Y133.982 E2.57438
G1 X107.02 Y133.481 E2.60441
G1 X106.316 Y132.915 E2.63445
G1 X105.665 Y132.289 E2.66449
G1 X105.072 Y131.608 E2.69452
G1 X104.542 Y130.877 E2.72456
G1 X104.078 Y130.102 E2.7546
G1 X103.684 Y129.289 E2.78465
G1 X103.364 Y128.445 E2.81467
G1 X103.12 Y127.575 E2.84472
G1 X102.954 Y126.687 E2.87477
G1 X102.857 Y125.532 E2.91332
G1 X102.844 Y124.923 E2.93358
G1 X102.845 Y100.801 E3.73588
G1 X102.854 Y100.136 E3.758
G1 X102.906 Y99.234 E3.78805
G1 X103.038 Y98.341 E3.81808
G1 X103.248 Y97.463 E3.8481
G1 X103.535 Y96.606 E3.87816
G1 X103.897 Y95.779 E3.90819
G1 X104.33 Y94.987 E3.93821
G1 X104.832 Y94.236 E3.96825
G1 X105.399 Y93.532 E3.99832
G1 X106.025 Y92.882 E4.02833
G1 X106.706 Y92.289 E4.05837
G1 X107.438 Y91.759 E4.08843
G1 X108.213 Y91.296 E4.11845
G1 X109.026 Y90.903 E4.14849
G1 X109.871 Y90.583 E4.17854
G1 X110.74 Y90.34 E4.20855
G1 X111.628 Y90.174 E4.2386
G1 X112.767 Y90.078 E4.27661
G1 X113.374 Y90.065 E4.29681
G1 X127.483 Y90.066 E4.76608
G1 X128.181 Y90.076 E4.78929
G0 F6000 X128.187 Y89.676
G1 F1200 X129.106 Y89.729 E4.81991
G1 X130.017 Y89.862 E4.85053
G1 X130.913 Y90.073 E4.88115
G1 X131.787 Y90.361 E4.91175
G1 X132.634 Y90.724 E4.9424
G1 X133.445 Y91.159 E4.97301
G1 X134.215 Y91.663 E5.00362
G1 X134.939 Y92.232 E5.03425
G1 X135.611 Y92.862 E5.06489
G1 X136.226 Y93.547 E5.0955
G1 X136.779 Y94.283 E5.12612
G1 X137.266 Y95.064 E5.15674
G1 X137.683 Y95.885 E5.18736
G1 X138.028 Y96.739 E5.218
G1 X138.297 Y97.619 E5.2486
G1 X138.489 Y98.52 E5.27924
G1 X138.602 Y99.433 E5.30984
G1 X138.631 Y99.977 E5.32796
G1 X138.644 Y100.595 E5.34852
G1 X138.643 Y124.66 E6.14893
G1 X138.634 Y125.387 E6.17311
G1 X138.583 Y126.306 E6.20372
G1 X138.452 Y127.218 E6.23437
G1 X138.242 Y128.114 E6.26497
G1 X137.956 Y128.989 E6.29559
G1 X137.595 Y129.836 E6.32621
G1 X137.161 Y130.648 E6.35684
G1 X136.659 Y131.42 E6.38747
G1 X136.091 Y132.145 E6.4181
G1 X135.463 Y132.818 E6.44871
G1 X134.779 Y133.434 E6.47933
G1 X134.044 Y133.988 E6.50994
G1 X133.264 Y134.477 E6.54056
G1 X132.444 Y134.896 E6.57119
G1 X131.591 Y135.242 E6.60181
G1 X130.711 Y135.513 E6.63243
G1 X129.811 Y135.706 E6.66305
G1 X128.897 Y135.821 E6.69369
G1 X128.332 Y135.852 E6.71251
G1 X127.714 Y135.865 E6.73306
G1 X113.614 Y135.864 E7.20203
G1 X112.916 Y135.855 E7.22525
G1 X111.997 Y135.803 E7.25587
G1 X111.086 Y135.672 E7.28648
G1 X110.19 Y135.462 E7.31709
G1 X109.315 Y135.175 E7.34771
G1 X108.468 Y134.813 E7.37835
G1 X107.656 Y134.379 E7.40897
G1 X106.885 Y133.877 E7.43957
G1 X106.16 Y133.309 E7.47021
G1 X105.487 Y132.68 E7.50084
G1 X104.872 Y131.996 E7.53144
G1 X104.318 Y131.261 E7.56205
G1 X103.83 Y130.48 E7.59268
G1 X103.411 Y129.66 E7.62331
G1 X103.065 Y128.807 E7.65392
G1 X102.795 Y127.927 E7.68454
G1 X102.602 Y127.026 E7.71519
G1 X102.488 Y126.113 E7.74579
G1 X102.457 Y125.542 E7.76481
G1 X102.444 Y124.923 E7.7854
G1 X102.445 Y100.796 E8.58787
G1 X102.454 Y100.131 E8.60999
G1 X102.506 Y99.211 E8.64064
G1 X102.638 Y98.3 E8.67125
G1 X102.849 Y97.404 E8.70187
G1 X103.136 Y96.529 E8.7325
G1 X103.499 Y95.683 E8.76312
G1 X103.933 Y94.871 E8.79374
G1 X104.436 Y94.1 E8.82436
G1 X105.005 Y93.376 E8.85498
G1 X105.633 Y92.704 E8.88558
G1 X106.318 Y92.088 E8.91622
G1 X107.054 Y91.535 E8.94684
G1 X107.835 Y91.047 E8.97747
G1 X108.655 Y90.629 E9.00808
G1 X109.509 Y90.284 E9.03871
G1 X110.389 Y90.014 E9.06933
G1 X111.289 Y89.822 E9.09994
G1 X112.203 Y89.708 E9.13057
G1 X112.756 Y89.678 E9.14899
G1 X113.374 Y89.665 E9.16955
G1 X127.489 Y89.666 E9.63902
G1 X128.187 Y89.676 E9.66224
G0 F6000 X128.193 Y89.276
G1 F1200 X129.129 Y89.33 E9.69342
G1 X130.057 Y89.462 E9.72459
G1 X130.971 Y89.674 E9.7558
G1 X131.863 Y89.963 E9.78699
G1 X132.728 Y90.326 E9.81819
G1 X133.558 Y90.762 E9.84937
G1 X134.349 Y91.267 E9.88059
G1 X135.093 Y91.838 E9.91178
G1 X135.786 Y92.47 E9.94297
G1 X136.423 Y93.158 E9.97416
G1 X136.998 Y93.899 E10.00535
G1 X137.509 Y94.685 E10.03654
G1 X137.951 Y95.513 E10.06775
G1 X138.32 Y96.375 E10.09894
G1 X138.615 Y97.265 E10.13012
G1 X138.833 Y98.177 E10.16131
G1 X138.973 Y99.105 E10.19253
G1 X139.031 Y99.966 E10.22123
G1 X139.044 Y100.595 E10.24215
G1 X139.043 Y124.665 E11.04273
G1 X139.034 Y125.392 E11.06691
G1 X138.983 Y126.329 E11.09812
G1 X138.851 Y127.257 E11.12929
G1 X138.642 Y128.171 E11.16048
G1 X138.355 Y129.064 E11.19168
G1 X137.993 Y129.93 E11.2229
G1 X137.559 Y130.761 E11.25408
G1 X137.055 Y131.552 E11.28527
G1 X136.486 Y132.297 E11.31645
G1 X135.855 Y132.992 E11.34767
G1 X135.168 Y133.63 E11.37886
G1 X134.429 Y134.207 E11.41004
G1 X133.643 Y134.719 E11.44124
G1 X132.817 Y135.162 E11.47241
G1 X131.955 Y135.534 E11.50364
G1 X131.066 Y135.83 E11.5348
G1 X130.154 Y136.05 E11.56601
G1 X129.227 Y136.191 E11.5972
G1 X128.343 Y136.252 E11.62667
G1 X127.714 Y136.265 E11.64759
G1 X113.609 Y136.264 E12.11673
G1 X112.911 Y136.255 E12.13994
G1 X111.975 Y136.203 E12.17112
G1 X111.046 Y136.071 E12.20233
G1 X110.132 Y135.861 E12.23352
G1 X109.239 Y135.574 E12.26472
G1 X108.374 Y135.211 E12.29592
G1 X107.543 Y134.777 E12.3271
G1 X106.752 Y134.273 E12.3583
G1 X106.007 Y133.703 E12.3895
G1 X105.313 Y133.072 E12.4207
G1 X104.676 Y132.385 E12.45186
G1 X104.099 Y131.645 E12.48307
G1 X103.587 Y130.859 E12.51427
G1 X103.144 Y130.032 E12.54547
G1 X102.773 Y129.171 E12.57665
G1 X102.477 Y128.281 E12.60785
G1 X102.258 Y127.369 E12.63904
G1 X102.117 Y126.442 E12.67023
G1 X102.057 Y125.553 E12.69987
G1 X102.044 Y124.923 E12.72082
G1 X102.045 Y100.79 E13.52349
G1 X102.054 Y100.125 E13.54561
G1 X102.107 Y99.189 E13.57679
G1 X102.239 Y98.26 E13.608
G1 X102.45 Y97.346 E13.6392
G1 X102.738 Y96.454 E13.67038
G1 X103.101 Y95.589 E13.70158
G1 X103.536 Y94.758 E13.73277
G1 X104.04 Y93.968 E13.76394
G1 X104.61 Y93.223 E13.79514
G1 X105.242 Y92.529 E13.82636
G1 X105.93 Y91.892 E13.85755
G1 X106.67 Y91.316 E13.88874
G1 X107.456 Y90.804 E13.91994
G1 X108.283 Y90.362 E13.95112
G1 X109.145 Y89.992 E13.98232
G1 X110.035 Y89.696 E14.01352
G1 X110.947 Y89.478 E14.04471
G1 X111.874 Y89.337 E14.07589
G1 X112.745 Y89.278 E14.10493
G1 X113.374 Y89.265 E14.12586
G1 X127.495 Y89.266 E14.59552
G1 X128.193 Y89.276 E14.61874
G1 F2700 E9.61874
;MESH:Object 3
G0 F6000 X127.63 Y99.6
G0 X127.63 Y100.679
G0 X127.262 Y124.483
G0 X113.644 Y124.665
;TYPE:WALL-INNER
G1 F2700 E14.61874
G1 F1200 X113.644 Y100.865 E15.41033
G1 X127.444 Y100.865 E15.86932
G1 X127.444 Y124.665 E16.66091
G1 X113.644 Y124.665 E17.1199
G0 F6000 X113.244 Y125.065
;TYPE:WALL-OUTER
G1 F1200 X113.244 Y100.465 E17.9381
G1 X127.844 Y100.465 E18.4237
G1 X127.844 Y125.065 E19.2419
G1 X113.244 Y125.065 E19.7275
G0 F6000 X113.514 Y124.795
G0 X113.754 Y124.275
G0 X114.034 Y124.275
;TYPE:SKIN
G1 F1200 X114.034 Y101.255 E20.49314
G1 X127.054 Y101.255 E20.92619
G1 X127.054 Y124.275 E21.69184
G1 X114.034 Y124.275 E22.12489
G0 F6000 X114.497 Y124.114
G1 F1200 X114.193 Y123.81 E22.13919
G0 F6000 X114.193 Y123.244
G1 F1200 X115.063 Y124.114 E22.18011
G0 F6000 X115.628 Y124.114
G1 F1200 X114.193 Y122.678 E22.24763
G0 F6000 X114.193 Y122.113
G1 F1200 X116.194 Y124.114 E22.34175
G0 F6000 X116.76 Y124.114
G1 F1200 X114.193 Y121.547 E22.46249
G0 F6000 X114.193 Y120.981
G1 F1200 X117.325 Y124.114 E22.60984
G0 F6000 X117.891 Y124.114
G1 F1200 X114.193 Y120.416 E22.78378
G0 F6000 X114.193 Y119.85
G1 F1200 X118.457 Y124.114 E22.98435
G0 F6000 X119.023 Y124.114
G1 F1200 X114.193 Y119.284 E23.21153
G0 F6000 X114.193 Y118.718
G1 F1200 X119.588 Y124.114 E23.46532
G0 F6000 X120.154 Y124.114
G1 F1200 X114.193 Y118.153 E23.74571
G0 F6000 X114.193 Y117.587
G1 F1200 X120.72 Y124.114 E24.05272
G0 F6000 X121.285 Y124.114
G1 F1200 X114.193 Y117.021 E24.38633
G0 F6000 X114.193 Y116.456
G1 F1200 X121.851 Y124.114 E24.74654
G0 F6000 X122.417 Y124.114
G1 F1200 X114.193 Y115.89 E25.13337
G0 F6000 X114.193 Y115.324
G1 F1200 X122.982 Y124.114 E25.5468
G0 F6000 X123.548 Y124.114
G1 F1200 X114.193 Y114.759 E25.98683
G0 F6000 X114.193 Y114.193
G1 F1200 X124.114 Y124.114 E26.45348
G0 F6000 X124.679 Y124.114
G1 F1200 X114.193 Y113.627 E26.94674
G0 F6000 X114.193 Y113.062
G1 F1200 X125.245 Y124.114 E27.46659
G0 F6000 X125.811 Y124.114
G1 F1200 X114.193 Y112.496 E28.01306
G0 F6000 X114.193 Y111.93
G1 F1200 X126.376 Y124.114 E28.58614
G0 F6000 X126.893 Y124.065
G1 F1200 X114.193 Y111.365 E29.18351
G0 F6000 X114.193 Y110.799
G1 F1200 X126.893 Y123.499 E29.78088
G0 F6000 X126.893 Y122.934
G1 F1200 X114.193 Y110.233 E30.37827
G0 F6000 X114.193 Y109.668
G1 F1200 X126.893 Y122.368 E30.97564
G0 F6000 X126.893 Y121.802
G1 F1200 X114.193 Y109.102 E31.57301
G0 F6000 X114.193 Y108.536
G1 F1200 X126.893 Y121.236 E32.17038
G0 F6000 X126.893 Y120.671
G1 F1200 X114.193 Y107.97 E32.76777
G0 F6000 X114.193 Y107.405
G1 F1200 X126.893 Y120.105 E33.36514
G0 F6000 X126.893 Y119.539
G1 F1200 X114.193 Y106.839 E33.96251
G0 F6000 X114.193 Y106.273
G1 F1200 X126.893 Y118.974 E34.5599
G0 F6000 X126.893 Y118.408
G1 F1200 X114.193 Y105.708 E35.15727
G0 F6000 X114.193 Y105.142
G1 F1200 X126.893 Y117.842 E35.75464
G0 F6000 X126.893 Y117.277
G1 F1200 X114.193 Y104.576 E36.35203
G0 F6000 X114.193 Y104.011
G1 F1200 X126.893 Y116.711 E36.9494
G0 F6000 X126.893 Y116.145
G1 F1200 X114.193 Y103.445 E37.54677
G0 F6000 X114.193 Y102.879
G1 F1200 X126.893 Y115.58 E38.14416
G0 F6000 X126.893 Y115.014
G1 F1200 X114.193 Y102.314 E38.74153
G0 F6000 X114.193 Y101.748
G1 F1200 X126.893 Y114.448 E39.3389
G0 F6000 X126.893 Y113.883
G1 F1200 X114.425 Y101.414 E39.92538
G0 F6000 X114.991 Y101.414
G1 F1200 X126.893 Y113.317 E40.48524
G0 F6000 X126.893 Y112.751
G1 F1200 X115.556 Y101.414 E41.01849
G0 F6000 X116.122 Y101.414
G1 F1200 X126.893 Y112.186 E41.52515
G0 F6000 X126.893 Y111.62
G1 F1200 X116.688 Y101.414 E42.00519
G0 F6000 X117.253 Y101.414
G1 F1200 X126.893 Y111.054 E42.45862
G0 F6000 X126.893 Y110.488
G1 F1200 X117.819 Y101.414 E42.88544
G0 F6000 X118.385 Y101.414
G1 F1200 X126.893 Y109.923 E43.28565
G0 F6000 X126.893 Y109.357
G1 F1200 X118.95 Y101.414 E43.65927
G0 F6000 X119.516 Y101.414
G1 F1200 X126.893 Y108.791 E44.00626
G0 F6000 X126.893 Y108.226
G1 F1200 X120.082 Y101.414 E44.32665
G0 F6000 X120.647 Y101.414
G1 F1200 X126.893 Y107.66 E44.62044
G0 F6000 X126.893 Y107.094
G1 F1200 X121.213 Y101.414 E44.88761
G0 F6000 X121.779 Y101.414
G1 F1200 X126.893 Y106.529 E45.12818
G0 F6000 X126.893 Y105.963
G1 F1200 X122.345 Y101.414 E45.34213
G0 F6000 X122.91 Y101.414
G1 F1200 X126.893 Y105.397 E45.52948
G0 F6000 X126.893 Y104.832
G1 F1200 X123.476 Y101.414 E45.69023
G0 F6000 X124.042 Y101.414
G1 F1200 X126.893 Y104.266 E45.82435
G0 F6000 X126.893 Y103.7
G1 F1200 X124.607 Y101.414 E45.93188
G0 F6000 X125.173 Y101.414
G1 F1200 X126.893 Y103.135 E46.01281
G0 F6000 X126.893 Y102.569
G1 F1200 X125.739 Y101.414 E46.06711
G0 F6000 X126.304 Y101.414
G1 F1200 X126.893 Y102.003 E46.09481
G0 F6000 X127.244 Y102.003
G1 F2700 E41.09481
;MESH:NONMESH
G0 F300 X127.244 Y102.003 Z0.4
G0 F6000 X127.334 Y102.003
G0 X127.262 Y124.483
G0 X113.644 Y124.665
;TIME_ELAPSED:80.756836
;LAYER:1
M140 S70
M106 S85
;TYPE:WALL-INNER
;MESH:Object 3
G1 F2700 E46.09481
G1 F2100 X113.644 Y100.865 E46.88641
G1 X127.436 Y100.865 E47.34513
G1 X127.444 Y124.466 E48.1301
G1 X127.444 Y124.665 E48.13672
G1 X127.245 Y124.665 E48.141
G1 X113.644 Y124.665 E48.59337
G0 F10500 X113.244 Y125.065
;TYPE:WALL-OUTER
G1 F2100 X113.244 Y100.465 E49.41157
G1 X127.836 Y100.465 E49.89691
G1 X127.844 Y125.065 E50.7151
G1 X113.244 Y125.065 E51.2007
G0 F10500 X113.514 Y124.795
G0 X113.754 Y124.275
G0 X114.034 Y124.275
;TYPE:SKIN
G1 F2100 X114.034 Y101.255 E51.96635
G1 X127.046 Y101.255 E52.39913
G1 X127.054 Y124.275 E53.16478
G1 X114.034 Y124.275 E53.59783
G0 F10500 X113.754 Y124.275
G0 X113.826 Y124.483
G0 X127.262 Y124.483
G0 X127.334 Y123.705
G0 X126.893 Y123.705
G1 F2100 X126.483 Y124.114 E53.61709
G0 F10500 X125.918 Y124.114
G1 F2100 X126.893 Y123.139 E53.66295
G0 F10500 X126.893 Y122.574
G1 F2100 X125.352 Y124.114 E53.73541
G0 F10500 X124.786 Y124.114
G1 F2100 X126.892 Y122.009 E53.83445
G0 F10500 X126.892 Y121.443
G1 F2100 X124.22 Y124.114 E53.96011
G0 F10500 X123.655 Y124.114
G1 F2100 X126.892 Y120.877 E54.11236
G0 F10500 X126.891 Y120.312
G1 F2100 X123.089 Y124.114 E54.2912
G0 F10500 X122.523 Y124.114
G1 F2100 X126.891 Y119.747 E54.49663
G0 F10500 X126.891 Y119.181
G1 F2100 X121.958 Y124.114 E54.72867
G0 F10500 X121.392 Y124.114
G1 F2100 X126.891 Y118.615 E54.98732
G0 F10500 X126.891 Y118.05
G1 F2100 X120.826 Y124.114 E55.27258
G0 F10500 X120.261 Y124.114
G1 F2100 X126.891 Y117.485 E55.58441
G0 F10500 X126.891 Y116.919
G1 F2100 X119.695 Y124.114 E55.92286
G0 F10500 X119.129 Y124.114
G1 F2100 X126.89 Y116.354 E56.28789
G0 F10500 X126.89 Y115.788
G1 F2100 X118.564 Y124.114 E56.67952
G0 F10500 X117.998 Y124.114
G1 F2100 X126.89 Y115.223 E57.09775
G0 F10500 X126.89 Y114.657
G1 F2100 X117.432 Y124.114 E57.5426
G0 F10500 X116.867 Y124.114
G1 F2100 X126.889 Y114.092 E58.01401
G0 F10500 X126.889 Y113.526
G1 F2100 X116.301 Y124.114 E58.51203
G0 F10500 X115.735 Y124.114
G1 F2100 X126.889 Y112.961 E59.03666
G0 F10500 X126.888 Y112.396
G1 F2100 X115.17 Y124.114 E59.58784
G0 F10500 X114.604 Y124.114
G1 F2100 X126.888 Y111.83 E60.16564
G0 F10500 X126.888 Y111.264
G1 F2100 X114.193 Y123.96 E60.7628
G0 F10500 X114.193 Y123.394
G1 F2100 X126.888 Y110.699 E61.35993
G0 F10500 X126.888 Y110.134
G1 F2100 X114.193 Y122.828 E61.95704
G0 F10500 X114.193 Y122.263
G1 F2100 X126.888 Y109.568 E62.55418
G0 F10500 X126.888 Y109.002
G1 F2100 X114.193 Y121.697 E63.15131
G0 F10500 X114.193 Y121.131
G1 F2100 X126.887 Y108.437 E63.7484
G0 F10500 X126.887 Y107.871
G1 F2100 X114.193 Y120.565 E64.34548
G0 F10500 X114.193 Y120
G1 F2100 X126.887 Y107.306 E64.94257
G0 F10500 X126.886 Y106.741
G1 F2100 X114.193 Y119.434 E65.53961
G0 F10500 X114.193 Y118.868
G1 F2100 X126.886 Y106.175 E66.13665
G0 F10500 X126.886 Y105.609
G1 F2100 X114.193 Y118.303 E66.73371
G0 F10500 X114.193 Y117.737
