;FLAVOR:Marlin
;TIME:24491
;Filament used: 12.8875m
;Layer height: 0.2
;MINX:59.677
;MINY:88.597
;MINZ:0.24
;MAXX:149.171
;MAXY:126.168
;MAXZ:129.89
;Generated with Cura_SteamEngine 4.6.2
M140 S55
M105
M190 S55
M104 S205
M105
M109 S205
M82 ;absolute extrusion mode
; Ender 3 Custom Start G-code
G92 E0 ; Reset Extruder
G28 ; Home all axes
G1 Z2.0 F3000 ; Move Z Axis up little to prevent scratching of Heat Bed
G1 X0.1 Y20 Z0.3 F5000.0 ; Move to start position
G1 X0.1 Y200.0 Z0.3 F1500.0 E15 ; Draw the first line
G1 X0.4 Y200.0 Z0.3 F5000.0 ; Move to side a little
G1 X0.4 Y20 Z0.3 F1500.0 E30 ; Draw the second line
G92 E0 ; Reset Extruder
G1 Z2.0 F3000 ; Move Z Axis up little to prevent scratching of Heat Bed
G1 X5 Y20 Z0.3 F5000.0 ; Move over to prevent blob squish
G92 E0
G92 E0
G1 F1500 E-6.5
;LAYER_COUNT:643
;LAYER:-6
M107
G0 F9000 X66.056 Y91.505 Z0.24
;TYPE:SUPPORT-INTERFACE
G1 F1500 E0
G1 F1125 X66.799 Y91.011 E0.07122
G1 X66.936 Y90.926 E0.08409
G1 X67.711 Y90.487 E0.15519
G1 X67.87 Y90.405 E0.16947
G1 X68.681 Y90.021 E0.2411
G1 X68.835 Y89.954 E0.25451
G1 X69.673 Y89.631 E0.3262
G1 X69.842 Y89.573 E0.34046
G1 X70.696 Y89.313 E0.41172
G1 X70.859 Y89.27 E0.42517
G1 X71.716 Y89.075 E0.49533
G1 X71.912 Y89.038 E0.51125
G1 X72.782 Y88.908 E0.58147
G1 X72.96 Y88.888 E0.59577
G1 X74.011 Y88.811 E0.67989
G1 X74.568 Y88.801 E0.72436
G1 X116.352 Y88.798 E4.05974
G1 X134.469 Y88.882 E5.50593
G1 X135.432 Y88.922 E5.58287
G1 X135.587 Y88.934 E5.59528
G1 X136.466 Y89.035 E5.66591
G1 X136.639 Y89.061 E5.67987
G1 X137.516 Y89.227 E5.75112
G1 X137.699 Y89.269 E5.76611
G1 X138.541 Y89.493 E5.83566
G1 X138.741 Y89.554 E5.85235
G1 X139.559 Y89.836 E5.92142
G1 X139.705 Y89.893 E5.93393
G1 X140.564 Y90.262 E6.00855
G1 X140.695 Y90.324 E6.02012
G1 X141.626 Y90.813 E6.10407
G1 X142.413 Y91.299 E6.1779
G1 X142.56 Y91.397 E6.19201
G1 X143.264 Y91.906 E6.26135
G1 X143.418 Y92.026 E6.27694
G1 X144.083 Y92.585 E6.34628
G1 X144.219 Y92.707 E6.36087
G1 X144.854 Y93.324 E6.43154
G1 X144.988 Y93.465 E6.44707
G1 X145.67 Y94.239 E6.52942
G1 X146.229 Y94.969 E6.60281
G1 X146.313 Y95.087 E6.61437
G1 X146.831 Y95.877 E6.68978
G1 X146.896 Y95.986 E6.69991
G1 X147.411 Y96.923 E6.78526
G1 X147.79 Y97.739 E6.85708
G1 X147.861 Y97.908 E6.87171
G1 X148.178 Y98.745 E6.94316
G1 X148.227 Y98.89 E6.95537
G1 X148.486 Y99.76 E7.02783
G1 X148.525 Y99.912 E7.04036
G1 X148.746 Y100.949 E7.125
G1 X148.874 Y101.842 E7.19701
G1 X148.894 Y102.055 E7.21408
G1 X148.97 Y103.534 E7.3323
G1 X148.971 Y111.355 E7.95661
G1 X148.935 Y112.352 E8.03624
G1 X148.923 Y112.514 E8.04921
G1 X148.825 Y113.409 E8.12108
G1 X148.799 Y113.589 E8.1356
G1 X148.637 Y114.467 E8.20687
G1 X148.607 Y114.601 E8.21783
G1 X148.376 Y115.486 E8.29084
G1 X148.324 Y115.658 E8.30518
G1 X148.037 Y116.5 E8.37619
G1 X147.974 Y116.666 E8.39036
G1 X147.633 Y117.469 E8.46
G1 X147.552 Y117.644 E8.4754
G1 X147.136 Y118.452 E8.54794
G1 X146.596 Y119.348 E8.63145
G1 X146.496 Y119.499 E8.64591
G1 X145.992 Y120.205 E8.71515
G1 X145.873 Y120.358 E8.73062
G1 X145.3 Y121.048 E8.80222
G1 X145.196 Y121.165 E8.81471
G1 X144.577 Y121.808 E8.88596
G1 X144.435 Y121.944 E8.90165
G1 X143.667 Y122.626 E8.98364
G1 X142.95 Y123.181 E9.05602
G1 X142.792 Y123.294 E9.07152
G1 X141.927 Y123.861 E9.15408
G1 X141.135 Y124.307 E9.22664
G1 X140.96 Y124.397 E9.24235
G1 X140.166 Y124.769 E9.31234
G1 X140.015 Y124.834 E9.32546
G1 X139.158 Y125.162 E9.39871
G1 X139.022 Y125.208 E9.41017
G1 X138.144 Y125.473 E9.48338
G1 X137.996 Y125.512 E9.4956
G1 X137.095 Y125.714 E9.5693
G1 X136.965 Y125.737 E9.57984
G1 X136.06 Y125.871 E9.65287
G1 X135.892 Y125.889 E9.66636
G1 X134.839 Y125.963 E9.75062
G1 X134.1 Y125.969 E9.80961
G1 X127.912 Y125.872 E10.30363
G1 X74.476 Y125.874 E14.56912
G1 X73.352 Y125.829 E14.65891
G1 X72.285 Y125.707 E14.74464
G1 X71.379 Y125.54 E14.81818
G1 X71.238 Y125.508 E14.82972
G1 X70.206 Y125.234 E14.91495
G1 X69.362 Y124.945 E14.98617
G1 X69.172 Y124.873 E15.00239
G1 X68.356 Y124.526 E15.07317
G1 X68.215 Y124.46 E15.08559
G1 X67.413 Y124.048 E15.15757
G1 X67.261 Y123.964 E15.17143
G1 X66.504 Y123.501 E15.24226
G1 X66.349 Y123.398 E15.25712
G1 X65.632 Y122.886 E15.32745
G1 X65.491 Y122.776 E15.34172
G1 X64.801 Y122.203 E15.41332
G1 X64.684 Y122.099 E15.42581
G1 X64.03 Y121.469 E15.4983
G1 X63.904 Y121.337 E15.51287
G1 X63.306 Y120.67 E15.58437
G1 X63.215 Y120.56 E15.59577
G1 X62.655 Y119.837 E15.66877
G1 X62.562 Y119.706 E15.68159
G1 X62.059 Y118.948 E15.75421
G1 X61.986 Y118.827 E15.76549
G1 X61.534 Y118.023 E15.83912
G1 X61.458 Y117.875 E15.8524
G1 X61.081 Y117.069 E15.92343
G1 X61.014 Y116.913 E15.93698
G1 X60.688 Y116.061 E16.0098
G1 X60.638 Y115.913 E16.02227
G1 X60.376 Y115.045 E16.09464
G1 X60.338 Y114.899 E16.10669
G1 X60.135 Y113.992 E16.18088
G1 X60.113 Y113.868 E16.19093
G1 X59.978 Y112.951 E16.26492
G1 X59.961 Y112.793 E16.2776
G1 X59.886 Y111.721 E16.36338
G1 X59.878 Y111.219 E16.40346
G1 X59.878 Y108.349 E16.63256
G1 X59.913 Y107.371 E16.71067
G1 X59.909 Y106.906 E16.74779
G1 X59.878 Y106.285 E16.79743
G1 X59.878 Y103.446 E17.02405
G1 X59.914 Y102.44 E17.1044
G1 X59.924 Y102.305 E17.11521
G1 X60.026 Y101.388 E17.18886
G1 X60.051 Y101.213 E17.20297
G1 X60.213 Y100.335 E17.27424
G1 X60.243 Y100.201 E17.2852
G1 X60.474 Y99.316 E17.35821
G1 X60.526 Y99.144 E17.37256
G1 X60.813 Y98.302 E17.44356
G1 X60.876 Y98.136 E17.45774
G1 X61.217 Y97.333 E17.52738
G1 X61.298 Y97.158 E17.54277
G1 X61.779 Y96.233 E17.62599
G1 X62.254 Y95.454 E17.69882
G1 X62.354 Y95.303 E17.71328
G1 X62.865 Y94.589 E17.78337
G1 X62.978 Y94.441 E17.79823
G1 X63.645 Y93.648 E17.88095
G1 X64.395 Y92.876 E17.96687
G1 X65.155 Y92.197 E18.04822
G1 X65.919 Y91.604 E18.12542
G1 X66.056 Y91.505 E18.13891
G0 F9000 X65.6 Y91.851
G1 F1125 X65.6 Y122.861 E20.61426
G1 F1500 E14.11426
G1 F300 Z0.44
G0 F9000 X67.2 Y123.926 Z0.44
G1 F300 Z0.24
G1 F1500 E20.61426
G1 F1125 X67.2 Y90.776 E23.26044
G1 F1500 E16.76044
G1 F300 Z0.44
G0 F9000 X68.8 Y89.969 Z0.44
G1 F300 Z0.24
G1 F1500 E23.26044
G1 F1125 X68.8 Y124.714 E26.03393
G1 F1500 E19.53393
G1 F300 Z0.44
G0 F9000 X70.4 Y125.285 Z0.44
G1 F300 Z0.24
G1 F1500 E26.03393
G1 F1125 X70.4 Y89.403 E28.89819
G1 F1500 E22.39819
G1 F300 Z0.44
G0 F9000 X72 Y89.024 Z0.44
G1 F300 Z0.24
G1 F1500 E28.89819
G1 F1125 X72 Y125.654 E31.82216
G1 F1500 E25.32216
G1 F300 Z0.44
G0 F9000 X73.6 Y125.838 Z0.44
G1 F300 Z0.24
G1 F1500 E31.82216
G1 F1125 X73.6 Y88.841 E34.77542
G1 F1500 E28.27542
G1 F300 Z0.44
G0 F9000 X75.2 Y88.8 Z0.44
G1 F300 Z0.24
G1 F1500 E34.77542
G1 F1125 X75.2 Y125.874 E37.73482
G1 F1500 E31.23482
G1 F300 Z0.44
G0 F9000 X76.8 Y125.874 Z0.44
G1 F300 Z0.24
G1 F1500 E37.73482
G1 F1125 X76.8 Y88.8 E40.69423
G1 F1500 E34.19423
G1 F300 Z0.44
G0 F9000 X78.4 Y88.8 Z0.44
G1 F300 Z0.24
G1 F1500 E40.69423
G1 F1125 X78.4 Y125.874 E43.65364
G1 F1500 E37.15364
G1 F300 Z0.44
G0 F9000 X80 Y125.874 Z0.44
G1 F300 Z0.24
G1 F1500 E43.65364
G1 F1125 X80 Y88.8 E46.61304
G1 F1500 E40.11304
G1 F300 Z0.44
G0 F9000 X81.6 Y88.8 Z0.44
G1 F300 Z0.24
G1 F1500 E46.61304
G1 F1125 X81.6 Y125.874 E49.57245
G1 F1500 E43.07245
G1 F300 Z0.44
G0 F9000 X83.2 Y125.874 Z0.44
G1 F300 Z0.24
G1 F1500 E49.57245
G1 F1125 X83.2 Y88.8 E52.53186
G1 F1500 E46.03186
G1 F300 Z0.44
G0 F9000 X84.8 Y88.8 Z0.44
G1 F300 Z0.24
G1 F1500 E52.53186
G1 F1125 X84.8 Y125.874 E55.49127
G1 F1500 E48.99127
G1 F300 Z0.44
G0 F9000 X86.4 Y125.874 Z0.44
G1 F300 Z0.24
G1 F1500 E55.49127
G1 F1125 X86.4 Y88.8 E58.45067
G1 F1500 E51.95067
G1 F300 Z0.44
G0 F9000 X88 Y88.8 Z0.44
G1 F300 Z0.24
G1 F1500 E58.45067
G1 F1125 X88 Y125.874 E61.41008
G1 F1500 E54.91008
G1 F300 Z0.44
G0 F9000 X89.6 Y125.874 Z0.44
G1 F300 Z0.24
G1 F1500 E61.41008
G1 F1125 X89.6 Y88.799 E64.36957
G1 F1500 E57.86957
G1 F300 Z0.44
G0 F9000 X91.2 Y88.799 Z0.44
G1 F300 Z0.24
G1 F1500 E64.36957
G1 F1125 X91.2 Y125.874 E67.32905
G1 F1500 E60.82905
G1 F300 Z0.44
G0 F9000 X92.8 Y125.874 Z0.44
G1 F300 Z0.24
G1 F1500 E67.32905
G1 F1125 X92.8 Y88.799 E70.28854
G1 F1500 E63.78854
G1 F300 Z0.44
G0 F9000 X94.4 Y88.799 Z0.44
G1 F300 Z0.24
G1 F1500 E70.28854
G1 F1125 X94.4 Y125.874 E73.24803
G1 F1500 E66.74803
G1 F300 Z0.44
G0 F9000 X96 Y125.874 Z0.44
G1 F300 Z0.24
G1 F1500 E73.24803
G1 F1125 X96 Y88.799 E76.20751
G1 F1500 E69.70751
G1 F300 Z0.44
G0 F9000 X97.6 Y88.799 Z0.44
G1 F300 Z0.24
G1 F1500 E76.20751
G1 F1125 X97.6 Y125.874 E79.167
G1 F1500 E72.667
G1 F300 Z0.44
G0 F9000 X99.2 Y125.874 Z0.44
G1 F300 Z0.24
G1 F1500 E79.167
G1 F1125 X99.2 Y88.799 E82.12649
G1 F1500 E75.62649
G1 F300 Z0.44
G0 F9000 X100.8 Y88.799 Z0.44
G1 F300 Z0.24
G1 F1500 E82.12649
G1 F1125 X100.8 Y125.874 E85.08597
G1 F1500 E78.58597
G1 F300 Z0.44
G0 F9000 X102.4 Y125.873 Z0.44
G1 F300 Z0.24
G1 F1500 E85.08597
G1 F1125 X102.4 Y88.799 E88.04538
G1 F1500 E81.54538
G1 F300 Z0.44
G0 F9000 X104 Y88.798 Z0.44
G1 F300 Z0.24
G1 F1500 E88.04538
G1 F1125 X104 Y125.873 E91.00487
G1 F1500 E84.50487
G1 F300 Z0.44
G0 F9000 X105.6 Y125.873 Z0.44
G1 F300 Z0.24
G1 F1500 E91.00487
G1 F1125 X105.6 Y88.798 E93.96435
G1 F1500 E87.46435
G1 F300 Z0.44
G0 F9000 X107.2 Y88.798 Z0.44
G1 F300 Z0.24
G1 F1500 E93.96435
G1 F1125 X107.2 Y125.873 E96.92384
G1 F1500 E90.42384
G1 F300 Z0.44
G0 F9000 X108.8 Y125.873 Z0.44
G1 F300 Z0.24
G1 F1500 E96.92384
G1 F1125 X108.8 Y88.798 E99.88333
G1 F1500 E93.38333
G1 F300 Z0.44
G0 F9000 X110.4 Y88.798 Z0.44
G1 F300 Z0.24
G1 F1500 E99.88333
G1 F1125 X110.4 Y125.873 E102.84282
G1 F1500 E96.34282
G1 F300 Z0.44
G0 F9000 X112 Y125.873 Z0.44
G1 F300 Z0.24
G1 F1500 E102.84282
G1 F1125 X112 Y88.798 E105.8023
G1 F1500 E99.3023
G1 F300 Z0.44
G0 F9000 X113.6 Y88.798 Z0.44
G1 F300 Z0.24
G1 F1500 E105.8023
G1 F1125 X113.6 Y125.873 E108.76179
G1 F1500 E102.26179
G1 F300 Z0.44
G0 F9000 X115.2 Y125.873 Z0.44
G1 F300 Z0.24
G1 F1500 E108.76179
G1 F1125 X115.2 Y88.798 E111.72128
G1 F1500 E105.22128
G1 F300 Z0.44
G0 F9000 X116.8 Y88.801 Z0.44
G1 F300 Z0.24
G1 F1500 E111.72128
G1 F1125 X116.8 Y125.873 E114.68052
G1 F1500 E108.18052
G1 F300 Z0.44
G0 F9000 X118.4 Y125.873 Z0.44
G1 F300 Z0.24
G1 F1500 E114.68052
G1 F1125 X118.4 Y88.808 E117.63921
G1 F1500 E111.13921
G1 F300 Z0.44
G0 F9000 X120 Y88.815 Z0.44
G1 F300 Z0.24
G1 F1500 E117.63921
G1 F1125 X120 Y125.873 E120.59734
G1 F1500 E114.09734
G1 F300 Z0.44
G0 F9000 X121.6 Y125.873 Z0.44
G1 F300 Z0.24
G1 F1500 E120.59734
G1 F1125 X121.6 Y88.823 E123.55483
G1 F1500 E117.05483
G1 F300 Z0.44
G0 F9000 X123.2 Y88.83 Z0.44
G1 F300 Z0.24
G1 F1500 E123.55483
G1 F1125 X123.2 Y125.873 E126.51177
G1 F1500 E120.01177
G1 F300 Z0.44
G0 F9000 X124.8 Y125.873 Z0.44
G1 F300 Z0.24
G1 F1500 E126.51177
G1 F1125 X124.8 Y88.838 E129.46806
G1 F1500 E122.96806
G1 F300 Z0.44
G0 F9000 X126.4 Y88.845 Z0.44
G1 F300 Z0.24
G1 F1500 E129.46806
G1 F1125 X126.4 Y125.873 E132.42379
G1 F1500 E125.92379
G1 F300 Z0.44
G0 F9000 X128 Y125.873 Z0.44
G1 F300 Z0.24
G1 F1500 E132.42379
G1 F1125 X128 Y88.853 E135.37889
G1 F1500 E128.87889
G1 F300 Z0.44
G0 F9000 X129.6 Y88.86 Z0.44
G1 F300 Z0.24
G1 F1500 E135.37889
G1 F1125 X129.6 Y125.898 E138.33542
G1 F1500 E131.83542
G1 F300 Z0.44
G0 F9000 X131.2 Y125.923 Z0.44
G1 F300 Z0.24
G1 F1500 E138.33542
G1 F1125 X131.2 Y88.867 E141.29339
G1 F1500 E134.79339
G1 F300 Z0.44
G0 F9000 X132.8 Y88.875 Z0.44
G1 F300 Z0.24
G1 F1500 E141.29339
G1 F1125 X132.8 Y125.948 E144.25272
G1 F1500 E137.75272
G1 F300 Z0.44
G0 F9000 X134.4 Y125.967 Z0.44
G1 F300 Z0.24
G1 F1500 E144.25272
G1 F1125 X134.4 Y88.882 E147.21301
G1 F1500 E140.71301
G1 F300 Z0.44
G0 F9000 X136 Y88.982 Z0.44
G1 F300 Z0.24
G1 F1500 E147.21301
G1 F1125 X136 Y125.878 E150.1582
G1 F1500 E143.6582
G1 F300 Z0.44
G0 F9000 X137.6 Y125.601 Z0.44
G1 F300 Z0.24
G1 F1500 E150.1582
G1 F1125 X137.6 Y89.247 E153.06014
G1 F1500 E146.56014
G1 F300 Z0.44
G0 F9000 X139.2 Y89.713 Z0.44
G1 F300 Z0.24
G1 F1500 E153.06014
G1 F1125 X139.2 Y125.146 E155.88855
G1 F1500 E149.38855
G1 F300 Z0.44
G0 F9000 X140.8 Y124.472 Z0.44
G1 F300 Z0.24
G1 F1500 E155.88855
G1 F1125 X140.8 Y90.38 E158.60992
G1 F1500 E152.10992
G1 F300 Z0.44
G0 F9000 X142.4 Y91.291 Z0.44
G1 F300 Z0.24
G1 F1500 E158.60992
G1 F1125 X142.4 Y123.551 E161.18506
G1 F1500 E154.68506
G1 F300 Z0.44
G0 F9000 X144 Y122.331 Z0.44
G1 F300 Z0.24
G1 F1500 E161.18506
G1 F1125 X144 Y92.516 E163.56502
G1 F1500 E157.06502
G1 F300 Z0.44
G0 F9000 X145.6 Y94.16 Z0.44
G1 F300 Z0.24
G1 F1500 E163.56502
G1 F1125 X145.6 Y120.687 E165.68252
G1 F1500 E159.18252
G1 F300 Z0.44
G0 F9000 X147.2 Y118.328 Z0.44
G1 F300 Z0.24
G1 F1500 E165.68252
G1 F1125 X147.2 Y96.54 E167.42173
G1 F1500 E160.92173
G1 F300 Z0.44
G0 F9000 X148.8 Y101.326 Z0.44
G1 F300 Z0.24
G1 F1500 E167.42173
G1 F1125 X148.8 Y113.583 E168.40014
G1 F1500 E161.90014
G1 F300 Z0.44
G0 F9000 X64 Y121.437 Z0.44
G1 F300 Z0.24
G1 F1500 E168.40014
G1 F1125 X64 Y93.282 E170.64759
G1 F1500 E164.14759
G1 F300 Z0.44
G0 F9000 X62.4 Y95.238 Z0.44
G1 F300 Z0.24
G1 F1500 E170.64759
G1 F1125 X62.4 Y119.461 E172.58118
G1 F1500 E166.08118
G1 F300 Z0.44
G0 F9000 X60.8 Y116.353 Z0.44
G1 F300 Z0.24
G1 F1500 E172.58118
G1 F1125 X60.8 Y98.34 E174.01905
G1 F1500 E167.51905
G1 F300 Z0.44
G0 F9000 X61.986 Y118.826 Z0.44
;TIME_ELAPSED:149.052902
;LAYER:-5
M140 S55
G0 X61.986 Y118.826 Z0.74
;TYPE:SUPPORT
G1 F300 Z0.54
G1 F1500 E174.01905
G1 F1125 X62.059 Y118.947 E174.03315
G1 X62.561 Y119.704 E174.12379
G1 X62.655 Y119.836 E174.13995
G1 X63.214 Y120.559 E174.23114
G1 X63.305 Y120.669 E174.24539
G1 X63.904 Y121.336 E174.33484
G1 X64.029 Y121.468 E174.35298
G1 X64.684 Y122.098 E174.44366
G1 X64.8 Y122.202 E174.45921
G1 X65.49 Y122.774 E174.54864
G1 X65.632 Y122.885 E174.56662
G1 X66.349 Y123.397 E174.65453
G1 X66.504 Y123.499 E174.67304
G1 X67.26 Y123.963 E174.76155
G1 X67.413 Y124.047 E174.77897
G1 X67.547 Y124.115 E174.79396
G1 X61.637 Y118.205 E175.62793
G1 X61.533 Y118.021 E175.64902
G1 X61.458 Y117.873 E175.66557
G1 X61.081 Y117.068 E175.75427
G1 X61.014 Y116.912 E175.77121
G1 X60.688 Y116.06 E175.86223
G1 X60.637 Y115.912 E175.87785
G1 X60.585 Y115.739 E175.89588
G1 X70.012 Y125.166 E177.22613
G1 X70.205 Y125.232 E177.24648
G1 X71.238 Y125.507 E177.35314
G1 X71.378 Y125.539 E177.36747
G1 X71.893 Y125.633 E177.41971
G1 X60.11 Y113.85 E179.08242
G1 X59.978 Y112.95 E179.17318
G1 X59.961 Y112.792 E179.18904
G1 X59.923 Y112.248 E179.24345
G1 X73.507 Y125.833 E181.16037
G1 X74.476 Y125.872 E181.25714
G1 X74.96 Y125.872 E181.30543
G1 X59.877 Y110.789 E183.4338
G1 X59.877 Y109.375 E183.57489
G1 X76.374 Y125.872 E185.9028
G1 X77.788 Y125.872 E186.04389
G1 X59.891 Y107.974 E188.56942
G1 X59.913 Y107.369 E188.62982
G1 X59.909 Y106.905 E188.67612
G1 X59.891 Y106.56 E188.7106
G1 X79.203 Y125.872 E191.43573
G1 X80.617 Y125.872 E191.57682
G1 X59.877 Y105.132 E194.50345
G1 X59.877 Y103.718 E194.64454
G1 X82.031 Y125.872 E197.77071
G1 X83.445 Y125.872 E197.9118
G1 X59.92 Y102.347 E201.23143
G1 X59.924 Y102.304 E201.23574
G1 X60.025 Y101.387 E201.3278
G1 X60.051 Y101.211 E201.34555
G1 X60.073 Y101.085 E201.35831
G1 X84.859 Y125.872 E204.85595
G1 X86.274 Y125.872 E204.99714
G1 X60.316 Y99.914 E208.6601
G1 X60.473 Y99.315 E208.72188
G1 X60.525 Y99.143 E208.73981
G1 X60.635 Y98.819 E208.77395
G1 X87.688 Y125.872 E212.59142
G1 X89.102 Y125.872 E212.73251
G1 X61.021 Y97.791 E216.69505
G1 X61.217 Y97.331 E216.74494
G1 X61.298 Y97.157 E216.76409
G1 X61.47 Y96.825 E216.8014
G1 X90.516 Y125.872 E220.90017
G1 X91.93 Y125.872 E221.04126
G1 X61.972 Y95.914 E225.26866
G1 X62.254 Y95.453 E225.32258
G1 X62.354 Y95.302 E225.34065
G1 X62.529 Y95.056 E225.37078
G1 X93.345 Y125.872 E229.71925
G1 X94.759 Y125.872 E229.86034
G1 X63.137 Y94.25 E234.32254
G1 X63.644 Y93.647 E234.40115
G1 X63.794 Y93.492 E234.42267
G1 X96.173 Y125.872 E238.99177
G1 X97.587 Y125.872 E239.13286
G1 X64.498 Y92.783 E243.80208
G1 X65.154 Y92.196 E243.88991
G1 X65.251 Y92.121 E243.90215
G1 X99.002 Y125.872 E248.66478
G1 X100.416 Y125.872 E248.80587
G1 X66.052 Y91.508 E253.655
G1 X66.055 Y91.504 E253.6555
G1 X66.798 Y91.01 E253.74452
G1 X66.904 Y90.945 E253.75693
G1 X101.83 Y125.872 E258.68544
G1 X103.244 Y125.872 E258.82653
G1 X67.808 Y90.436 E263.82693
G1 X67.87 Y90.404 E263.83389
G1 X68.681 Y90.02 E263.92343
G1 X68.768 Y89.982 E263.9329
