;FLAVOR:Marlin
;TIME:24496
;Filament used: 12.8849m
;Layer height: 0.2
;MINX:69.188
;MINY:88.597
;MINZ:0.24
;MAXX:158.682
;MAXY:126.169
;MAXZ:129.89
;Generated with Cura_SteamEngine 4.6.2
M140 S55
M105
M190 S55
M104 S205
M105
M109 S205
M82 ;absolute extrusion mode
; Ender 3 Custom Start G-code
G92 E0 ; Reset Extruder
G28 ; Home all axes
G1 Z2.0 F3000 ; Move Z Axis up little to prevent scratching of Heat Bed
G1 X0.1 Y20 Z0.3 F5000.0 ; Move to start position
G1 X0.1 Y200.0 Z0.3 F1500.0 E15 ; Draw the first line
G1 X0.4 Y200.0 Z0.3 F5000.0 ; Move to side a little
G1 X0.4 Y20 Z0.3 F1500.0 E30 ; Draw the second line
G92 E0 ; Reset Extruder
G1 Z2.0 F3000 ; Move Z Axis up little to prevent scratching of Heat Bed
G1 X5 Y20 Z0.3 F5000.0 ; Move over to prevent blob squish
G92 E0
G92 E0
G1 F1500 E-6.5
;LAYER_COUNT:643
;LAYER:-6
M107
G0 F9000 X75.042 Y91.942 Z0.24
;TYPE:SUPPORT-INTERFACE
G1 F1500 E0
G1 F1125 X75.769 Y91.411 E0.07186
G1 X75.926 Y91.305 E0.08699
G1 X76.806 Y90.761 E0.16957
G1 X77.632 Y90.325 E0.24413
G1 X77.77 Y90.26 E0.2563
G1 X78.58 Y89.905 E0.3269
G1 X78.756 Y89.836 E0.34199
G1 X79.606 Y89.536 E0.41394
G1 X79.744 Y89.493 E0.42548
G1 X80.618 Y89.255 E0.49778
G1 X80.79 Y89.215 E0.51188
G1 X81.665 Y89.044 E0.58305
G1 X81.836 Y89.017 E0.59687
G1 X82.712 Y88.912 E0.66729
G1 X82.894 Y88.897 E0.68187
G1 X84.048 Y88.849 E0.77407
G1 X84.6 Y88.848 E0.81813
G1 X102.086 Y88.798 E2.21395
G1 X143.957 Y88.835 E5.55627
G1 X144.882 Y88.87 E5.63016
G1 X145.035 Y88.881 E5.64241
G1 X145.942 Y88.982 E5.71525
G1 X146.103 Y89.005 E5.72824
G1 X146.974 Y89.166 E5.79894
G1 X147.168 Y89.21 E5.81482
G1 X147.993 Y89.426 E5.8829
G1 X148.197 Y89.488 E5.89991
G1 X149.019 Y89.769 E5.96926
G1 X149.187 Y89.833 E5.98361
G1 X150.01 Y90.183 E6.055
G1 X150.167 Y90.257 E6.06885
G1 X150.95 Y90.66 E6.13915
G1 X151.112 Y90.753 E6.15406
G1 X151.857 Y91.207 E6.2237
G1 X152.027 Y91.319 E6.23995
G1 X152.855 Y91.919 E6.32157
G1 X153.572 Y92.515 E6.396
G1 X153.682 Y92.614 E6.40781
G1 X154.342 Y93.251 E6.48103
G1 X154.451 Y93.364 E6.49357
G1 X155.054 Y94.038 E6.56576
G1 X155.151 Y94.154 E6.57783
G1 X155.794 Y94.995 E6.66233
G1 X156.295 Y95.753 E6.73486
G1 X156.388 Y95.905 E6.74909
G1 X156.82 Y96.674 E6.81949
G1 X156.918 Y96.865 E6.83663
G1 X157.28 Y97.641 E6.90498
G1 X157.351 Y97.808 E6.91947
G1 X157.672 Y98.648 E6.99125
G1 X157.725 Y98.801 E7.00417
G1 X157.977 Y99.638 E7.07395
G1 X158.029 Y99.838 E7.09045
G1 X158.219 Y100.693 E7.16036
G1 X158.251 Y100.869 E7.17464
G1 X158.38 Y101.746 E7.2454
G1 X158.4 Y101.949 E7.26168
G1 X158.482 Y103.508 E7.3863
G1 X158.482 Y106.32 E7.61077
G1 X158.453 Y107.112 E7.67403
G1 X158.455 Y107.223 E7.68289
G1 X158.442 Y107.223 E7.68393
G1 X158.473 Y107.871 E7.73571
G1 X158.482 Y108.396 E7.77763
G1 X158.481 Y111.258 E8.00608
G1 X158.445 Y112.271 E8.087
G1 X158.435 Y112.406 E8.0978
G1 X158.334 Y113.318 E8.17105
G1 X158.309 Y113.489 E8.18484
G1 X158.147 Y114.364 E8.25588
G1 X158.112 Y114.52 E8.26864
G1 X157.882 Y115.402 E8.3414
G1 X157.835 Y115.558 E8.3544
G1 X157.55 Y116.393 E8.42483
G1 X157.475 Y116.589 E8.44158
G1 X157.14 Y117.377 E8.50993
G1 X157.059 Y117.552 E8.52533
G1 X156.648 Y118.351 E8.59705
G1 X156.112 Y119.241 E8.67998
G1 X156.002 Y119.407 E8.69588
G1 X155.491 Y120.121 E8.76597
G1 X155.378 Y120.269 E8.78083
G1 X154.804 Y120.958 E8.85241
G1 X154.698 Y121.075 E8.86502
G1 X154.068 Y121.729 E8.9375
G1 X153.955 Y121.838 E8.95004
G1 X153.302 Y122.422 E9.01997
G1 X153.154 Y122.546 E9.03538
G1 X152.438 Y123.099 E9.1076
G1 X152.292 Y123.203 E9.1219
G1 X151.557 Y123.69 E9.19229
G1 X151.409 Y123.781 E9.20615
G1 X150.643 Y124.21 E9.27624
G1 X150.462 Y124.303 E9.29248
G1 X149.676 Y124.672 E9.36179
G1 X149.507 Y124.743 E9.37642
G1 X148.672 Y125.062 E9.44778
G1 X148.519 Y125.115 E9.4607
G1 X147.66 Y125.373 E9.5323
G1 X147.501 Y125.415 E9.54542
G1 X146.611 Y125.614 E9.61822
G1 X146.456 Y125.642 E9.63079
G1 X145.591 Y125.77 E9.70059
G1 X145.369 Y125.793 E9.71841
G1 X143.948 Y125.874 E9.83202
G1 X143.785 Y125.875 E9.84504
G1 X89.801 Y125.873 E14.15427
G1 X84.207 Y125.969 E14.60088
G1 X83.269 Y125.951 E14.67576
G1 X83.089 Y125.942 E14.69015
G1 X82.199 Y125.859 E14.7615
G1 X82.042 Y125.838 E14.77415
G1 X81.155 Y125.69 E14.84593
G1 X80.96 Y125.65 E14.86182
G1 X80.13 Y125.449 E14.92999
G1 X79.943 Y125.397 E14.94548
G1 X78.96 Y125.076 E15.02803
G1 X77.961 Y124.667 E15.1142
G1 X77.141 Y124.262 E15.1872
G1 X76.993 Y124.183 E15.20059
G1 X76.239 Y123.74 E15.2704
G1 X76.058 Y123.625 E15.28752
G1 X75.351 Y123.139 E15.356
G1 X75.201 Y123.027 E15.37094
G1 X74.513 Y122.473 E15.44146
G1 X74.362 Y122.343 E15.45736
G1 X73.746 Y121.77 E15.52452
G1 X73.582 Y121.606 E15.54303
G1 X73.001 Y120.982 E15.61109
G1 X72.874 Y120.833 E15.62672
G1 X72.326 Y120.15 E15.69662
G1 X72.219 Y120.005 E15.711
G1 X71.719 Y119.277 E15.7815
G1 X71.603 Y119.094 E15.79879
G1 X71.168 Y118.351 E15.86752
G1 X71.089 Y118.204 E15.88084
G1 X70.698 Y117.405 E15.95185
G1 X70.623 Y117.238 E15.96646
G1 X70.282 Y116.393 E16.0392
G1 X70.233 Y116.258 E16.05066
G1 X69.957 Y115.394 E16.12307
G1 X69.911 Y115.23 E16.13666
G1 X69.701 Y114.359 E16.20818
G1 X69.671 Y114.21 E16.22031
G1 X69.522 Y113.311 E16.29305
G1 X69.499 Y113.129 E16.3077
G1 X69.409 Y112.103 E16.38991
G1 X69.389 Y111.372 E16.44829
G1 X69.389 Y103.495 E17.07706
G1 X69.425 Y102.489 E17.15742
G1 X69.435 Y102.354 E17.16822
G1 X69.537 Y101.437 E17.24187
G1 X69.562 Y101.262 E17.25598
G1 X69.724 Y100.384 E17.32725
G1 X69.754 Y100.25 E17.33821
G1 X69.985 Y99.365 E17.41123
G1 X70.037 Y99.193 E17.42557
G1 X70.324 Y98.351 E17.49658
G1 X70.387 Y98.185 E17.51075
G1 X70.728 Y97.382 E17.58039
G1 X70.809 Y97.207 E17.59578
G1 X71.29 Y96.282 E17.67901
G1 X71.765 Y95.503 E17.75184
G1 X71.865 Y95.352 E17.7663
G1 X72.376 Y94.638 E17.83638
G1 X72.489 Y94.49 E17.85125
G1 X73.045 Y93.822 E17.92062
G1 X73.185 Y93.668 E17.93724
G1 X74.158 Y92.689 E18.04742
G1 X74.221 Y92.633 E18.05415
G1 X75.042 Y91.942 E18.1398
G0 F9000 X75.2 Y91.826
G1 F1125 X75.2 Y123.026 E20.63032
G1 F1500 E14.13032
G1 F300 Z0.44
G0 F9000 X76.8 Y124.069 Z0.44
G1 F300 Z0.24
G1 F1500 E20.63032
G1 F1125 X76.8 Y90.764 E23.28887
G1 F1500 E16.78887
G1 F300 Z0.44
G0 F9000 X78.4 Y89.983 Z0.44
G1 F300 Z0.24
G1 F1500 E23.28887
G1 F1125 X78.4 Y124.846 E26.07179
G1 F1500 E19.57179
G1 F300 Z0.44
G0 F9000 X80 Y125.412 Z0.44
G1 F300 Z0.24
G1 F1500 E26.07179
G1 F1125 X80 Y89.423 E28.94458
G1 F1500 E22.44458
G1 F300 Z0.44
G0 F9000 X81.6 Y89.056 Z0.44
G1 F300 Z0.24
G1 F1500 E28.94458
G1 F1125 X81.6 Y125.764 E31.87478
G1 F1500 E25.37478
G1 F300 Z0.44
G0 F9000 X83.2 Y125.947 Z0.44
G1 F300 Z0.24
G1 F1500 E31.87478
G1 F1125 X83.2 Y88.884 E34.83331
G1 F1500 E28.33331
G1 F300 Z0.44
G0 F9000 X84.8 Y88.847 Z0.44
G1 F300 Z0.24
G1 F1500 E34.83331
G1 F1125 X84.8 Y125.959 E37.79575
G1 F1500 E31.29575
G1 F300 Z0.44
G0 F9000 X86.4 Y125.932 Z0.44
G1 F300 Z0.24
G1 F1500 E37.79575
G1 F1125 X86.4 Y88.842 E40.75643
G1 F1500 E34.25643
G1 F300 Z0.44
G0 F9000 X88 Y88.838 Z0.44
G1 F300 Z0.24
G1 F1500 E40.75643
G1 F1125 X88 Y125.904 E43.7152
G1 F1500 E37.2152
G1 F300 Z0.44
G0 F9000 X89.6 Y125.877 Z0.44
G1 F300 Z0.24
G1 F1500 E43.7152
G1 F1125 X89.6 Y88.833 E46.67221
G1 F1500 E40.17221
G1 F300 Z0.44
G0 F9000 X91.2 Y88.829 Z0.44
G1 F300 Z0.24
G1 F1500 E46.67221
G1 F1125 X91.2 Y125.873 E49.62922
G1 F1500 E43.12922
G1 F300 Z0.44
G0 F9000 X92.8 Y125.873 Z0.44
G1 F300 Z0.24
G1 F1500 E49.62922
G1 F1125 X92.8 Y88.824 E52.58663
G1 F1500 E46.08663
G1 F300 Z0.44
G0 F9000 X94.4 Y88.819 Z0.44
G1 F300 Z0.24
G1 F1500 E52.58663
G1 F1125 X94.4 Y125.873 E55.54444
G1 F1500 E49.04444
G1 F300 Z0.44
G0 F9000 X96 Y125.873 Z0.44
G1 F300 Z0.24
G1 F1500 E55.54444
G1 F1125 X96 Y88.815 E58.50257
G1 F1500 E52.00257
G1 F300 Z0.44
G0 F9000 X97.6 Y88.81 Z0.44
G1 F300 Z0.24
G1 F1500 E58.50257
G1 F1125 X97.6 Y125.873 E61.4611
G1 F1500 E54.9611
G1 F300 Z0.44
G0 F9000 X99.2 Y125.873 Z0.44
G1 F300 Z0.24
G1 F1500 E61.4611
G1 F1125 X99.2 Y88.806 E64.41995
G1 F1500 E57.91995
G1 F300 Z0.44
G0 F9000 X100.8 Y88.801 Z0.44
G1 F300 Z0.24
G1 F1500 E64.41995
G1 F1125 X100.8 Y125.873 E67.3792
G1 F1500 E60.8792
G1 F300 Z0.44
G0 F9000 X102.4 Y125.873 Z0.44
G1 F300 Z0.24
G1 F1500 E67.3792
G1 F1125 X102.4 Y88.799 E70.33861
G1 F1500 E63.83861
G1 F300 Z0.44
G0 F9000 X104 Y88.8 Z0.44
G1 F300 Z0.24
G1 F1500 E70.33861
G1 F1125 X104 Y125.873 E73.29793
G1 F1500 E66.79793
G1 F300 Z0.44
G0 F9000 X105.6 Y125.873 Z0.44
G1 F300 Z0.24
G1 F1500 E73.29793
G1 F1125 X105.6 Y88.802 E76.2571
G1 F1500 E69.7571
G1 F300 Z0.44
G0 F9000 X107.2 Y88.803 Z0.44
G1 F300 Z0.24
G1 F1500 E76.2571
G1 F1125 X107.2 Y125.873 E79.21619
G1 F1500 E72.71619
G1 F300 Z0.44
G0 F9000 X108.8 Y125.873 Z0.44
G1 F300 Z0.24
G1 F1500 E79.21619
G1 F1125 X108.8 Y88.804 E82.1752
G1 F1500 E75.6752
G1 F300 Z0.44
G0 F9000 X110.4 Y88.806 Z0.44
G1 F300 Z0.24
G1 F1500 E82.1752
G1 F1125 X110.4 Y125.873 E85.13404
G1 F1500 E78.63404
G1 F300 Z0.44
G0 F9000 X112 Y125.873 Z0.44
G1 F300 Z0.24
G1 F1500 E85.13404
G1 F1125 X112 Y88.807 E88.09281
G1 F1500 E81.59281
G1 F300 Z0.44
G0 F9000 X113.6 Y88.809 Z0.44
G1 F300 Z0.24
G1 F1500 E88.09281
G1 F1125 X113.6 Y125.873 E91.05142
G1 F1500 E84.55142
G1 F300 Z0.44
G0 F9000 X115.2 Y125.873 Z0.44
G1 F300 Z0.24
G1 F1500 E91.05142
G1 F1125 X115.2 Y88.81 E94.00995
G1 F1500 E87.50995
G1 F300 Z0.44
G0 F9000 X116.8 Y88.812 Z0.44
G1 F300 Z0.24
G1 F1500 E94.00995
G1 F1125 X116.8 Y125.874 E96.9684
G1 F1500 E90.4684
G1 F300 Z0.44
G0 F9000 X118.4 Y125.874 Z0.44
G1 F300 Z0.24
G1 F1500 E96.9684
G1 F1125 X118.4 Y88.813 E99.92677
G1 F1500 E93.42677
G1 F300 Z0.44
G0 F9000 X120 Y88.814 Z0.44
G1 F300 Z0.24
G1 F1500 E99.92677
G1 F1125 X120 Y125.874 E102.88506
G1 F1500 E96.38506
G1 F300 Z0.44
G0 F9000 X121.6 Y125.874 Z0.44
G1 F300 Z0.24
G1 F1500 E102.88506
G1 F1125 X121.6 Y88.816 E105.84319
G1 F1500 E99.34319
G1 F300 Z0.44
G0 F9000 X123.2 Y88.817 Z0.44
G1 F300 Z0.24
G1 F1500 E105.84319
G1 F1125 X123.2 Y125.874 E108.80124
G1 F1500 E102.30124
G1 F300 Z0.44
G0 F9000 X124.8 Y125.874 Z0.44
G1 F300 Z0.24
G1 F1500 E108.80124
G1 F1125 X124.8 Y88.819 E111.75913
G1 F1500 E105.25913
G1 F300 Z0.44
G0 F9000 X126.4 Y88.82 Z0.44
G1 F300 Z0.24
G1 F1500 E111.75913
G1 F1125 X126.4 Y125.874 E114.71694
G1 F1500 E108.21694
G1 F300 Z0.44
G0 F9000 X128 Y125.874 Z0.44
G1 F300 Z0.24
G1 F1500 E114.71694
G1 F1125 X128 Y88.821 E117.67467
G1 F1500 E111.17467
G1 F300 Z0.44
G0 F9000 X129.6 Y88.823 Z0.44
G1 F300 Z0.24
G1 F1500 E117.67467
G1 F1125 X129.6 Y125.874 E120.63224
G1 F1500 E114.13224
G1 F300 Z0.44
G0 F9000 X131.2 Y125.874 Z0.44
G1 F300 Z0.24
G1 F1500 E120.63224
G1 F1125 X131.2 Y88.824 E123.58973
G1 F1500 E117.08973
G1 F300 Z0.44
G0 F9000 X132.8 Y88.826 Z0.44
G1 F300 Z0.24
G1 F1500 E123.58973
G1 F1125 X132.8 Y125.874 E126.54706
G1 F1500 E120.04706
G1 F300 Z0.44
G0 F9000 X134.4 Y125.874 Z0.44
G1 F300 Z0.24
G1 F1500 E126.54706
G1 F1125 X134.4 Y88.827 E129.50431
G1 F1500 E123.00431
G1 F300 Z0.44
G0 F9000 X136 Y88.828 Z0.44
G1 F300 Z0.24
G1 F1500 E129.50431
G1 F1125 X136 Y125.874 E132.46149
G1 F1500 E125.96149
G1 F300 Z0.44
G0 F9000 X137.6 Y125.874 Z0.44
G1 F300 Z0.24
G1 F1500 E132.46149
G1 F1125 X137.6 Y88.83 E135.4185
G1 F1500 E128.9185
G1 F300 Z0.44
G0 F9000 X139.2 Y88.831 Z0.44
G1 F300 Z0.24
G1 F1500 E135.4185
G1 F1125 X139.2 Y125.874 E138.37543
G1 F1500 E131.87543
G1 F300 Z0.44
G0 F9000 X140.8 Y125.874 Z0.44
G1 F300 Z0.24
G1 F1500 E138.37543
G1 F1125 X140.8 Y88.833 E141.3322
G1 F1500 E134.8322
G1 F300 Z0.44
G0 F9000 X142.4 Y88.834 Z0.44
G1 F300 Z0.24
G1 F1500 E141.3322
G1 F1125 X142.4 Y125.874 E144.2889
G1 F1500 E137.7889
G1 F300 Z0.44
G0 F9000 X144 Y125.872 Z0.44
G1 F300 Z0.24
G1 F1500 E144.2889
G1 F1125 X144 Y88.837 E147.24519
G1 F1500 E140.74519
G1 F300 Z0.44
G0 F9000 X145.6 Y88.944 Z0.44
G1 F300 Z0.24
G1 F1500 E147.24519
G1 F1125 X145.6 Y125.769 E150.18472
G1 F1500 E143.68472
G1 F300 Z0.44
G0 F9000 X147.2 Y125.483 Z0.44
G1 F300 Z0.24
G1 F1500 E150.18472
G1 F1125 X147.2 Y89.219 E153.07947
G1 F1500 E146.57947
G1 F300 Z0.44
G0 F9000 X148.8 Y89.695 Z0.44
G1 F300 Z0.24
G1 F1500 E153.07947
G1 F1125 X148.8 Y125.014 E155.89879
G1 F1500 E149.39879
G1 F300 Z0.44
G0 F9000 X150.4 Y124.333 Z0.44
G1 F300 Z0.24
G1 F1500 E155.89879
G1 F1125 X150.4 Y90.377 E158.6093
G1 F1500 E152.1093
G1 F300 Z0.44
G0 F9000 X152 Y91.302 Z0.44
G1 F300 Z0.24
G1 F1500 E158.6093
G1 F1125 X152 Y123.397 E161.17126
G1 F1500 E154.67126
G1 F300 Z0.44
G0 F9000 X153.6 Y122.156 Z0.44
G1 F300 Z0.24
G1 F1500 E161.17126
G1 F1125 X153.6 Y92.541 E163.53526
G1 F1500 E157.03526
G1 F300 Z0.44
G0 F9000 X155.2 Y94.219 Z0.44
G1 F300 Z0.24
G1 F1500 E163.53526
G1 F1125 X155.2 Y120.483 E165.63177
G1 F1500 E159.13177
G1 F300 Z0.44
G0 F9000 X156.8 Y118.056 Z0.44
G1 F300 Z0.24
G1 F1500 E165.63177
G1 F1125 X156.8 Y96.639 E167.34136
G1 F1500 E160.84136
G1 F300 Z0.44
G0 F9000 X158.4 Y101.949 Z0.44
G1 F300 Z0.24
G1 F1500 E167.34136
G1 F1125 X158.4 Y112.723 E168.20139
G1 F1500 E161.70139
G1 F300 Z0.44
G0 F9000 X73.6 Y121.624 Z0.44
G1 F300 Z0.24
G1 F1500 E168.20139
G1 F1125 X73.6 Y93.25 E170.46633
G1 F1500 E163.96633
G1 F300 Z0.44
G0 F9000 X72 Y95.163 Z0.44
G1 F300 Z0.24
G1 F1500 E170.46633
G1 F1125 X72 Y119.686 E172.42386
G1 F1500 E165.92386
G1 F300 Z0.44
G0 F9000 X70.4 Y116.685 Z0.44
G1 F300 Z0.24
G1 F1500 E172.42386
G1 F1125 X70.4 Y98.154 E173.90308
G1 F1500 E167.40308
G1 F300 Z0.44
G0 F9000 X84.6 Y88.847 Z0.44
;TIME_ELAPSED:148.941794
;LAYER:-5
M140 S55
G0 X84.6 Y88.847 Z0.74
;TYPE:SUPPORT
G1 F300 Z0.54
G1 F1500 E173.90308
G1 F1125 X84.048 Y88.847 E173.95816
G1 X83.225 Y88.882 E174.04036
G1 X120.216 Y125.873 E179.26018
G1 X118.802 Y125.873 E179.40127
G1 X81.933 Y89.004 E184.60389
G1 X81.836 Y89.016 E184.61364
G1 X81.665 Y89.043 E184.63091
G1 X80.789 Y89.214 E184.71997
G1 X80.74 Y89.226 E184.72501
G1 X117.388 Y125.873 E189.89636
G1 X115.973 Y125.872 E190.03755
G1 X79.628 Y89.528 E195.16615
G1 X79.606 Y89.535 E195.16846
G1 X78.756 Y89.835 E195.2584
G1 X78.587 Y89.901 E195.2765
G1 X114.559 Y125.872 E200.35247
G1 X113.144 Y125.872 E200.49366
G1 X77.609 Y90.337 E205.50803
G1 X76.805 Y90.759 E205.59863
G1 X76.689 Y90.832 E205.61231
G1 X111.73 Y125.872 E210.5569
G1 X110.316 Y125.872 E210.69799
G1 X75.82 Y91.376 E215.56575
G1 X75.769 Y91.41 E215.57187
G1 X75.041 Y91.941 E215.66178
G1 X75.003 Y91.974 E215.6668
G1 X108.902 Y125.872 E220.45024
G1 X107.488 Y125.872 E220.59133
G1 X74.235 Y92.62 E225.28362
G1 X74.22 Y92.632 E225.28554
G1 X74.157 Y92.688 E225.29395
G1 X73.524 Y93.323 E225.38341
G1 X106.073 Y125.872 E229.97643
G1 X104.659 Y125.872 E230.11752
G1 X72.846 Y94.059 E234.60667
G1 X72.488 Y94.489 E234.6625
G1 X72.375 Y94.637 E234.68108
G1 X72.223 Y94.85 E234.70719
G1 X103.244 Y125.872 E239.08466
G1 X101.83 Y125.872 E239.22575
G1 X71.649 Y95.691 E243.48462
G1 X71.289 Y96.281 E243.55358
G1 X71.13 Y96.586 E243.5879
G1 X100.416 Y125.872 E247.72047
G1 X99.002 Y125.872 E247.86156
G1 X70.662 Y97.532 E251.86064
G1 X70.386 Y98.184 E251.93129
G1 X70.323 Y98.35 E251.949
G1 X70.258 Y98.542 E251.96923
G1 X97.587 Y125.872 E255.82572
G1 X96.173 Y125.872 E255.96681
G1 X69.918 Y99.617 E259.67167
G1 X69.753 Y100.248 E259.73675
G1 X69.724 Y100.382 E259.75043
G1 X69.652 Y100.765 E259.78931
G1 X94.759 Y125.872 E263.33218
G1 X93.345 Y125.872 E263.47327
G1 X69.473 Y102 E266.84187
G1 X69.435 Y102.353 E266.8773
G1 X69.425 Y102.488 E266.8908
G1 X69.394 Y103.335 E266.97537
G1 X91.93 Y125.872 E270.15552
G1 X90.516 Y125.872 E270.29661
G1 X69.389 Y104.744 E273.27792
G1 X69.389 Y106.158 E273.41901
G1 X89.113 Y125.883 E276.20235
G1 X87.723 Y125.907 E276.34107
G1 X69.389 Y107.572 E278.92827
G1 X69.389 Y108.987 E279.06946
G1 X86.333 Y125.931 E281.46044
G1 X84.943 Y125.955 E281.59915
G1 X69.389 Y110.401 E283.79399
G1 X69.389 Y111.371 E283.89078
G1 X69.401 Y111.827 E283.93629
G1 X83.528 Y125.954 E285.92976
G1 X83.268 Y125.949 E285.95571
G1 X83.089 Y125.941 E285.97359
G1 X82.199 Y125.858 E286.06278
G1 X82.042 Y125.837 E286.07859
G1 X81.987 Y125.828 E286.08415
G1 X69.531 Y113.372 E287.84182
G1 X69.671 Y114.209 E287.9265
G1 X69.701 Y114.358 E287.94166
G1 X69.89 Y115.145 E288.02242
G1 X80.213 Y125.468 E289.47911
G1 X80.13 Y125.448 E289.48763
G1 X79.943 Y125.396 E289.507
G1 X78.96 Y125.075 E289.61018
G1 X78.022 Y124.691 E289.71131
