;FLAVOR:Marlin
;TIME:1055
;Filament used: 0.539638m
;Layer height: 0.2
;MINX:99.888
;MINY:90.155
;MINZ:0.2
;MAXX:147.509
;MAXY:139.845
;MAXZ:10.2
;Generated with Cura_SteamEngine 4.6.1
M140 S55
M105
M190 S55
M104 S205
M105
M109 S205
M82 ;absolute extrusion mode
; Ender 3 Custom Start G-code
G92 E0 ; Reset Extruder
G28 ; Home all axes
G1 Z2.0 F3000 ; Move Z Axis up little to prevent scratching of Heat Bed
G1 X0.1 Y20 Z0.3 F5000.0 ; Move to start position
G1 X0.1 Y200.0 Z0.3 F1500.0 E15 ; Draw the first line
G1 X0.4 Y200.0 Z0.3 F5000.0 ; Move to side a little
G1 X0.4 Y20 Z0.3 F1500.0 E30 ; Draw the second line
G92 E0 ; Reset Extruder
G1 Z2.0 F3000 ; Move Z Axis up little to prevent scratching of Heat Bed
G1 X5 Y20 Z0.3 F5000.0 ; Move over to prevent blob squish
G92 E0
G92 E0
G1 F2700 E-5
;LAYER_COUNT:50
;LAYER:0
M107
G1 F300 Z0.4
G0 F6000 X135.582 Y91.057 Z0.4
;TYPE:SKIRT
G1 F300 Z0.2
G1 F2700 E0
G1 F1200 X136.003 Y91.117 E0.01414
G1 X136.588 Y91.213 E0.03386
G1 X137.47 Y91.405 E0.06388
G1 X138.332 Y91.673 E0.09391
G1 X139.356 Y92.107 E0.1309
G1 X140.029 Y92.442 E0.1559
G1 X140.279 Y92.574 E0.16531
G1 X141.058 Y93.031 E0.19534
G1 X141.793 Y93.554 E0.22535
G1 X142.565 Y94.222 E0.2593
G1 X142.885 Y94.528 E0.27403
G1 X143.151 Y94.792 E0.28649
G1 X143.357 Y95.004 E0.29633
G1 X143.957 Y95.679 E0.32636
G1 X144.495 Y96.404 E0.35639
G1 X145.053 Y97.333 E0.39244
G1 X145.386 Y97.969 E0.41631
G1 X145.525 Y98.25 E0.42674
G1 X145.889 Y99.076 E0.45676
G1 X146.178 Y99.931 E0.48678
G1 X146.43 Y101.019 E0.52393
G1 X146.543 Y101.693 E0.54666
G1 X146.592 Y102.031 E0.55801
G1 X146.693 Y103.165 E0.59588
G1 X146.704 Y103.506 E0.60723
G1 X146.709 Y103.835 E0.61817
G1 X146.709 Y125.936 E1.35325
G1 X146.699 Y126.64 E1.37667
G1 X146.621 Y127.766 E1.41421
G1 X146.592 Y127.997 E1.42196
G1 X146.52 Y128.476 E1.43807
G1 X146.435 Y128.964 E1.45454
G1 X146.241 Y129.846 E1.48458
G1 X145.969 Y130.708 E1.51464
G1 X145.564 Y131.665 E1.54921
G1 X145.386 Y132.032 E1.56277
G1 X145.092 Y132.602 E1.5841
G1 X144.637 Y133.382 E1.61414
G1 X144.115 Y134.119 E1.64418
G1 X143.44 Y134.902 E1.67856
G1 X143.125 Y135.232 E1.69373
G1 X142.871 Y135.489 E1.70575
G1 X142.663 Y135.692 E1.71542
G1 X141.99 Y136.293 E1.74543
G1 X141.265 Y136.833 E1.7755
G1 X140.316 Y137.404 E1.81233
G1 X139.716 Y137.718 E1.83486
G1 X139.411 Y137.869 E1.84618
G1 X138.584 Y138.234 E1.87624
G1 X137.729 Y138.523 E1.90626
G1 X136.636 Y138.777 E1.94358
G1 X136.194 Y138.854 E1.9585
G1 X135.601 Y138.943 E1.97845
G1 X134.702 Y139.029 E2.00849
G1 X133.391 Y139.013 E2.05209
G1 X132.442 Y138.937 E2.08376
G1 X131.268 Y138.821 E2.123
G1 X128.718 Y138.642 E2.20802
G1 X126.185 Y138.536 E2.29234
G1 X123.652 Y138.502 E2.3766
G1 X121.119 Y138.54 E2.46085
G1 X118.552 Y138.651 E2.54631
G1 X116.033 Y138.831 E2.63031
G1 X115.072 Y138.926 E2.66243
G1 X114.132 Y139.007 E2.69381
G1 X113.229 Y139.045 E2.72387
G1 X112.327 Y139.003 E2.7539
G1 X111.824 Y138.944 E2.77074
G1 X111.113 Y138.839 E2.79465
G1 X110.809 Y138.787 E2.80491
G1 X109.927 Y138.595 E2.83493
G1 X109.065 Y138.327 E2.86495
G1 X108.041 Y137.893 E2.90194
G1 X107.378 Y137.563 E2.92658
G1 X107.116 Y137.425 E2.93643
G1 X106.336 Y136.969 E2.96648
G1 X105.6 Y136.446 E2.99651
G1 X104.752 Y135.707 E3.03392
G1 X104.247 Y135.21 E3.05748
G1 X104.038 Y134.995 E3.06746
G1 X103.438 Y134.32 E3.0975
G1 X102.9 Y133.595 E3.12752
G1 X102.338 Y132.659 E3.16384
G1 X102.029 Y132.067 E3.18605
G1 X101.881 Y131.769 E3.19711
G1 X101.515 Y130.943 E3.22716
G1 X101.224 Y130.088 E3.2572
G1 X100.965 Y128.967 E3.29547
G1 X100.841 Y128.222 E3.32059
G1 X100.804 Y127.963 E3.32929
G1 X100.707 Y126.864 E3.36598
G1 X100.695 Y126.507 E3.37786
G1 X100.689 Y126.165 E3.38924
G1 X100.688 Y104.031 E4.12542
G1 X100.698 Y103.351 E4.14804
G1 X100.78 Y102.204 E4.18629
G1 X100.81 Y101.97 E4.19413
G1 X100.877 Y101.523 E4.20917
G1 X100.961 Y101.039 E4.22551
G1 X101.155 Y100.157 E4.25554
G1 X101.426 Y99.295 E4.2856
G1 X101.855 Y98.288 E4.322
G1 X102.178 Y97.639 E4.34611
G1 X102.322 Y97.366 E4.35638
G1 X102.778 Y96.587 E4.3864
G1 X103.302 Y95.851 E4.41645
G1 X104.037 Y95.008 E4.45365
G1 X104.517 Y94.52 E4.47642
G1 X104.731 Y94.311 E4.48637
G1 X105.405 Y93.709 E4.51642
G1 X106.129 Y93.169 E4.54646
G1 X107.09 Y92.591 E4.58376
G1 X107.699 Y92.273 E4.60661
G1 X107.988 Y92.13 E4.61734
G1 X108.815 Y91.766 E4.64739
G1 X109.67 Y91.476 E4.67742
G1 X110.761 Y91.223 E4.71467
G1 X111.203 Y91.146 E4.72959
G1 X111.796 Y91.057 E4.74954
G1 X112.695 Y90.971 E4.77957
G1 X114.006 Y90.987 E4.82318
G1 X114.955 Y91.063 E4.85484
G1 X116.129 Y91.179 E4.89408
G1 X118.68 Y91.358 E4.97914
G1 X121.211 Y91.464 E5.06339
G1 X123.744 Y91.498 E5.14765
G1 X126.277 Y91.46 E5.23191
G1 X128.842 Y91.35 E5.3173
G1 X131.365 Y91.169 E5.40143
G1 X132.327 Y91.073 E5.43358
G1 X133.27 Y90.992 E5.46506
G1 X134.172 Y90.955 E5.49509
G1 X135.075 Y90.998 E5.52516
G1 X135.582 Y91.057 E5.54213
G0 F6000 X135.639 Y90.661
G1 F1200 X136.06 Y90.721 E5.55628
G1 X136.655 Y90.819 E5.57633
G1 X137.555 Y91.013 E5.60695
G1 X138.435 Y91.285 E5.63759
G1 X139.532 Y91.748 E5.67719
G1 X140.215 Y92.088 E5.70257
G1 X140.465 Y92.22 E5.71197
G1 X141.26 Y92.685 E5.7426
G1 X142.011 Y93.217 E5.77322
G1 X142.842 Y93.933 E5.8097
G1 X143.162 Y94.239 E5.82442
G1 X143.438 Y94.513 E5.83736
G1 X143.644 Y94.725 E5.84719
G1 X144.256 Y95.413 E5.87782
G1 X144.807 Y96.151 E5.90845
G1 X145.407 Y97.146 E5.9471
G1 X145.744 Y97.791 E5.9713
G1 X145.883 Y98.072 E5.98173
G1 X146.255 Y98.914 E6.01234
G1 X146.553 Y99.786 E6.04299
G1 X146.824 Y100.95 E6.08274
G1 X146.939 Y101.635 E6.10585
G1 X146.988 Y101.973 E6.11721
G1 X147.092 Y103.152 E6.15657
G1 X147.103 Y103.493 E6.16792
G1 X147.109 Y103.835 E6.1793
G1 X147.109 Y125.942 E6.91458
G1 X147.099 Y126.646 E6.93799
G1 X147.017 Y127.815 E6.97697
G1 X146.988 Y128.046 E6.98471
G1 X146.914 Y128.545 E7.00149
G1 X146.829 Y129.033 E7.01797
G1 X146.632 Y129.932 E7.04858
G1 X146.357 Y130.811 E7.07921
G1 X145.923 Y131.84 E7.11636
G1 X145.593 Y132.51 E7.1412
G1 X145.447 Y132.788 E7.15164
G1 X144.983 Y133.583 E7.18226
G1 X144.453 Y134.336 E7.21288
G1 X143.73 Y135.178 E7.2498
G1 X143.415 Y135.508 E7.26497
G1 X143.151 Y135.775 E7.27746
G1 X142.943 Y135.978 E7.28712
G1 X142.256 Y136.592 E7.31777
G1 X141.52 Y137.144 E7.34837
G1 X140.504 Y137.758 E7.38785
G1 X139.893 Y138.077 E7.41078
G1 X139.588 Y138.228 E7.4221
G1 X138.746 Y138.6 E7.45271
G1 X137.875 Y138.898 E7.48333
G1 X136.704 Y139.171 E7.52332
G1 X136.262 Y139.248 E7.53825
G1 X135.657 Y139.339 E7.5586
G1 X134.74 Y139.428 E7.58924
G1 X133.82 Y139.437 E7.61984
G1 X133.36 Y139.412 E7.63516
G1 X132.402 Y139.335 E7.66713
G1 X131.233 Y139.219 E7.7062
G1 X128.707 Y139.042 E7.79042
G1 X126.164 Y138.936 E7.87507
G1 X123.653 Y138.902 E7.9586
G1 X121.107 Y138.94 E8.04329
G1 X118.6 Y139.048 E8.12675
G1 X116.066 Y139.23 E8.21125
G1 X115.106 Y139.325 E8.24333
G1 X114.166 Y139.406 E8.27471
G1 X113.246 Y139.445 E8.30534
G1 X112.326 Y139.404 E8.33597
G1 X111.767 Y139.34 E8.35468
G1 X111.046 Y139.233 E8.37893
G1 X110.742 Y139.181 E8.38918
G1 X109.842 Y138.987 E8.41981
G1 X108.962 Y138.715 E8.45044
G1 X107.865 Y138.252 E8.49004
G1 X107.191 Y137.917 E8.51508
G1 X106.929 Y137.779 E8.52493
G1 X106.134 Y137.315 E8.55554
G1 X105.382 Y136.783 E8.58618
G1 X104.473 Y135.993 E8.62624
G1 X103.96 Y135.489 E8.65016
G1 X103.751 Y135.274 E8.66013
G1 X103.139 Y134.586 E8.69075
G1 X102.588 Y133.848 E8.72139
G1 X101.984 Y132.846 E8.7603
G1 X101.67 Y132.245 E8.78285
G1 X101.522 Y131.947 E8.79392
G1 X101.149 Y131.105 E8.82455
G1 X100.85 Y130.235 E8.85515
G1 X100.57 Y129.035 E8.89613
G1 X100.492 Y128.583 E8.91139
G1 X100.408 Y128.02 E8.93032
G1 X100.307 Y126.877 E8.96849
G1 X100.295 Y126.52 E8.98037
G1 X100.289 Y126.165 E8.99217
G1 X100.288 Y104.025 E9.72855
G1 X100.298 Y103.345 E9.75117
G1 X100.383 Y102.153 E9.79092
G1 X100.413 Y101.919 E9.79877
G1 X100.483 Y101.454 E9.81441
G1 X100.567 Y100.97 E9.83075
G1 X100.764 Y100.071 E9.86136
G1 X101.038 Y99.192 E9.89198
G1 X101.496 Y98.112 E9.931
G1 X101.824 Y97.453 E9.95548
G1 X101.968 Y97.18 E9.96575
G1 X102.433 Y96.385 E9.99638
G1 X102.965 Y95.633 E10.02702
G1 X103.751 Y94.729 E10.06686
G1 X104.238 Y94.234 E10.08995
G1 X104.452 Y94.025 E10.0999
G1 X105.138 Y93.411 E10.13052
G1 X105.874 Y92.858 E10.16114
G1 X106.903 Y92.237 E10.20112
G1 X107.522 Y91.914 E10.22434
G1 X107.811 Y91.771 E10.23507
G1 X108.653 Y91.399 E10.26568
G1 X109.524 Y91.102 E10.29629
G1 X110.693 Y90.829 E10.33622
G1 X111.135 Y90.752 E10.35114
G1 X111.74 Y90.661 E10.37149
G1 X112.657 Y90.572 E10.40213
G1 X113.577 Y90.563 E10.43273
G1 X114.037 Y90.588 E10.44805
G1 X114.995 Y90.665 E10.48002
G1 X116.164 Y90.781 E10.51909
G1 X118.689 Y90.958 E10.60328
G1 X121.234 Y91.064 E10.688
G1 X123.744 Y91.098 E10.77149
G1 X126.289 Y91.06 E10.85615
G1 X128.797 Y90.952 E10.93964
G1 X131.33 Y90.77 E11.02411
G1 X132.293 Y90.675 E11.05629
G1 X133.236 Y90.594 E11.08777
G1 X134.156 Y90.555 E11.1184
G1 X135.075 Y90.596 E11.14899
G1 X135.639 Y90.661 E11.16788
G0 F6000 X135.695 Y90.265
G1 F1200 X136.116 Y90.325 E11.18202
G1 X136.723 Y90.424 E11.20248
G1 X137.64 Y90.622 E11.23368
G1 X138.536 Y90.897 E11.26485
G1 X139.708 Y91.389 E11.30713
G1 X140.106 Y91.584 E11.32187
G1 X140.652 Y91.867 E11.34232
G1 X141.462 Y92.34 E11.37352
G1 X142.229 Y92.88 E11.40472
G1 X143.118 Y93.644 E11.44371
G1 X143.438 Y93.95 E11.45843
G1 X143.725 Y94.234 E11.47186
G1 X143.931 Y94.446 E11.48169
G1 X144.555 Y95.146 E11.51288
G1 X145.118 Y95.897 E11.5441
G1 X145.76 Y96.958 E11.58535
G1 X146.103 Y97.614 E11.60997
G1 X146.242 Y97.895 E11.6204
G1 X146.621 Y98.752 E11.65156
G1 X146.926 Y99.639 E11.68276
G1 X147.218 Y100.881 E11.7252
G1 X147.335 Y101.578 E11.7487
G1 X147.384 Y101.916 E11.76006
G1 X147.492 Y103.139 E11.8009
G1 X147.503 Y103.48 E11.81225
G1 X147.509 Y103.834 E11.82402
G1 X147.509 Y125.947 E12.5595
G1 X147.499 Y126.651 E12.58292
G1 X147.414 Y127.865 E12.6234
G1 X147.385 Y128.096 E12.63114
G1 X147.308 Y128.614 E12.64856
G1 X147.223 Y129.102 E12.66503
G1 X147.023 Y130.018 E12.69622
G1 X146.745 Y130.914 E12.72742
G1 X146.283 Y132.014 E12.7671
G1 X145.947 Y132.696 E12.79239
G1 X145.801 Y132.974 E12.80283
G1 X145.33 Y133.785 E12.83403
G1 X144.791 Y134.552 E12.86521
G1 X144.019 Y135.454 E12.90469
G1 X143.704 Y135.784 E12.91987
G1 X143.43 Y136.061 E12.93283
G1 X143.222 Y136.264 E12.94249
G1 X142.523 Y136.89 E12.9737
G1 X141.774 Y137.454 E13.00489
G1 X140.691 Y138.111 E13.04702
G1 X140.071 Y138.435 E13.07029
G1 X139.766 Y138.586 E13.0816
G1 X138.908 Y138.966 E13.11282
G1 X138.021 Y139.271 E13.14401
G1 X136.773 Y139.565 E13.18666
G1 X136.331 Y139.642 E13.20158
G1 X135.713 Y139.735 E13.22237
G1 X134.779 Y139.826 E13.25358
G1 X133.841 Y139.838 E13.28478
G1 X133.329 Y139.811 E13.30183
G1 X132.363 Y139.733 E13.33407
G1 X131.202 Y139.618 E13.37287
G1 X128.663 Y139.44 E13.45752
G1 X126.177 Y139.336 E13.54028
G1 X123.653 Y139.302 E13.62424
G1 X121.131 Y139.34 E13.70813
G1 X118.608 Y139.449 E13.79212
G1 X116.101 Y139.628 E13.87572
G1 X115.14 Y139.723 E13.90784
G1 X114.2 Y139.804 E13.93922
G1 X113.263 Y139.845 E13.97041
G1 X112.326 Y139.806 E14.0016
G1 X111.711 Y139.736 E14.02219
G1 X110.978 Y139.628 E14.04683
G1 X110.674 Y139.576 E14.05709
G1 X109.757 Y139.378 E14.08829
G1 X108.861 Y139.103 E14.11947
G1 X107.689 Y138.611 E14.16174
G1 X107.291 Y138.416 E14.17648
G1 X106.743 Y138.132 E14.19701
G1 X105.932 Y137.66 E14.22822
G1 X105.165 Y137.121 E14.2594
G1 X104.194 Y136.28 E14.30213
G1 X103.674 Y135.767 E14.32642
G1 X103.465 Y135.552 E14.3364
G1 X102.84 Y134.853 E14.36758
G1 X102.278 Y134.102 E14.39878
G1 X101.631 Y133.033 E14.44034
G1 X101.312 Y132.423 E14.46324
G1 X101.164 Y132.125 E14.4743
G1 X100.783 Y131.268 E14.5055
G1 X100.477 Y130.382 E14.53667
G1 X100.176 Y129.103 E14.58037
G1 X100.098 Y128.651 E14.59563
G1 X100.012 Y128.077 E14.61493
G1 X99.907 Y126.891 E14.65454
G1 X99.895 Y126.534 E14.66642
G1 X99.889 Y126.165 E14.67869
G1 X99.888 Y104.019 E15.41527
G1 X99.898 Y103.339 E15.43789
G1 X99.986 Y102.102 E15.47914
G1 X100.016 Y101.868 E15.48698
G1 X100.089 Y101.386 E15.5032
G1 X100.173 Y100.902 E15.51954
G1 X100.373 Y99.986 E15.55072
G1 X100.65 Y99.09 E15.58191
G1 X101.137 Y97.936 E15.62357
G1 X101.471 Y97.266 E15.64847
G1 X101.615 Y96.993 E15.65874
G1 X102.087 Y96.183 E15.68992
G1 X102.627 Y95.416 E15.72112
G1 X103.464 Y94.45 E15.76363
G1 X103.958 Y93.947 E15.78708
G1 X104.172 Y93.738 E15.79703
G1 X104.871 Y93.112 E15.82824
G1 X105.62 Y92.548 E15.85942
G1 X106.716 Y91.884 E15.90204
G1 X107.345 Y91.556 E15.92564
G1 X107.634 Y91.413 E15.93636
G1 X108.491 Y91.033 E15.96754
G1 X109.378 Y90.728 E15.99874
G1 X110.624 Y90.435 E16.04131
G1 X111.066 Y90.358 E16.05623
G1 X111.684 Y90.265 E16.07702
G1 X112.618 Y90.174 E16.10823
G1 X113.556 Y90.162 E16.13943
G1 X114.068 Y90.189 E16.15649
G1 X115.034 Y90.267 E16.18872
G1 X116.195 Y90.382 E16.22752
G1 X118.734 Y90.56 E16.31218
G1 X121.221 Y90.664 E16.39497
G1 X123.744 Y90.698 E16.47889
G1 X126.267 Y90.66 E16.56282
G1 X128.785 Y90.552 E16.64664
G1 X131.297 Y90.372 E16.73041
G1 X132.259 Y90.276 E16.76256
G1 X133.202 Y90.195 E16.79404
G1 X134.139 Y90.155 E16.82523
G1 X135.076 Y90.195 E16.85643
G1 X135.695 Y90.265 E16.87715
G1 F2700 E11.87715
G1 F300 Z0.4
;MESH:Bracket.stl(1)
G0 F6000 X113.244 Y128.248 Z0.4
;TYPE:WALL-INNER
G1 F300 Z0.2
G1 F2700 E16.87715
G1 F1200 X112.702 Y128.163 E16.89539
G1 X112.216 Y127.915 E16.91354
G1 X111.828 Y127.527 E16.93179
G1 X111.58 Y127.041 E16.94994
G1 X111.488 Y126.452 E16.96977
G1 X111.487 Y103.55 E17.73149
G1 X111.581 Y102.958 E17.75143
G1 X111.829 Y102.472 E17.76957
G1 X112.216 Y102.085 E17.78778
G1 X112.702 Y101.837 E17.80592
G1 X113.244 Y101.752 E17.82417
G1 X113.786 Y101.837 E17.84242
G1 X114.272 Y102.085 E17.86057
G1 X114.659 Y102.472 E17.87877
G1 X114.907 Y102.958 E17.89692
G1 X115 Y103.548 E17.91678
G1 X115.001 Y126.45 E18.67851
G1 X114.907 Y127.042 E18.69844
G1 X114.659 Y127.528 E18.71659
G1 X114.272 Y127.915 E18.73479
G1 X113.786 Y128.163 E18.75294
G1 X113.244 Y128.248 E18.77119
G0 F6000 X113.244 Y128.653
;TYPE:WALL-OUTER
G1 F1200 X112.577 Y128.548 E18.79365
G1 X111.977 Y128.242 E18.81605
G1 X111.502 Y127.767 E18.83839
G1 X111.195 Y127.164 E18.8609
G1 X111.088 Y126.482 E18.88386
G1 X111.087 Y103.518 E19.64764
G1 X111.196 Y102.833 E19.67071
G1 X111.502 Y102.233 E19.69311
G1 X111.977 Y101.758 E19.71546
G1 X112.577 Y101.452 E19.73786
G1 X113.244 Y101.347 E19.76032
G1 X113.911 Y101.452 E19.78277
G1 X114.511 Y101.758 E19.80517
G1 X114.986 Y102.233 E19.82752
G1 X115.292 Y102.833 E19.84992
G1 X115.4 Y103.518 E19.87298
G1 X115.401 Y126.482 E20.63677
G1 X115.292 Y127.167 E20.65984
G1 X114.986 Y127.767 E20.68224
G1 X114.511 Y128.242 E20.70458
G1 X113.911 Y128.548 E20.72698
G1 X113.244 Y128.653 E20.74944
G0 F6000 X113.244 Y128.213
G0 X113.244 Y127.852
;TYPE:SKIN
G1 F1200 X112.82 Y127.786 E20.76371
G1 X112.447 Y127.596 E20.77764
G1 X112.147 Y127.296 E20.79175
G1 X111.957 Y126.923 E20.80567
G1 X111.878 Y126.418 E20.82267
G1 X111.877 Y103.585 E21.5821
G1 X111.958 Y103.076 E21.59924
G1 X112.148 Y102.703 E21.61317
G1 X112.447 Y102.404 E21.62723
G1 X112.82 Y102.214 E21.64115
G1 X113.244 Y102.148 E21.65542
G1 X113.668 Y102.214 E21.6697
G1 X114.041 Y102.404 E21.68362
G1 X114.34 Y102.703 E21.69768
G1 X114.53 Y103.076 E21.71161
G1 X114.61 Y103.583 E21.72868
G1 X114.611 Y126.415 E22.48807
G1 X114.53 Y126.924 E22.50522
G1 X114.34 Y127.297 E22.51914
G1 X114.041 Y127.596 E22.5332
G1 X113.668 Y127.786 E22.54713
G1 X113.244 Y127.852 E22.5614
G1 F2700 E17.5614
G1 F300 Z0.4
G0 F6000 X112.099 Y126.807 Z0.4
G1 F300 Z0.2
G1 F2700 E22.5614
G1 F1200 X112.933 Y127.641 E22.60063
G0 F6000 X113.506 Y127.648
G1 F1200 X112.037 Y126.179 E22.66972
G0 F6000 X112.037 Y125.613
G1 F1200 X113.907 Y127.484 E22.75771
G0 F6000 X114.2 Y127.211
G1 F1200 X112.037 Y125.048 E22.85945
G0 F6000 X112.037 Y124.482
G1 F1200 X114.383 Y126.828 E22.9698
G0 F6000 X114.45 Y126.33
G1 F1200 X112.037 Y123.916 E23.08332
G0 F6000 X112.037 Y123.351
G1 F1200 X114.45 Y125.764 E23.19682
G0 F6000 X114.45 Y125.198
G1 F1200 X112.037 Y122.785 E23.31032
G0 F6000 X112.037 Y122.219
G1 F1200 X114.45 Y124.633 E23.42384
G0 F6000 X114.45 Y124.067
