;FLAVOR:Marlin
;TIME:2758
;Filament used: 1.70264m
;Layer height: 0.2
;MINX:64.394
;MINY:84.393
;MINZ:0.2
;MAXX:165.606
;MAXY:145.607
;MAXZ:8
;Generated with Cura_SteamEngine 4.6.1
M140 S55
M105
M190 S55
M104 S205
M105
M109 S205
M82 ;absolute extrusion mode
; Ender 3 Custom Start G-code
G92 E0 ; Reset Extruder
G28 ; Home all axes
G1 Z2.0 F3000 ; Move Z Axis up little to prevent scratching of Heat Bed
G1 X0.1 Y20 Z0.3 F5000.0 ; Move to start position
G1 X0.1 Y200.0 Z0.3 F1500.0 E15 ; Draw the first line
G1 X0.4 Y200.0 Z0.3 F5000.0 ; Move to side a little
G1 X0.4 Y20 Z0.3 F1500.0 E30 ; Draw the second line
G92 E0 ; Reset Extruder
G1 Z2.0 F3000 ; Move Z Axis up little to prevent scratching of Heat Bed
G1 X5 Y20 Z0.3 F5000.0 ; Move over to prevent blob squish
G92 E0
G92 E0
G1 F2700 E-5
;LAYER_COUNT:40
;LAYER:0
M107
G1 F300 Z0.4
G0 F6000 X150.135 Y85.204 Z0.4
;TYPE:SKIRT
G1 F300 Z0.2
G1 F2700 E0
G1 F1200 X150.994 Y85.253 E0.02862
G1 X151.836 Y85.341 E0.05677
G1 X152.325 Y85.404 E0.07317
G1 X153.215 Y85.559 E0.10322
G1 X154.228 Y85.837 E0.13816
G1 X154.969 Y86.087 E0.16417
G1 X155.504 Y86.283 E0.18312
G1 X156.337 Y86.631 E0.21315
G1 X157.273 Y87.133 E0.24847
G1 X157.966 Y87.557 E0.27549
G1 X158.409 Y87.844 E0.29305
G1 X159.144 Y88.369 E0.32309
G1 X159.946 Y89.065 E0.35841
G1 X160.511 Y89.617 E0.38468
G1 X160.893 Y90.009 E0.40289
G1 X161.494 Y90.683 E0.43292
G1 X162.128 Y91.55 E0.46865
G1 X162.401 Y91.968 E0.48525
G1 X162.572 Y92.24 E0.49594
G1 X162.851 Y92.698 E0.51377
G1 X163.286 Y93.489 E0.5438
G1 X163.717 Y94.494 E0.58017
G1 X163.894 Y94.977 E0.59728
G1 X163.999 Y95.279 E0.60791
G1 X164.161 Y95.768 E0.62505
G1 X164.407 Y96.637 E0.65509
G1 X164.59 Y97.635 E0.68883
G1 X164.69 Y98.426 E0.71535
G1 X164.746 Y98.989 E0.73417
G1 X164.795 Y99.851 E0.76289
G1 X164.806 Y100.689 E0.79076
G1 X164.806 Y129.439 E1.74699
G1 X164.796 Y130.135 E1.77014
G1 X164.749 Y130.98 E1.79829
G1 X164.698 Y131.502 E1.81573
G1 X164.662 Y131.814 E1.82618
G1 X164.596 Y132.326 E1.84335
G1 X164.441 Y133.216 E1.8734
G1 X164.165 Y134.221 E1.90806
G1 X164.022 Y134.654 E1.92323
G1 X163.915 Y134.962 E1.93407
G1 X163.718 Y135.5 E1.95313
G1 X163.37 Y136.334 E1.98318
G1 X162.87 Y137.268 E2.01842
G1 X162.443 Y137.966 E2.04564
G1 X162.156 Y138.409 E2.06319
G1 X161.631 Y139.144 E2.09323
G1 X160.933 Y139.947 E2.12862
G1 X160.377 Y140.516 E2.15508
G1 X159.99 Y140.893 E2.17305
G1 X159.316 Y141.494 E2.20309
G1 X158.465 Y142.118 E2.23818
G1 X158.047 Y142.392 E2.25481
G1 X157.765 Y142.57 E2.2659
G1 X157.309 Y142.848 E2.28366
G1 X156.517 Y143.284 E2.31373
G1 X155.507 Y143.717 E2.35028
G1 X154.727 Y143.998 E2.37786
G1 X154.239 Y144.16 E2.39496
G1 X153.37 Y144.406 E2.425
G1 X152.36 Y144.591 E2.45915
G1 X151.898 Y144.652 E2.47465
G1 X151.564 Y144.691 E2.48583
G1 X150.996 Y144.747 E2.50482
G1 X150.144 Y144.795 E2.5332
G1 X149.312 Y144.806 E2.56087
G1 X80.707 Y144.807 E4.84269
G1 X80.561 Y144.806 E4.84754
G1 X79.862 Y144.796 E4.87079
G1 X78.995 Y144.747 E4.89968
G1 X78.169 Y144.66 E4.9273
G1 X77.678 Y144.597 E4.94376
G1 X76.788 Y144.443 E4.97381
G1 X75.757 Y144.159 E5.00937
G1 X75.031 Y143.913 E5.03487
G1 X74.496 Y143.717 E5.05382
G1 X73.663 Y143.369 E5.08385
G1 X72.727 Y142.867 E5.11917
G1 X72.034 Y142.443 E5.14619
G1 X71.591 Y142.156 E5.16375
G1 X70.856 Y141.631 E5.19379
G1 X70.046 Y140.927 E5.22949
G1 X69.68 Y140.573 E5.24642
G1 X69.46 Y140.353 E5.25677
G1 X69.102 Y139.985 E5.27385
G1 X68.501 Y139.311 E5.30388
G1 X67.884 Y138.467 E5.33865
G1 X67.602 Y138.037 E5.35576
G1 X67.414 Y137.74 E5.36745
G1 X67.143 Y137.294 E5.38481
G1 X66.709 Y136.502 E5.41484
G1 X66.28 Y135.5 E5.4511
G1 X66.004 Y134.733 E5.47821
G1 X65.841 Y134.243 E5.49538
G1 X65.595 Y133.374 E5.52542
G1 X65.406 Y132.342 E5.56032
G1 X65.309 Y131.564 E5.58639
G1 X65.253 Y130.996 E5.60538
G1 X65.205 Y130.144 E5.63376
G1 X65.194 Y129.311 E5.66147
G1 X65.194 Y100.561 E6.6177
G1 X65.204 Y99.866 E6.64082
G1 X65.251 Y99.023 E6.6689
G1 X65.302 Y98.5 E6.68638
G1 X65.338 Y98.186 E6.69689
G1 X65.404 Y97.674 E6.71406
G1 X65.559 Y96.784 E6.7441
G1 X65.835 Y95.779 E6.77877
G1 X66.083 Y95.042 E6.80463
G1 X66.279 Y94.505 E6.82365
G1 X66.626 Y93.671 E6.85369
G1 X67.154 Y92.689 E6.89077
G1 X67.562 Y92.027 E6.91664
G1 X67.843 Y91.593 E6.93383
G1 X68.367 Y90.858 E6.96386
G1 X69.081 Y90.037 E7.00004
G1 X69.63 Y89.477 E7.02613
G1 X70.003 Y89.113 E7.04346
G1 X70.677 Y88.511 E7.07352
G1 X71.535 Y87.882 E7.1089
G1 X71.953 Y87.608 E7.12553
G1 X72.242 Y87.426 E7.13689
G1 X72.702 Y87.146 E7.1548
G1 X73.493 Y86.711 E7.18482
G1 X74.51 Y86.277 E7.2216
G1 X75.274 Y86.002 E7.24861
G1 X75.755 Y85.842 E7.26547
G1 X76.623 Y85.596 E7.29547
G1 X77.642 Y85.408 E7.32994
G1 X78.105 Y85.347 E7.34547
G1 X78.436 Y85.309 E7.35655
G1 X79.004 Y85.253 E7.37553
G1 X79.856 Y85.205 E7.40392
G1 X80.688 Y85.194 E7.43159
G1 X149.293 Y85.193 E9.7134
G1 X149.44 Y85.194 E9.71829
G1 X150.135 Y85.204 E9.74141
G0 F6000 X150.141 Y84.804
G1 F1200 X151.033 Y84.855 E9.77113
G1 X151.887 Y84.944 E9.79968
G1 X152.376 Y85.007 E9.81608
G1 X153.284 Y85.164 E9.84673
G1 X154.353 Y85.457 E9.8836
G1 X154.791 Y85.602 E9.89894
G1 X155.106 Y85.712 E9.91004
G1 X155.641 Y85.908 E9.92899
G1 X156.491 Y86.262 E9.95962
G1 X157.48 Y86.79 E9.99691
G1 X157.905 Y87.047 E10.01342
G1 X158.183 Y87.222 E10.02435
G1 X158.626 Y87.509 E10.04191
G1 X159.377 Y88.042 E10.07254
G1 X160.224 Y88.777 E10.10984
G1 X160.567 Y89.108 E10.12569
G1 X160.798 Y89.338 E10.13653
G1 X161.18 Y89.73 E10.15474
G1 X161.793 Y90.417 E10.18536
G1 X162.463 Y91.332 E10.22308
G1 X162.914 Y92.031 E10.25075
G1 X163.193 Y92.489 E10.26858
G1 X163.637 Y93.296 E10.29922
G1 X164.093 Y94.357 E10.33763
G1 X164.27 Y94.84 E10.35474
G1 X164.379 Y95.154 E10.36579
G1 X164.541 Y95.643 E10.38293
G1 X164.792 Y96.528 E10.41352
G1 X164.987 Y97.583 E10.44921
G1 X165.048 Y98.043 E10.46464
G1 X165.088 Y98.387 E10.47616
G1 X165.144 Y98.95 E10.49498
G1 X165.195 Y99.845 E10.52479
G1 X165.206 Y100.689 E10.55287
G1 X165.206 Y129.444 E11.50926
G1 X165.196 Y130.14 E11.53241
G1 X165.147 Y131.019 E11.5617
G1 X165.096 Y131.541 E11.57914
G1 X165.059 Y131.865 E11.58999
G1 X164.993 Y132.377 E11.60716
G1 X164.836 Y133.284 E11.63777
G1 X164.545 Y134.346 E11.6744
G1 X164.291 Y135.1 E11.70086
G1 X164.094 Y135.638 E11.71991
G1 X163.74 Y136.488 E11.75054
G1 X163.213 Y137.475 E11.78775
G1 X162.955 Y137.902 E11.80435
G1 X162.778 Y138.183 E11.81539
G1 X162.491 Y138.626 E11.83295
G1 X161.958 Y139.377 E11.86358
G1 X161.221 Y140.225 E11.90095
G1 X160.657 Y140.803 E11.92781
G1 X160.27 Y141.18 E11.94578
G1 X159.583 Y141.793 E11.9764
G1 X158.684 Y142.452 E12.01347
G1 X158.266 Y142.726 E12.0301
G1 X157.973 Y142.912 E12.04164
G1 X157.517 Y143.19 E12.0594
G1 X156.711 Y143.634 E12.09001
G1 X155.644 Y144.092 E12.12863
G1 X154.853 Y144.377 E12.15659
G1 X154.365 Y144.539 E12.1737
G1 X153.479 Y144.791 E12.20433
G1 X152.413 Y144.988 E12.24039
G1 X151.951 Y145.049 E12.25589
G1 X151.603 Y145.089 E12.26754
G1 X151.035 Y145.145 E12.28652
G1 X150.15 Y145.195 E12.316
G1 X149.312 Y145.206 E12.34388
G1 X80.707 Y145.207 E14.62569
G1 X80.555 Y145.206 E14.63075
G1 X79.856 Y145.196 E14.654
G1 X78.955 Y145.145 E14.68401
G1 X78.118 Y145.057 E14.712
G1 X77.627 Y144.994 E14.72847
G1 X76.72 Y144.837 E14.75908
G1 X75.631 Y144.538 E14.79665
G1 X74.894 Y144.288 E14.82253
G1 X74.359 Y144.092 E14.84148
G1 X73.509 Y143.738 E14.87211
G1 X72.52 Y143.21 E14.90939
G1 X72.095 Y142.953 E14.92591
G1 X71.817 Y142.778 E14.93684
G1 X71.374 Y142.491 E14.95439
G1 X70.623 Y141.958 E14.98502
G1 X69.768 Y141.214 E15.02272
G1 X69.173 Y140.632 E15.0504
G1 X68.815 Y140.264 E15.06748
G1 X68.202 Y139.577 E15.0981
G1 X67.549 Y138.686 E15.13485
G1 X67.267 Y138.256 E15.15195
G1 X67.072 Y137.947 E15.1641
G1 X66.801 Y137.501 E15.18146
G1 X66.358 Y136.695 E15.21205
G1 X65.905 Y135.638 E15.2503
G1 X65.625 Y134.859 E15.27783
G1 X65.462 Y134.369 E15.29501
G1 X65.21 Y133.483 E15.32564
G1 X65.009 Y132.394 E15.36247
G1 X64.949 Y131.934 E15.3779
G1 X64.911 Y131.603 E15.38899
G1 X64.855 Y131.035 E15.40797
G1 X64.805 Y130.15 E15.43745
G1 X64.794 Y129.311 E15.46536
G1 X64.794 Y100.555 E16.42179
G1 X64.804 Y99.86 E16.44491
G1 X64.853 Y98.984 E16.47409
G1 X64.904 Y98.461 E16.49156
G1 X64.941 Y98.135 E16.50248
G1 X65.007 Y97.623 E16.51965
G1 X65.164 Y96.716 E16.55026
G1 X65.455 Y95.654 E16.58689
G1 X65.6 Y95.215 E16.60226
G1 X65.708 Y94.905 E16.61318
G1 X65.904 Y94.368 E16.6322
G1 X66.256 Y93.517 E16.66283
G1 X66.813 Y92.481 E16.70195
G1 X67.226 Y91.81 E16.72815
G1 X67.507 Y91.376 E16.74535
G1 X68.041 Y90.626 E16.77597
G1 X68.794 Y89.759 E16.81417
G1 X69.351 Y89.191 E16.84063
G1 X69.724 Y88.827 E16.85796
G1 X70.41 Y88.213 E16.88858
G1 X71.316 Y87.548 E16.92596
G1 X71.734 Y87.274 E16.94258
G1 X72.034 Y87.084 E16.95439
G1 X72.494 Y86.804 E16.97231
G1 X73.3 Y86.36 E17.00291
G1 X74.373 Y85.901 E17.04173
G1 X75.147 Y85.623 E17.06908
G1 X75.628 Y85.463 E17.08594
G1 X76.514 Y85.21 E17.11659
G1 X77.589 Y85.012 E17.15294
G1 X78.052 Y84.951 E17.16848
G1 X78.397 Y84.911 E17.18003
G1 X78.965 Y84.855 E17.19901
G1 X79.85 Y84.805 E17.22849
G1 X80.688 Y84.794 E17.25637
G1 X149.293 Y84.793 E19.53818
G1 X149.446 Y84.794 E19.54327
G1 X150.141 Y84.804 E19.56639
G0 F6000 X150.146 Y84.404
G1 F1200 X151.073 Y84.457 E19.59727
G1 X151.939 Y84.547 E19.62623
G1 X152.428 Y84.61 E19.64263
G1 X153.352 Y84.77 E19.67382
G1 X154.479 Y85.077 E19.71267
G1 X154.917 Y85.222 E19.72801
G1 X155.244 Y85.336 E19.73953
G1 X155.779 Y85.532 E19.75848
G1 X156.645 Y85.892 E19.78967
G1 X157.687 Y86.448 E19.82896
G1 X158.112 Y86.705 E19.84547
G1 X158.401 Y86.886 E19.85682
G1 X158.844 Y87.173 E19.87437
G1 X159.609 Y87.716 E19.90557
G1 X160.501 Y88.49 E19.94485
G1 X161.084 Y89.059 E19.97195
G1 X161.466 Y89.451 E19.99015
G1 X162.091 Y90.15 E20.02134
G1 X162.798 Y91.113 E20.06108
G1 X163.071 Y91.531 E20.07768
G1 X163.255 Y91.823 E20.08916
G1 X163.534 Y92.281 E20.107
G1 X163.988 Y93.102 E20.1382
G1 X164.468 Y94.219 E20.17864
G1 X164.645 Y94.702 E20.19575
G1 X164.759 Y95.028 E20.20723
G1 X164.921 Y95.517 E20.22437
G1 X165.178 Y96.419 E20.25556
G1 X165.384 Y97.53 E20.29314
G1 X165.445 Y97.99 E20.30858
G1 X165.486 Y98.347 E20.32053
G1 X165.542 Y98.91 E20.33935
G1 X165.595 Y99.84 E20.37033
G1 X165.606 Y100.689 E20.39857
G1 X165.606 Y129.45 E21.35516
G1 X165.596 Y130.146 E21.37832
G1 X165.545 Y131.058 E21.4087
G1 X165.494 Y131.58 E21.42614
G1 X165.456 Y131.916 E21.43739
G1 X165.39 Y132.428 E21.45456
G1 X165.23 Y133.353 E21.48578
G1 X164.925 Y134.472 E21.52436
G1 X164.782 Y134.905 E21.53952
G1 X164.666 Y135.237 E21.55122
G1 X164.469 Y135.775 E21.57028
G1 X164.11 Y136.641 E21.60146
G1 X163.555 Y137.682 E21.64069
G1 X163.297 Y138.109 E21.65729
G1 X163.114 Y138.401 E21.66875
G1 X162.827 Y138.844 E21.6863
G1 X162.284 Y139.609 E21.71751
G1 X161.509 Y140.503 E21.75686
G1 X161.174 Y140.85 E21.7729
G1 X160.936 Y141.089 E21.78412
G1 X160.549 Y141.466 E21.80209
G1 X159.85 Y142.092 E21.8333
G1 X158.903 Y142.787 E21.87237
G1 X158.485 Y143.061 E21.88899
G1 X158.181 Y143.253 E21.90095
G1 X157.725 Y143.531 E21.91871
G1 X156.904 Y143.985 E21.94992
G1 X155.782 Y144.468 E21.99054
G1 X154.979 Y144.757 E22.01893
G1 X154.491 Y144.919 E22.03603
G1 X153.589 Y145.176 E22.06723
G1 X152.465 Y145.384 E22.10524
G1 X152.003 Y145.445 E22.12074
G1 X151.642 Y145.487 E22.13283
G1 X151.074 Y145.543 E22.15182
G1 X150.156 Y145.595 E22.1824
G1 X149.312 Y145.606 E22.21047
G1 X80.707 Y145.607 E24.49228
G1 X80.55 Y145.606 E24.4975
G1 X79.851 Y145.596 E24.52076
G1 X78.915 Y145.543 E24.55194
G1 X78.067 Y145.454 E24.5803
G1 X77.576 Y145.391 E24.59676
G1 X76.652 Y145.232 E24.62795
G1 X75.505 Y144.918 E24.6675
G1 X74.756 Y144.664 E24.6938
G1 X74.221 Y144.468 E24.71275
G1 X73.355 Y144.108 E24.74395
G1 X72.313 Y143.552 E24.78323
G1 X71.888 Y143.295 E24.79975
G1 X71.599 Y143.114 E24.81109
G1 X71.156 Y142.827 E24.82865
G1 X70.391 Y142.284 E24.85985
G1 X69.49 Y141.502 E24.89953
G1 X68.886 Y140.911 E24.92764
G1 X68.528 Y140.543 E24.94471
G1 X67.904 Y139.844 E24.97588
G1 X67.215 Y138.905 E25.01461
G1 X66.933 Y138.475 E25.03172
G1 X66.73 Y138.155 E25.04432
G1 X66.459 Y137.709 E25.06168
G1 X66.007 Y136.888 E25.09285
G1 X65.529 Y135.775 E25.13314
G1 X65.245 Y134.985 E25.16106
G1 X65.082 Y134.495 E25.17823
G1 X64.825 Y133.593 E25.20943
G1 X64.612 Y132.446 E25.24823
G1 X64.552 Y131.986 E25.26366
G1 X64.513 Y131.642 E25.27517
G1 X64.457 Y131.074 E25.29416
G1 X64.405 Y130.156 E25.32474
G1 X64.394 Y129.311 E25.35285
G1 X64.394 Y100.55 E26.30944
G1 X64.404 Y99.855 E26.33256
G1 X64.455 Y98.945 E26.36287
G1 X64.506 Y98.422 E26.38035
G1 X64.544 Y98.084 E26.39166
G1 X64.61 Y97.572 E26.40883
G1 X64.77 Y96.647 E26.44006
G1 X65.075 Y95.528 E26.47863
G1 X65.22 Y95.089 E26.49401
G1 X65.332 Y94.767 E26.50535
G1 X65.528 Y94.23 E26.52436
G1 X65.887 Y93.364 E26.55554
G1 X66.471 Y92.272 E26.59673
G1 X66.89 Y91.593 E26.62327
G1 X67.171 Y91.159 E26.64046
G1 X67.714 Y90.394 E26.67167
G1 X68.507 Y89.48 E26.71191
G1 X69.071 Y88.904 E26.73873
G1 X69.444 Y88.54 E26.75606
G1 X70.143 Y87.915 E26.78725
G1 X71.097 Y87.213 E26.82664
G1 X71.515 Y86.939 E26.84327
G1 X71.826 Y86.743 E26.85549
G1 X72.286 Y86.463 E26.8734
G1 X73.107 Y86.01 E26.90459
G1 X74.236 Y85.525 E26.94546
G1 X75.021 Y85.243 E26.9732
G1 X75.502 Y85.083 E26.99006
G1 X76.404 Y84.825 E27.02127
G1 X77.537 Y84.615 E27.05959
G1 X78 Y84.554 E27.07512
G1 X78.358 Y84.513 E27.08711
G1 X78.926 Y84.457 E27.10609
G1 X79.844 Y84.405 E27.13667
G1 X80.688 Y84.394 E27.16475
G1 X149.293 Y84.393 E29.44656
G1 X149.451 Y84.394 E29.45182
G1 X150.146 Y84.404 E29.47493
G1 F2700 E24.47493
G1 F300 Z0.4
;MESH:Front-cover.stl
G0 F6000 X90.648 Y124.784 Z0.4
;TYPE:WALL-INNER
G1 F300 Z0.2
G1 F2700 E29.47493
G1 F1200 X92.399 Y124.282 E29.53552
G1 X94.043 Y123.496 E29.59613
G1 X95.535 Y122.451 E29.65671
G1 X96.833 Y121.174 E29.71727
G1 X97.889 Y119.72 E29.77704
G1 X104.055 Y109.544 E30.17278
G1 X104.519 Y108.484 E30.21127
G1 X104.691 Y107.297 E30.25116
G1 X104.543 Y106.11 E30.29095
G1 X104.088 Y105 E30.33085
G1 X103.356 Y104.052 E30.37068
G1 X102.399 Y103.329 E30.41057
G1 X101.286 Y102.885 E30.45043
G1 X100.135 Y102.757 E30.48895
G1 X88.243 Y103.009 E30.88457
G1 X86.454 Y103.196 E30.94439
G1 X84.699 Y103.681 E31.00495
G1 X83.047 Y104.451 E31.06557
G1 X81.545 Y105.482 E31.12617
G1 X80.234 Y106.747 E31.18676
G1 X79.151 Y108.211 E31.24733
G1 X78.324 Y109.834 E31.30791
G1 X77.776 Y111.571 E31.36849
G1 X77.522 Y113.375 E31.42909
G1 X77.57 Y115.196 E31.48967
G1 X77.917 Y116.984 E31.55025
G1 X78.554 Y118.691 E31.61085
G1 X79.465 Y120.268 E31.67143
G1 X80.623 Y121.673 E31.73198
G1 X81.999 Y122.869 E31.79262
G1 X83.552 Y123.819 E31.85317
G1 X85.242 Y124.502 E31.9138
G1 X87.02 Y124.896 E31.97437
G1 X88.838 Y124.991 E32.03492
G1 X90.648 Y124.784 E32.09551
G0 F6000 X90.57 Y124.39
;TYPE:WALL-OUTER
G1 F1200 X92.257 Y123.907 E32.15388
G1 X93.841 Y123.149 E32.21228
G1 X95.278 Y122.142 E32.27064
G1 X96.529 Y120.912 E32.32899
G1 X97.556 Y119.498 E32.38712
G1 X103.699 Y109.359 E32.78141
G1 X104.131 Y108.373 E32.81722
G1 X104.287 Y107.293 E32.85351
G1 X104.153 Y106.212 E32.88974
G1 X103.738 Y105.202 E32.92606
G1 X103.072 Y104.339 E32.96231
G1 X102.201 Y103.681 E32.99862
G1 X101.188 Y103.277 E33.03489
G1 X100.117 Y103.157 E33.07074
G1 X88.268 Y103.409 E33.46493
G1 X86.529 Y103.59 E33.52308
G1 X84.838 Y104.058 E33.58144
G1 X83.246 Y104.8 E33.63986
G1 X81.799 Y105.793 E33.69823
G1 X80.536 Y107.012 E33.75661
G1 X79.492 Y108.422 E33.81496
G1 X78.695 Y109.986 E33.87334
G1 X78.167 Y111.66 E33.93172
G1 X77.923 Y113.398 E33.9901
G1 X77.969 Y115.152 E34.04846
G1 X78.303 Y116.875 E34.10683
G1 X78.917 Y118.52 E34.16523
G1 X79.795 Y120.039 E34.22358
G1 X80.911 Y121.393 E34.28194
G1 X82.236 Y122.545 E34.34034
G1 X83.733 Y123.461 E34.39871
G1 X85.361 Y124.119 E34.45712
G1 X87.074 Y124.498 E34.51547
G1 X88.826 Y124.59 E34.57382
G1 X90.57 Y124.39 E34.63221
G0 F6000 X90.655 Y124.821
G1 F2700 E29.63221
G1 F300 Z0.4
G0 F6000 X115 Y122.497 Z0.4
;TYPE:WALL-INNER
G1 F300 Z0.2
G1 F2700 E34.63221
G1 F1200 X116.657 Y122.333 E34.68759
G1 X118.251 Y121.85 E34.74299
G1 X119.721 Y121.065 E34.79841
G1 X121.008 Y120.008 E34.8538
G1 X122.065 Y118.721 E34.9092
