;FLAVOR:Marlin
;TIME:9580
;Filament used: 6.65273m
;Layer height: 0.2
;MINX:9.987
;MINY:55.362
;MINZ:0.2
;MAXX:208.168
;MAXY:184.12
;MAXZ:14
;Generated with Cura_SteamEngine 4.6.1
M140 S55
M105
M190 S55
M104 S210
M105
M109 S210
M82 ;absolute extrusion mode
; Ender 3 Custom Start G-code
G92 E0 ; Reset Extruder
G28 ; Home all axes
G1 Z2.0 F3000 ; Move Z Axis up little to prevent scratching of Heat Bed
G1 X0.1 Y20 Z0.3 F5000.0 ; Move to start position
G1 X0.1 Y200.0 Z0.3 F1500.0 E15 ; Draw the first line
G1 X0.4 Y200.0 Z0.3 F5000.0 ; Move to side a little
G1 X0.4 Y20 Z0.3 F1500.0 E30 ; Draw the second line
G92 E0 ; Reset Extruder
G1 Z2.0 F3000 ; Move Z Axis up little to prevent scratching of Heat Bed
G1 X5 Y20 Z0.3 F5000.0 ; Move over to prevent blob squish
G92 E0
G92 E0
G1 F2700 E-5
;LAYER_COUNT:69
;LAYER:0
M107
G1 F300 Z0.4
G0 F6000 X187.128 Y56.293 Z0.4
;TYPE:SKIRT
G1 F300 Z0.2
G1 F2700 E0
G1 F1200 X188.267 Y56.447 E0.03823
G1 X189.144 Y56.619 E0.06795
G1 X189.659 Y56.728 E0.08546
G1 X190.312 Y56.876 E0.10773
G1 X191.427 Y57.197 E0.14632
G1 X192.658 Y57.632 E0.18975
G1 X193.363 Y57.9 E0.21483
G1 X194.443 Y58.384 E0.2542
G1 X195.528 Y58.951 E0.29491
G1 X196.265 Y59.358 E0.32292
G1 X197.273 Y59.994 E0.36256
G1 X198.103 Y60.591 E0.39656
G1 X198.421 Y60.83 E0.40979
G1 X198.97 Y61.249 E0.43276
G1 X199.841 Y61.994 E0.47088
G1 X200.492 Y62.62 E0.50092
G1 X200.907 Y63.033 E0.5204
G1 X201.335 Y63.471 E0.54077
G1 X202.098 Y64.346 E0.57938
G1 X202.927 Y65.42 E0.6245
G1 X203.338 Y65.979 E0.64758
G1 X203.994 Y66.991 E0.68769
G1 X204.642 Y68.14 E0.73157
G1 X204.996 Y68.801 E0.75651
G1 X205.506 Y69.909 E0.79708
G1 X205.98 Y71.133 E0.84073
G1 X206.233 Y71.837 E0.86561
G1 X206.567 Y72.969 E0.90487
G1 X206.861 Y74.246 E0.94845
G1 X207.017 Y75.007 E0.97429
G1 X207.189 Y76.203 E1.01448
G1 X207.3 Y77.563 E1.05986
G1 X207.341 Y78.271 E1.08345
G1 X207.363 Y78.922 E1.10511
G1 X207.367 Y79.196 E1.11423
G1 X207.368 Y159.908 E3.79872
G1 X207.367 Y160.053 E3.80354
G1 X207.349 Y161.038 E3.83631
G1 X207.317 Y161.687 E3.85792
G1 X207.252 Y162.579 E3.88767
G1 X207.193 Y163.267 E3.91064
G1 X207.028 Y164.414 E3.94918
G1 X206.852 Y165.28 E3.97857
G1 X206.731 Y165.829 E3.99727
G1 X206.585 Y166.451 E4.01852
G1 X206.249 Y167.583 E4.05779
G1 X205.767 Y168.91 E4.10475
G1 X205.525 Y169.531 E4.12692
G1 X205.016 Y170.637 E4.16741
G1 X204.38 Y171.819 E4.21205
G1 X204.049 Y172.403 E4.23438
G1 X203.404 Y173.401 E4.2739
G1 X202.644 Y174.433 E4.31653
G1 X202.181 Y175.035 E4.34179
G1 X201.379 Y175.959 E4.38249
G1 X200.559 Y176.791 E4.42134
G1 X199.957 Y177.378 E4.44931
G1 X199.031 Y178.179 E4.49003
G1 X197.966 Y178.988 E4.53451
G1 X197.351 Y179.433 E4.55976
G1 X196.321 Y180.088 E4.60036
G1 X195.138 Y180.74 E4.64528
G1 X194.486 Y181.079 E4.66973
G1 X193.394 Y181.568 E4.70952
G1 X192.114 Y182.049 E4.755
G1 X191.485 Y182.269 E4.77716
G1 X190.376 Y182.588 E4.81555
G1 X189.009 Y182.889 E4.8621
G1 X188.292 Y183.029 E4.8864
G1 X187.15 Y183.186 E4.92474
G1 X186.239 Y183.257 E4.95513
G1 X185.77 Y183.286 E4.97076
G1 X185.086 Y183.321 E4.99354
G1 X183.869 Y183.31 E5.03402
G1 X182.518 Y183.214 E5.07907
G1 X181.792 Y183.145 E5.10332
G1 X180.618 Y182.964 E5.14283
G1 X179.321 Y182.682 E5.18698
G1 X178.615 Y182.511 E5.21114
G1 X177.472 Y182.162 E5.25089
G1 X176.176 Y181.678 E5.2969
G1 X175.547 Y181.426 E5.31944
G1 X174.501 Y180.937 E5.35784
G1 X173.656 Y180.48 E5.38979
G1 X173.258 Y180.256 E5.40498
G1 X172.664 Y179.913 E5.4278
G1 X171.681 Y179.267 E5.46692
G1 X170.979 Y178.744 E5.49604
G1 X170.522 Y178.392 E5.51522
G1 X170.041 Y178.013 E5.53559
G1 X167.977 Y176.432 E5.62206
G1 X165.888 Y174.923 E5.70778
G1 X163.787 Y173.496 E5.79225
G1 X161.664 Y172.138 E5.87607
G1 X159.5 Y170.841 E5.95998
G1 X157.263 Y169.582 E6.04536
G1 X155.01 Y168.398 E6.13001
G1 X152.763 Y167.298 E6.21322
G1 X150.429 Y166.235 E6.29852
G1 X148.083 Y165.246 E6.3832
G1 X145.684 Y164.311 E6.46884
G1 X143.339 Y163.477 E6.55162
G1 X140.903 Y162.686 E6.63681
G1 X138.481 Y161.974 E6.72077
G1 X136.041 Y161.332 E6.80469
G1 X133.55 Y160.75 E6.88977
G1 X131.006 Y160.23 E6.97613
G1 X128.584 Y159.809 E7.0579
G1 X126.031 Y159.438 E7.1437
G1 X123.539 Y159.147 E7.22715
G1 X120.986 Y158.922 E7.31239
G1 X118.446 Y158.77 E7.39702
G1 X115.921 Y158.692 E7.48105
G1 X113.387 Y158.683 E7.56533
G1 X110.812 Y158.749 E7.651
G1 X108.319 Y158.882 E7.73404
G1 X105.765 Y159.092 E7.81927
G1 X103.268 Y159.368 E7.90283
G1 X100.718 Y159.723 E7.98846
G1 X98.229 Y160.141 E8.0724
G1 X95.729 Y160.635 E8.15716
G1 X93.242 Y161.2 E8.24198
G1 X90.815 Y161.824 E8.32533
G1 X88.349 Y162.532 E8.41067
G1 X85.946 Y163.297 E8.49454
G1 X85.191 Y163.561 E8.52114
G1 X83.953 Y163.98 E8.56461
G1 X83.086 Y164.231 E8.59464
G1 X82.199 Y164.405 E8.6247
G1 X81.005 Y164.513 E8.66457
G1 X80.095 Y164.538 E8.69485
G1 X59.642 Y164.628 E9.37513
G1 X58.99 Y164.622 E9.39681
G1 X58.088 Y164.573 E9.42686
G1 X57.194 Y164.445 E9.4569
G1 X56.315 Y164.239 E9.48693
G1 X55.458 Y163.956 E9.51694
G1 X54.629 Y163.597 E9.54699
G1 X53.834 Y163.167 E9.57705
G1 X53.081 Y162.669 E9.60708
G1 X52.701 Y162.378 E9.623
G1 X51.962 Y161.78 E9.65462
G1 X50.922 Y160.898 E9.69997
G1 X48.956 Y159.327 E9.78367
G1 X46.935 Y157.803 E9.86786
G1 X44.833 Y156.309 E9.95363
G1 X42.743 Y154.911 E10.03727
G1 X40.608 Y153.569 E10.12114
G1 X38.406 Y152.271 E10.20615
G1 X36.152 Y151.024 E10.29183
G1 X33.932 Y149.88 E10.3749
G1 X31.638 Y148.776 E10.45957
G1 X29.295 Y147.73 E10.54491
G1 X28.859 Y147.549 E10.56061
G1 X27.83 Y147.108 E10.59785
G1 X27.017 Y146.716 E10.62787
G1 X26.241 Y146.254 E10.65791
G1 X25.509 Y145.724 E10.68796
G1 X24.827 Y145.132 E10.718
G1 X24.2 Y144.482 E10.74804
G1 X23.633 Y143.779 E10.77808
G1 X23.108 Y142.991 E10.80957
G1 X22.671 Y142.263 E10.83781
G1 X12.455 Y124.729 E11.51276
G1 X12.104 Y124.107 E11.53652
G1 X11.695 Y123.301 E11.56658
G1 X11.359 Y122.463 E11.59661
G1 X11.099 Y121.598 E11.62665
G1 X10.916 Y120.714 E11.65667
G1 X10.813 Y119.817 E11.6867
G1 X10.789 Y118.914 E11.71675
G1 X10.844 Y118.013 E11.74677
G1 X10.98 Y117.12 E11.77682
G1 X11.194 Y116.242 E11.80687
G1 X11.484 Y115.387 E11.8369
G1 X11.85 Y114.561 E11.86695
G1 X12.069 Y114.143 E11.88265
G1 X12.543 Y113.293 E11.91502
G1 X22.754 Y95.586 E12.59486
G1 X23.079 Y95.04 E12.61599
G1 X23.575 Y94.285 E12.64604
G1 X24.136 Y93.577 E12.67608
G1 X24.757 Y92.921 E12.70613
G1 X25.433 Y92.323 E12.73615
G1 X26.16 Y91.787 E12.76619
G1 X26.932 Y91.318 E12.79623
G1 X27.742 Y90.918 E12.82628
G1 X28.276 Y90.701 E12.84545
G1 X29.109 Y90.39 E12.87502
G1 X31.489 Y89.471 E12.95988
G1 X33.842 Y88.484 E13.04475
G1 X36.178 Y87.425 E13.13005
G1 X38.438 Y86.324 E13.21367
G1 X40.697 Y85.143 E13.29845
G1 X42.9 Y83.91 E13.38242
G1 X45.09 Y82.601 E13.46728
G1 X47.239 Y81.234 E13.55199
G1 X49.33 Y79.818 E13.63598
G1 X51.433 Y78.306 E13.72213
G1 X53.226 Y76.945 E13.797
G1 X53.969 Y76.431 E13.82705
G1 X54.754 Y75.985 E13.85708
G1 X55.576 Y75.61 E13.88713
G1 X56.427 Y75.31 E13.91714
G1 X57.302 Y75.086 E13.94718
G1 X58.193 Y74.94 E13.97721
G1 X59.127 Y74.872 E14.00836
G1 X60.159 Y74.849 E14.04269
G1 X80.264 Y74.85 E14.71139
G1 X80.962 Y74.86 E14.7346
G1 X81.864 Y74.913 E14.76466
G1 X82.757 Y75.045 E14.79468
G1 X84.054 Y75.387 E14.83929
G1 X85.14 Y75.752 E14.8774
G1 X85.764 Y75.973 E14.89942
G1 X88.202 Y76.758 E14.98461
G1 X90.614 Y77.461 E15.06817
G1 X93.086 Y78.105 E15.15313
G1 X95.602 Y78.687 E15.23902
G1 X98.04 Y79.175 E15.32172
G1 X100.581 Y79.612 E15.40747
G1 X103.063 Y79.966 E15.49086
G1 X105.587 Y80.255 E15.57536
G1 X108.144 Y80.473 E15.66071
G1 X110.636 Y80.615 E15.74373
G1 X113.206 Y80.689 E15.82925
G1 X115.739 Y80.691 E15.91349
G1 X118.279 Y80.62 E15.99801
G1 X120.796 Y80.479 E16.08185
G1 X123.368 Y80.261 E16.16771
G1 X125.861 Y79.979 E16.25115
G1 X128.395 Y79.62 E16.33627
G1 X130.871 Y79.197 E16.41982
G1 X133.369 Y78.697 E16.50455
G1 X135.821 Y78.134 E16.58823
G1 X138.33 Y77.483 E16.67444
G1 X140.76 Y76.778 E16.7586
G1 X143.171 Y76.004 E16.84282
G1 X145.553 Y75.164 E16.92682
G1 X147.925 Y74.252 E17.01135
G1 X150.292 Y73.263 E17.09667
G1 X152.604 Y72.221 E17.18102
G1 X154.866 Y71.122 E17.26466
G1 X157.134 Y69.94 E17.34972
G1 X159.318 Y68.723 E17.43288
G1 X161.55 Y67.394 E17.51928
G1 X163.674 Y66.046 E17.60295
G1 X165.786 Y64.622 E17.68767
G1 X167.837 Y63.152 E17.7716
G1 X170.171 Y61.372 E17.86923
G1 X170.983 Y60.735 E17.90356
G1 X171.599 Y60.273 E17.92917
G1 X172.618 Y59.6 E17.96978
G1 X173.788 Y58.928 E18.01466
G1 X174.401 Y58.594 E18.03788
G1 X175.491 Y58.081 E18.07795
G1 X176.721 Y57.593 E18.12196
G1 X177.447 Y57.325 E18.1477
G1 X178.602 Y56.975 E18.18784
G1 X179.943 Y56.658 E18.23367
G1 X180.643 Y56.511 E18.25746
G1 X181.75 Y56.341 E18.29471
G1 X182.696 Y56.25 E18.32632
G1 X183.17 Y56.214 E18.34213
G1 X183.86 Y56.169 E18.36513
G1 X185.062 Y56.161 E18.40511
G1 X186.141 Y56.218 E18.44104
G1 X187.128 Y56.293 E18.47397
G0 F6000 X187.159 Y55.894
G1 F1200 X188.343 Y56.055 E18.51371
G1 X189.227 Y56.227 E18.54366
G1 X189.747 Y56.338 E18.56135
G1 X190.4 Y56.486 E18.58362
G1 X191.559 Y56.819 E18.62373
G1 X192.801 Y57.258 E18.66754
G1 X193.506 Y57.526 E18.69262
G1 X194.628 Y58.029 E18.73352
G1 X195.721 Y58.601 E18.77455
G1 X196.458 Y59.008 E18.80255
G1 X197.506 Y59.669 E18.84376
G1 X198.342 Y60.271 E18.87803
G1 X198.664 Y60.512 E18.89141
G1 X199.213 Y60.931 E18.91438
G1 X200.118 Y61.706 E18.95401
G1 X200.773 Y62.336 E18.98423
G1 X201.193 Y62.754 E19.00394
G1 X201.621 Y63.192 E19.02431
G1 X202.414 Y64.101 E19.06443
G1 X203.249 Y65.183 E19.10989
G1 X203.66 Y65.742 E19.13296
G1 X204.342 Y66.794 E19.17466
G1 X204.994 Y67.952 E19.21886
G1 X205.348 Y68.613 E19.2438
G1 X205.879 Y69.763 E19.28593
G1 X206.356 Y70.998 E19.32997
G1 X206.609 Y71.702 E19.35485
G1 X206.957 Y72.878 E19.39564
G1 X207.253 Y74.165 E19.43956
G1 X207.409 Y74.926 E19.4654
G1 X207.588 Y76.17 E19.5072
G1 X207.699 Y77.54 E19.55292
G1 X207.754 Y78.576 E19.58742
G1 X207.767 Y79.196 E19.60805
G1 X207.768 Y159.908 E22.29254
G1 X207.767 Y160.058 E22.29753
G1 X207.749 Y161.054 E22.33066
G1 X207.735 Y161.39 E22.34185
G1 X207.716 Y161.716 E22.35271
G1 X207.65 Y162.613 E22.38262
G1 X207.591 Y163.301 E22.40559
G1 X207.42 Y164.493 E22.44564
G1 X207.243 Y165.365 E22.47524
G1 X207.121 Y165.92 E22.49414
G1 X206.975 Y166.542 E22.51539
G1 X206.625 Y167.719 E22.55623
G1 X206.14 Y169.055 E22.6035
G1 X205.898 Y169.676 E22.62567
G1 X205.368 Y170.826 E22.66778
G1 X204.728 Y172.017 E22.71275
G1 X204.397 Y172.601 E22.73508
G1 X203.726 Y173.638 E22.77616
G1 X202.961 Y174.677 E22.81908
G1 X202.498 Y175.279 E22.84434
G1 X201.664 Y176.239 E22.88663
G1 X200.838 Y177.077 E22.92577
G1 X200.236 Y177.664 E22.95373
G1 X199.273 Y178.496 E22.99606
G1 X198.201 Y179.312 E23.04087
G1 X197.586 Y179.757 E23.06612
G1 X196.515 Y180.438 E23.10833
G1 X195.323 Y181.095 E23.1536
G1 X194.671 Y181.434 E23.17804
G1 X193.535 Y181.942 E23.21943
G1 X192.246 Y182.427 E23.26524
G1 X191.617 Y182.647 E23.2874
G1 X190.465 Y182.978 E23.32727
G1 X189.085 Y183.282 E23.37427
G1 X188.368 Y183.422 E23.39857
G1 X187.182 Y183.584 E23.43838
G1 X186.264 Y183.656 E23.46901
G1 X185.791 Y183.685 E23.48477
G1 X185.107 Y183.72 E23.50755
G1 X183.842 Y183.709 E23.54962
G1 X182.48 Y183.612 E23.59504
G1 X181.754 Y183.543 E23.61929
G1 X180.534 Y183.355 E23.66035
G1 X179.227 Y183.071 E23.70483
G1 X178.521 Y182.9 E23.729
G1 X177.333 Y182.537 E23.77031
G1 X176.027 Y182.05 E23.81667
G1 X175.398 Y181.798 E23.83921
G1 X174.311 Y181.289 E23.87913
G1 X173.46 Y180.829 E23.9113
G1 X173.058 Y180.603 E23.92664
G1 X172.464 Y180.26 E23.94946
G1 X171.443 Y179.588 E23.99011
G1 X170.736 Y179.062 E24.01942
G1 X170.274 Y178.706 E24.03882
G1 X169.791 Y178.325 E24.05928
G1 X167.728 Y176.745 E24.14571
G1 X165.675 Y175.263 E24.22992
G1 X163.568 Y173.831 E24.31465
G1 X161.448 Y172.475 E24.39836
G1 X159.304 Y171.19 E24.48149
G1 X157.06 Y169.927 E24.56714
G1 X154.855 Y168.768 E24.64999
G1 X152.571 Y167.65 E24.73457
G1 X150.243 Y166.59 E24.81965
G1 X147.962 Y165.628 E24.90199
G1 X145.541 Y164.685 E24.9884
G1 X143.219 Y163.859 E25.07037
G1 X140.782 Y163.068 E25.15559
G1 X138.371 Y162.359 E25.23918
G1 X135.92 Y161.714 E25.32347
G1 X133.45 Y161.137 E25.40784
G1 X130.989 Y160.634 E25.49138
G1 X128.494 Y160.2 E25.57561
G1 X125.964 Y159.832 E25.66064
G1 X123.494 Y159.544 E25.74335
G1 X120.963 Y159.321 E25.82786
G1 X118.445 Y159.171 E25.91176
G1 X115.907 Y159.092 E25.99621
G1 X113.395 Y159.084 E26.07976
G1 X110.843 Y159.149 E26.16467
G1 X108.339 Y159.282 E26.24807
G1 X105.805 Y159.49 E26.33264
G1 X103.295 Y159.768 E26.41663
G1 X100.774 Y160.119 E26.50129
G1 X98.302 Y160.534 E26.58466
G1 X95.816 Y161.025 E26.66894
G1 X93.358 Y161.583 E26.75277
G1 X90.886 Y162.219 E26.83767
G1 X88.485 Y162.908 E26.92075
G1 X86.063 Y163.68 E27.0053
G1 X85.319 Y163.94 E27.03151
G1 X84.081 Y164.359 E27.07498
G1 X83.197 Y164.616 E27.1056
G1 X82.294 Y164.795 E27.13622
G1 X81.018 Y164.913 E27.17884
G1 X80.097 Y164.938 E27.20949
G1 X59.638 Y165.028 E27.88996
G1 X58.986 Y165.022 E27.91165
G1 X58.067 Y164.973 E27.94226
G1 X57.155 Y164.845 E27.97289
G1 X56.258 Y164.638 E28.00351
G1 X55.382 Y164.355 E28.03412
G1 X54.534 Y163.996 E28.06475
G1 X53.721 Y163.565 E28.09536
G1 X52.948 Y163.065 E28.12598
G1 X52.451 Y162.69 E28.14669
G1 X51.703 Y162.085 E28.17868
G1 X50.679 Y161.217 E28.22333
G1 X48.688 Y159.626 E28.3081
G1 X46.692 Y158.12 E28.39126
G1 X44.642 Y156.664 E28.47489
G1 X42.513 Y155.239 E28.5601
G1 X40.372 Y153.894 E28.6442
G1 X38.231 Y152.632 E28.72686
G1 X35.967 Y151.379 E28.81292
G1 X33.755 Y150.239 E28.89569
G1 X31.452 Y149.131 E28.98069
G1 X29.159 Y148.107 E29.06422
G1 X28.701 Y147.917 E29.08071
G1 X27.672 Y147.476 E29.11794
G1 X26.843 Y147.077 E29.14854
G1 X26.051 Y146.607 E29.17917
G1 X25.303 Y146.071 E29.20978
G1 X24.604 Y145.471 E29.24042
G1 X23.96 Y144.814 E29.27102
G1 X23.375 Y144.102 E29.30167
G1 X22.765 Y143.198 E29.33794
G1 X22.325 Y142.465 E29.36637
G1 X12.106 Y124.925 E30.04155
G1 X11.755 Y124.303 E30.0653
G1 X11.338 Y123.483 E30.0959
G1 X10.994 Y122.629 E30.12652
G1 X10.725 Y121.748 E30.15716
G1 X10.533 Y120.848 E30.18777
G1 X10.42 Y119.934 E30.2184
G1 X10.387 Y119.014 E30.24902
G1 X10.434 Y118.095 E30.27962
G1 X10.561 Y117.183 E30.31025
G1 X10.766 Y116.285 E30.34088
G1 X11.048 Y115.409 E30.37149
G1 X11.405 Y114.561 E30.40209
G1 X11.72 Y113.948 E30.42502
G1 X12.196 Y113.093 E30.45756
G1 X22.41 Y95.381 E31.1376
G1 X22.735 Y94.835 E31.15874
G1 X23.24 Y94.065 E31.18936
G1 X23.81 Y93.342 E31.21999
G1 X24.44 Y92.671 E31.2506
G1 X25.127 Y92.057 E31.28124
G1 X25.863 Y91.505 E31.31184
G1 X26.645 Y91.019 E31.34247
G1 X27.466 Y90.603 E31.37308
G1 X28.136 Y90.327 E31.39718
G1 X28.932 Y90.03 E31.42544
G1 X31.339 Y89.1 E31.51126
G1 X33.689 Y88.115 E31.59601
G1 X35.987 Y87.073 E31.67993
G1 X38.27 Y85.961 E31.7644
G1 X40.51 Y84.789 E31.84848
G1 X42.705 Y83.561 E31.93213
G1 X44.866 Y82.269 E32.01588
G1 X47.014 Y80.903 E32.10054
G1 X49.118 Y79.478 E32.18506
G1 X51.172 Y78.002 E32.26919
G1 X52.984 Y76.626 E32.34486
G1 X53.741 Y76.102 E32.37548
G1 X54.54 Y75.645 E32.4061
G1 X55.376 Y75.26 E32.43671
G1 X56.242 Y74.948 E32.46732
G1 X57.133 Y74.713 E32.49797
G1 X58.04 Y74.556 E32.52859
G1 X59.116 Y74.473 E32.56448
G1 X60.159 Y74.449 E32.59918
G1 X80.27 Y74.45 E33.26808
G1 X80.968 Y74.46 E33.29129
G1 X81.887 Y74.513 E33.32191
G1 X82.798 Y74.646 E33.35253
G1 X83.694 Y74.857 E33.38315
G1 X84.181 Y75.007 E33.4001
G1 X85.273 Y75.375 E33.43842
G1 X85.873 Y75.587 E33.45959
G1 X88.332 Y76.379 E33.54551
G1 X90.721 Y77.075 E33.62828
G1 X93.206 Y77.722 E33.71368
G1 X95.667 Y78.292 E33.7977
G1 X98.121 Y78.784 E33.88095
G1 X100.628 Y79.214 E33.96555
G1 X103.094 Y79.567 E34.0484
G1 X105.666 Y79.86 E34.1345
G1 X108.133 Y80.071 E34.21685
G1 X110.671 Y80.216 E34.30141
G1 X113.218 Y80.289 E34.38615
G1 X115.728 Y80.291 E34.46964
G1 X118.282 Y80.22 E34.55462
G1 X120.773 Y80.08 E34.6376
G1 X123.291 Y79.867 E34.72165
G1 X125.826 Y79.58 E34.8065
G1 X128.307 Y79.228 E34.88984
G1 X130.83 Y78.797 E34.97498
G1 X133.272 Y78.309 E35.0578
G1 X135.745 Y77.74 E35.1422
G1 X138.215 Y77.1 E35.22707
G1 X140.631 Y76.399 E35.31074
G1 X143.032 Y75.628 E35.39461
G1 X145.425 Y74.785 E35.479
G1 X147.782 Y73.878 E35.563
G1 X150.135 Y72.895 E35.64781
