;FLAVOR:Marlin
;TIME:10415
;Filament used: 6.87092m
;Layer height: 0.2
;MINX:85
;MINY:67.887
;MINZ:0.2
;MAXX:145
;MAXY:164.5
;MAXZ:26
;Generated with Cura_SteamEngine 4.6.1
M140 S50
M105
M190 S50
M104 S200
M105
M109 S200
M82 ;absolute extrusion mode
; Ender 3 Custom Start G-code
G92 E0 ; Reset Extruder
G28 ; Home all axes
G1 Z2.0 F3000 ; Move Z Axis up little to prevent scratching of Heat Bed
G1 X0.1 Y20 Z0.3 F5000.0 ; Move to start position
G1 X0.1 Y200.0 Z0.3 F1500.0 E15 ; Draw the first line
G1 X0.4 Y200.0 Z0.3 F5000.0 ; Move to side a little
G1 X0.4 Y20 Z0.3 F1500.0 E30 ; Draw the second line
G92 E0 ; Reset Extruder
G1 Z2.0 F3000 ; Move Z Axis up little to prevent scratching of Heat Bed
G1 X5 Y20 Z0.3 F5000.0 ; Move over to prevent blob squish
G92 E0
G92 E0
G1 F2700 E-5
;LAYER_COUNT:130
;LAYER:0
M107
G0 F6000 X119.562 Y68.696 Z0.2
;TYPE:SKIRT
G1 F2700 E0
G1 F1200 X120.464 Y68.748 E0.03005
G1 X121.357 Y68.88 E0.06007
G1 X122.236 Y69.09 E0.09013
G1 X123.092 Y69.377 E0.12016
G1 X123.919 Y69.739 E0.15019
G1 X124.712 Y70.173 E0.18025
G1 X125.463 Y70.675 E0.2103
G1 X126.166 Y71.241 E0.24032
G1 X126.817 Y71.867 E0.27036
G1 X127.399 Y72.536 E0.29985
G1 X128.422 Y73.819 E0.35443
G1 X129.402 Y75.065 E0.40715
G1 X131.009 Y77.016 E0.49122
G1 X132.689 Y78.943 E0.57625
G1 X134.406 Y80.804 E0.66047
G1 X136.182 Y82.621 E0.74497
G1 X138.003 Y84.381 E0.82921
G1 X140.286 Y86.459 E0.93188
G1 X140.732 Y86.852 E0.95165
G1 X141.383 Y87.478 E0.98169
G1 X141.975 Y88.16 E1.01173
G1 X142.505 Y88.891 E1.04176
G1 X142.969 Y89.666 E1.0718
G1 X143.362 Y90.479 E1.10184
G1 X143.681 Y91.324 E1.13188
G1 X143.924 Y92.194 E1.16192
G1 X144.09 Y93.082 E1.19197
G1 X144.185 Y94.191 E1.22899
G1 X144.2 Y94.83 E1.25025
G1 X144.2 Y152.764 E3.17714
G1 X144.19 Y153.617 E3.20552
G1 X144.139 Y154.519 E3.23556
G1 X144.008 Y155.413 E3.26562
G1 X143.799 Y156.291 E3.29563
G1 X143.513 Y157.148 E3.32568
G1 X143.152 Y157.976 E3.35573
G1 X142.72 Y158.768 E3.38573
G1 X142.219 Y159.52 E3.41579
G1 X141.653 Y160.224 E3.44583
G1 X141.028 Y160.875 E3.47585
G1 X140.347 Y161.469 E3.5059
G1 X139.616 Y162 E3.53595
G1 X138.842 Y162.464 E3.56597
G1 X138.029 Y162.858 E3.59602
G1 X137.185 Y163.178 E3.62604
G1 X136.315 Y163.423 E3.6561
G1 X135.428 Y163.589 E3.68611
G1 X134.277 Y163.687 E3.72453
G1 X133.67 Y163.7 E3.74473
G1 X96.575 Y163.699 E4.97851
G1 X95.877 Y163.69 E5.00173
G1 X94.976 Y163.639 E5.03175
G1 X94.082 Y163.507 E5.0618
G1 X93.204 Y163.298 E5.09182
G1 X92.347 Y163.011 E5.12188
G1 X91.52 Y162.65 E5.15189
G1 X90.727 Y162.217 E5.18194
G1 X89.976 Y161.716 E5.21197
G1 X89.272 Y161.15 E5.24202
G1 X88.621 Y160.524 E5.27205
G1 X88.028 Y159.843 E5.30209
G1 X87.498 Y159.112 E5.33212
G1 X87.034 Y158.337 E5.36216
G1 X86.64 Y157.524 E5.39221
G1 X86.32 Y156.68 E5.42223
G1 X86.076 Y155.81 E5.45229
G1 X85.91 Y154.922 E5.48233
G1 X85.813 Y153.767 E5.52088
G1 X85.8 Y153.158 E5.54114
G1 X85.8 Y95.207 E7.4686
G1 X85.801 Y95.061 E7.47346
G1 X85.811 Y94.363 E7.49667
G1 X85.864 Y93.461 E7.52673
G1 X85.996 Y92.568 E7.55675
G1 X86.207 Y91.69 E7.58679
G1 X86.495 Y90.834 E7.61682
G1 X86.857 Y90.007 E7.64685
G1 X87.292 Y89.215 E7.6769
G1 X87.794 Y88.464 E7.70695
G1 X88.361 Y87.761 E7.73699
G1 X89.099 Y87.007 E7.77208
G1 X89.566 Y86.58 E7.79313
G1 X90.966 Y85.345 E7.85522
G1 X92.803 Y83.63 E7.93881
G1 X94.635 Y81.82 E8.02446
G1 X96.381 Y79.995 E8.10847
G1 X98.074 Y78.121 E8.19246
G1 X99.736 Y76.174 E8.27761
G1 X101.311 Y74.22 E8.36108
G1 X101.826 Y73.545 E8.38932
G1 X102.435 Y72.769 E8.42213
G1 X103.225 Y71.875 E8.46181
G1 X103.393 Y71.706 E8.46973
G1 X104.058 Y71.094 E8.49979
G1 X104.773 Y70.544 E8.5298
G1 X105.535 Y70.059 E8.55984
G1 X106.337 Y69.643 E8.58989
G1 X107.172 Y69.3 E8.61991
G1 X108.035 Y69.032 E8.64997
G1 X108.918 Y68.841 E8.68002
G1 X109.814 Y68.729 E8.71005
G1 X110.447 Y68.699 E8.73113
G1 X111.188 Y68.687 E8.75578
G1 X112.766 Y68.687 E8.80826
G1 X113.536 Y68.698 E8.83387
G1 X116.017 Y68.701 E8.91639
G1 X117.237 Y68.687 E8.95697
G1 X118.899 Y68.687 E9.01225
G1 X119.562 Y68.696 E9.0343
G0 F6000 X119.568 Y68.296
G1 F1200 X120.487 Y68.348 E9.06492
G1 X121.398 Y68.48 E9.09553
G1 X122.294 Y68.691 E9.12615
G1 X123.169 Y68.979 E9.15679
G1 X124.015 Y69.341 E9.1874
G1 X124.827 Y69.775 E9.21802
G1 X125.598 Y70.279 E9.24865
G1 X126.322 Y70.847 E9.27926
G1 X126.995 Y71.476 E9.3099
G1 X127.712 Y72.286 E9.34588
G1 X128.736 Y73.571 E9.40053
G1 X129.7 Y74.796 E9.45238
G1 X131.335 Y76.782 E9.53793
G1 X132.984 Y78.673 E9.62138
G1 X134.687 Y80.519 E9.70492
G1 X136.464 Y82.336 E9.78945
G1 X138.284 Y84.097 E9.87368
G1 X140.539 Y86.148 E9.97507
G1 X140.997 Y86.552 E9.99538
G1 X141.66 Y87.19 E10.02598
G1 X142.266 Y87.883 E10.0566
G1 X142.81 Y88.626 E10.08723
G1 X143.287 Y89.414 E10.11786
G1 X143.693 Y90.239 E10.14845
G1 X144.027 Y91.098 E10.1791
G1 X144.285 Y91.981 E10.2097
G1 X144.465 Y92.884 E10.24032
G1 X144.585 Y94.179 E10.28358
G1 X144.595 Y94.503 E10.29436
G1 X144.6 Y94.83 E10.30524
G1 X144.6 Y152.764 E12.23213
G1 X144.59 Y153.622 E12.26067
G1 X144.539 Y154.541 E12.29128
G1 X144.408 Y155.453 E12.32193
G1 X144.198 Y156.349 E12.35254
G1 X143.912 Y157.224 E12.38315
G1 X143.551 Y158.071 E12.41378
G1 X143.117 Y158.883 E12.4444
G1 X142.615 Y159.655 E12.47503
G1 X142.047 Y160.38 E12.50566
G1 X141.419 Y161.053 E12.53628
G1 X140.735 Y161.669 E12.56689
G1 X140 Y162.223 E12.5975
G1 X139.22 Y162.712 E12.62812
G1 X138.4 Y163.131 E12.65875
G1 X137.547 Y163.477 E12.68937
G1 X136.667 Y163.748 E12.71999
G1 X135.767 Y163.941 E12.75061
G1 X134.853 Y164.056 E12.78125
G1 X134.288 Y164.087 E12.80007
G1 X133.67 Y164.1 E12.82063
G1 X96.57 Y164.099 E14.05458
G1 X95.872 Y164.09 E14.0778
G1 X94.953 Y164.038 E14.10841
G1 X94.042 Y163.907 E14.13902
G1 X93.146 Y163.697 E14.16963
G1 X92.271 Y163.41 E14.20026
G1 X91.424 Y163.048 E14.2309
G1 X90.612 Y162.614 E14.26152
G1 X89.841 Y162.112 E14.29212
G1 X89.116 Y161.544 E14.32275
G1 X88.443 Y160.915 E14.35339
G1 X87.828 Y160.231 E14.38398
G1 X87.274 Y159.496 E14.4146
G1 X86.786 Y158.715 E14.44523
G1 X86.367 Y157.895 E14.47585
G1 X86.021 Y157.042 E14.50647
G1 X85.751 Y156.162 E14.53709
G1 X85.558 Y155.261 E14.56773
G1 X85.444 Y154.348 E14.59833
G1 X85.413 Y153.777 E14.61735
G1 X85.4 Y153.158 E14.63795
G1 X85.4 Y95.207 E16.5654
G1 X85.401 Y95.055 E16.57046
G1 X85.411 Y94.357 E16.59368
G1 X85.464 Y93.438 E16.6243
G1 X85.597 Y92.527 E16.65492
G1 X85.808 Y91.631 E16.68553
G1 X86.096 Y90.757 E16.71614
G1 X86.459 Y89.91 E16.74679
G1 X86.894 Y89.099 E16.7774
G1 X87.398 Y88.329 E16.80801
G1 X87.967 Y87.605 E16.83863
G1 X88.828 Y86.713 E16.87987
G1 X89.301 Y86.28 E16.9012
G1 X90.711 Y85.035 E16.96376
G1 X92.532 Y83.336 E17.04659
G1 X94.33 Y81.56 E17.13065
G1 X96.094 Y79.715 E17.21555
G1 X97.774 Y77.857 E17.29886
G1 X99.418 Y75.93 E17.38311
G1 X101.013 Y73.951 E17.46765
G1 X101.511 Y73.298 E17.49496
G1 X102.12 Y72.522 E17.52777
G1 X102.941 Y71.593 E17.56901
G1 X103.109 Y71.424 E17.57693
G1 X103.786 Y70.8 E17.60756
G1 X104.515 Y70.237 E17.63819
G1 X105.289 Y69.739 E17.6688
G1 X106.104 Y69.31 E17.69944
G1 X106.953 Y68.954 E17.73006
G1 X107.83 Y68.673 E17.76069
G1 X108.727 Y68.469 E17.79128
G1 X109.639 Y68.343 E17.8219
G1 X110.44 Y68.299 E17.84859
G1 X111.188 Y68.287 E17.87347
G1 X112.772 Y68.287 E17.92615
G1 X113.543 Y68.298 E17.9518
G1 X116.012 Y68.301 E18.03392
G1 X117.237 Y68.287 E18.07466
G1 X118.905 Y68.287 E18.13014
G1 X119.568 Y68.296 E18.1522
G0 F6000 X119.573 Y67.896
G1 F1200 X120.51 Y67.949 E18.18341
G1 X121.438 Y68.081 E18.21459
G1 X122.352 Y68.292 E18.24579
G1 X123.245 Y68.58 E18.27699
G1 X124.109 Y68.943 E18.30816
G1 X124.94 Y69.378 E18.33936
G1 X125.731 Y69.883 E18.37057
G1 X126.476 Y70.453 E18.40177
G1 X127.169 Y71.084 E18.43295
G1 X128.024 Y72.037 E18.47553
G1 X129.051 Y73.324 E18.53029
G1 X130.02 Y74.556 E18.58243
G1 X131.63 Y76.51 E18.66663
G1 X133.28 Y78.404 E18.75018
G1 X135 Y80.268 E18.83454
G1 X136.745 Y82.052 E18.91754
G1 X138.548 Y83.796 E19.00097
G1 X140.822 Y85.865 E19.10323
G1 X141.261 Y86.252 E19.12269
G1 X141.938 Y86.901 E19.15388
G1 X142.557 Y87.606 E19.18509
G1 X143.113 Y88.36 E19.21625
G1 X143.604 Y89.16 E19.24747
G1 X144.024 Y89.998 E19.27864
G1 X144.371 Y90.869 E19.30983
G1 X144.644 Y91.767 E19.34105
G1 X144.838 Y92.684 E19.37222
G1 X144.954 Y93.615 E19.40343
G1 X144.985 Y94.167 E19.42181
G1 X144.995 Y94.491 E19.4326
G1 X145 Y94.83 E19.44387
G1 X145 Y152.764 E21.37076
G1 X144.99 Y153.627 E21.39947
G1 X144.939 Y154.564 E21.43068
G1 X144.807 Y155.492 E21.46186
G1 X144.598 Y156.406 E21.49304
G1 X144.311 Y157.299 E21.52424
G1 X143.949 Y158.165 E21.55546
G1 X143.515 Y158.996 E21.58664
G1 X143.011 Y159.787 E21.61783
G1 X142.442 Y160.532 E21.64901
G1 X141.811 Y161.227 E21.68023
G1 X141.124 Y161.865 E21.71142
G1 X140.385 Y162.442 E21.7426
G1 X139.599 Y162.954 E21.7738
G1 X138.773 Y163.397 E21.80498
G1 X137.911 Y163.769 E21.8362
G1 X137.022 Y164.065 E21.86737
G1 X136.11 Y164.285 E21.89857
G1 X135.183 Y164.426 E21.92976
G1 X134.299 Y164.487 E21.95923
G1 X133.67 Y164.5 E21.98015
G1 X96.565 Y164.499 E23.21427
G1 X95.867 Y164.49 E23.23749
G1 X94.931 Y164.438 E23.26867
G1 X94.002 Y164.306 E23.29988
G1 X93.088 Y164.096 E23.33107
G1 X92.195 Y163.809 E23.36227
G1 X91.33 Y163.446 E23.39347
G1 X90.499 Y163.012 E23.42465
G1 X89.708 Y162.508 E23.45584
G1 X88.963 Y161.938 E23.48704
G1 X88.269 Y161.307 E23.51824
G1 X87.632 Y160.62 E23.5494
G1 X87.055 Y159.88 E23.58061
G1 X86.543 Y159.094 E23.61181
G1 X86.1 Y158.267 E23.64302
G1 X85.729 Y157.406 E23.6742
G1 X85.433 Y156.516 E23.70539
G1 X85.214 Y155.604 E23.73659
G1 X85.073 Y154.677 E23.76778
G1 X85.013 Y153.788 E23.79741
G1 X85 Y153.158 E23.81837
G1 X85 Y95.207 E25.74583
G1 X85.001 Y95.049 E25.75108
G1 X85.011 Y94.351 E25.7743
G1 X85.065 Y93.415 E25.80548
G1 X85.197 Y92.487 E25.83666
G1 X85.409 Y91.573 E25.86787
G1 X85.698 Y90.681 E25.89905
G1 X86.061 Y89.816 E25.93025
G1 X86.497 Y88.986 E25.96144
G1 X87.002 Y88.195 E25.99265
G1 X87.573 Y87.451 E26.02384
G1 X88.205 Y86.758 E26.05504
G1 X88.557 Y86.419 E26.07129
G1 X89.036 Y85.98 E26.0929
G1 X90.437 Y84.744 E26.15504
G1 X92.261 Y83.041 E26.23804
G1 X94.06 Y81.264 E26.32214
G1 X95.775 Y79.471 E26.40467
G1 X97.487 Y77.577 E26.48958
G1 X99.121 Y75.662 E26.57331
G1 X100.682 Y73.725 E26.65605
G1 X101.197 Y73.051 E26.68427
G1 X101.806 Y72.275 E26.71707
G1 X102.658 Y71.311 E26.75986
G1 X102.826 Y71.142 E26.76779
G1 X103.515 Y70.506 E26.79898
G1 X104.255 Y69.93 E26.83017
G1 X105.042 Y69.42 E26.86136
G1 X105.87 Y68.979 E26.89256
G1 X106.732 Y68.61 E26.92375
G1 X107.623 Y68.315 E26.95496
G1 X108.535 Y68.098 E26.98614
G1 X109.462 Y67.959 E27.01732
G1 X110.433 Y67.899 E27.04968
G1 X111.187 Y67.887 E27.07476
G1 X112.777 Y67.887 E27.12764
G1 X113.548 Y67.898 E27.15329
G1 X116.008 Y67.901 E27.23511
G1 X117.237 Y67.887 E27.27599
G1 X118.91 Y67.887 E27.33163
G1 X119.573 Y67.896 E27.35369
G1 F2700 E22.35369
G0 F6000 X114.25 Y83.69
G0 X114.25 Y84.099
G1 F2700 E27.35369
G1 F1200 X114.802 Y84.155 E27.37214
G1 X115.201 Y84.155 E27.38541
G1 X115.75 Y84.115 E27.40372
G1 X115.75 Y89.9 E27.59613
G1 X114.25 Y89.9 E27.64602
G1 X114.25 Y84.099 E27.83896
G0 F6000 X114.221 Y83.705
G1 F1200 X114.802 Y83.755 E27.85836
G1 X115.201 Y83.755 E27.87163
G1 X115.721 Y83.715 E27.88897
G1 X116.15 Y83.614 E27.90363
G1 X116.15 Y90.3 E28.12601
G1 X113.85 Y90.3 E28.20251
G1 X113.85 Y83.611 E28.42499
G1 X114.221 Y83.705 E28.43771
G0 F6000 X114.407 Y83.329
G1 F1200 X114.802 Y83.355 E28.45088
G1 X115.201 Y83.355 E28.46415
G1 X115.689 Y83.315 E28.48044
G1 X116.164 Y83.196 E28.49672
G1 X116.55 Y83.029 E28.51071
G1 X116.55 Y90.7 E28.76585
G1 X113.45 Y90.7 E28.86896
G1 X113.45 Y83.031 E29.12403
G1 X113.929 Y83.225 E29.14122
G1 X114.407 Y83.329 E29.15749
G0 F6000 X114.136 Y82.868
G1 F1200 X114.802 Y82.955 E29.17983
G1 X115.201 Y82.955 E29.1931
G1 X115.655 Y82.915 E29.20826
G1 X116.095 Y82.797 E29.22341
G1 X116.507 Y82.603 E29.23856
G1 X116.95 Y82.262 E29.25715
G1 X116.95 Y91.1 E29.5511
G1 X113.05 Y91.1 E29.68082
G1 X113.05 Y82.265 E29.97467
G1 X113.313 Y82.486 E29.9861
G1 X113.708 Y82.713 E30.00125
G1 X114.136 Y82.868 E30.01639
G0 F6000 X114.337 Y82.505
G1 F1200 X114.802 Y82.555 E30.03194
G1 X115.201 Y82.555 E30.04521
G1 X115.618 Y82.515 E30.05915
G1 X116.02 Y82.397 E30.07308
G1 X116.392 Y82.204 E30.08702
G1 X116.758 Y81.909 E30.10266
G1 X117.35 Y81.316 E30.13053
G1 X117.35 Y91.5 E30.46925
G1 X112.65 Y91.5 E30.62557
G1 X112.65 Y81.315 E30.96432
G1 X113.246 Y81.911 E30.99236
G1 X113.57 Y82.177 E31.0063
G1 X113.937 Y82.378 E31.02022
G1 X114.337 Y82.505 E31.03418
G0 F6000 X114.528 Y82.134
G1 F1200 X114.802 Y82.155 E31.04332
G1 X115.201 Y82.155 E31.05659
G1 X115.578 Y82.115 E31.0692
G1 X115.938 Y81.997 E31.0818
G1 X116.265 Y81.807 E31.09438
G1 X116.475 Y81.626 E31.1036
G1 X117.412 Y80.687 E31.14772
G1 X117.75 Y80.687 E31.15896
G1 X117.75 Y91.9 E31.53191
G1 X112.25 Y91.9 E31.71484
G1 X112.25 Y80.686 E32.08782
G1 X112.587 Y80.686 E32.09902
G1 X113.529 Y81.628 E32.14333
G1 X113.824 Y81.866 E32.15594
G1 X114.162 Y82.037 E32.16854
G1 X114.528 Y82.134 E32.18113
G0 F6000 X114.802 Y81.755
G1 F1200 X115.201 Y81.755 E32.1944
G1 X115.533 Y81.715 E32.20552
G1 X115.845 Y81.598 E32.21661
G1 X116.192 Y81.344 E32.23091
G1 X117.247 Y80.287 E32.28058
G1 X118.15 Y80.286 E32.31062
G1 X118.15 Y92.3 E32.7102
G1 X111.85 Y92.3 E32.91974
G1 X111.85 Y80.287 E33.3193
G1 X112.753 Y80.286 E33.34933
G1 X113.812 Y81.345 E33.39914
G1 X114.075 Y81.551 E33.41025
G1 X114.379 Y81.69 E33.42137
G1 X114.802 Y81.755 E33.4356
G0 F6000 X114.585 Y81.331
G1 F1200 X114.802 Y81.355 E33.44287
G1 X115.201 Y81.355 E33.45614
G1 X115.48 Y81.315 E33.46551
G1 X115.737 Y81.199 E33.47489
G1 X115.909 Y81.061 E33.48222
G1 X117.081 Y79.887 E33.5374
G1 X118.55 Y79.886 E33.58626
G1 X118.55 Y92.7 E34.01245
G1 X111.45 Y92.7 E34.2486
G1 X111.45 Y79.887 E34.67476
G1 X112.919 Y79.886 E34.72362
G1 X114.095 Y81.062 E34.77894
G1 X114.321 Y81.231 E34.78832
G1 X114.585 Y81.331 E34.79771
G0 F6000 X114.802 Y80.955
G1 F1200 X115.201 Y80.955 E34.81098
G1 X115.416 Y80.915 E34.81826
G1 X115.626 Y80.779 E34.82658
G1 X116.915 Y79.487 E34.88728
G1 X118.95 Y79.486 E34.95496
G1 X118.95 Y93.1 E35.40777
G1 X111.05 Y93.1 E35.67052
G1 X111.05 Y79.487 E36.12329
G1 X113.085 Y79.486 E36.19098
G1 X114.378 Y80.779 E36.2518
G1 X114.557 Y80.903 E36.25904
G1 X114.802 Y80.955 E36.26737
G0 F6000 X114.802 Y80.555
G1 F1200 X115.201 Y80.555 E36.28064
G1 X115.343 Y80.496 E36.28575
G1 X116.749 Y79.087 E36.35196
G1 X119.35 Y79.086 E36.43847
G1 X119.35 Y93.5 E36.91788
G1 X110.65 Y93.5 E37.20724
G1 X110.65 Y79.141 E37.68482
G1 X110.704 Y79.087 E37.68736
G1 X113.251 Y79.086 E37.77208
G1 X114.661 Y80.496 E37.8384
G1 X114.802 Y80.555 E37.84348
G1 F2700 E32.84348
G0 F6000 X114.65 Y83.69
G0 X114.65 Y84.555
;TYPE:SUPPORT
G1 F2700 E37.84348
G1 F1200 X115.35 Y84.555 E37.86677
G1 X115.35 Y89.5 E38.03124
G1 X114.65 Y89.5 E38.05452
G1 X114.65 Y84.555 E38.21899
G0 F6000 X114.73 Y86
G1 F1200 X115.27 Y86 E38.23695
G0 F6000 X115.27 Y88
G1 F1200 X114.73 Y88 E38.25491
G1 F2700 E33.25491
;MESH:BUM_PHONE_MOUNT_6001_bottom_v3_gopro.STL
G0 F6000 X113.785 Y88
G0 X113.797 Y90.353
G0 X134.157 Y93.839
G0 X134.661 Y94.343
G0 X134.665 Y126.858
G0 X123.178 Y126.858
G0 X120.971 Y126.903
G0 X120.632 Y127.111
G0 X120.489 Y127.446
G0 X120.575 Y127.836
G0 X120.889 Y128.121
G0 X121.001 Y128.147
G0 X125.08 Y128.647
;TYPE:WALL-INNER
G1 F2700 E38.25491
G1 F1200 X124.928 Y128.829 E38.2628
G1 X124.728 Y129.017 E38.27193
G1 X124.714 Y129.029 E38.27254
G1 X123.84 Y129.754 E38.31031
G1 X123.623 Y129.887 E38.31878
G1 X123.212 Y130.11 E38.33433
G1 X123.04 Y130.154 E38.34023
G1 X122.913 Y130.202 E38.34475
G1 X122.74 Y130.302 E38.35139
G1 X122.628 Y130.388 E38.35609
G1 X122.496 Y130.514 E38.36216
G1 X122.41 Y130.621 E38.36673
G1 X122.331 Y130.753 E38.37184
G1 X122.267 Y130.936 E38.37829
G1 X122.249 Y131.161 E38.3858
G1 X122.28 Y131.353 E38.39227
G1 X122.347 Y131.534 E38.39869
G1 X122.447 Y131.688 E38.40479
G1 X122.556 Y131.809 E38.41021
G1 X122.722 Y131.933 E38.4171
G1 X122.952 Y132.022 E38.4253
G1 X123.113 Y132.041 E38.4307
G1 X123.265 Y132.041 E38.43575
G1 X123.41 Y132.009 E38.44069
G1 X123.54 Y131.965 E38.44526
G1 X123.662 Y131.903 E38.44981
