;FLAVOR:Marlin
;TIME:4277
;Filament used: 2.74002m
;Layer height: 0.2
;MINX:88.468
;MINY:103.45
;MINZ:0.2
;MAXX:150.74
;MAXY:158.306
;MAXZ:29.4
;Generated with Cura_SteamEngine 4.6.1
M140 S50
M105
M190 S50
M104 S200
M105
M109 S200
M82 ;absolute extrusion mode
; Ender 3 Custom Start G-code
G92 E0 ; Reset Extruder
G28 ; Home all axes
G1 Z2.0 F3000 ; Move Z Axis up little to prevent scratching of Heat Bed
G1 X0.1 Y20 Z0.3 F5000.0 ; Move to start position
G1 X0.1 Y200.0 Z0.3 F1500.0 E15 ; Draw the first line
G1 X0.4 Y200.0 Z0.3 F5000.0 ; Move to side a little
G1 X0.4 Y20 Z0.3 F1500.0 E30 ; Draw the second line
G92 E0 ; Reset Extruder
G1 Z2.0 F3000 ; Move Z Axis up little to prevent scratching of Heat Bed
G1 X5 Y20 Z0.3 F5000.0 ; Move over to prevent blob squish
G92 E0
G92 E0
G1 F2700 E-5
;LAYER_COUNT:147
;LAYER:0
M107
G0 F6000 X118.232 Y104.26 Z0.2
;TYPE:SKIRT
G1 F2700 E0
G1 F1200 X121.539 Y104.253 E0.10999
G1 X123.672 Y104.252 E0.18094
G1 X124.373 Y104.262 E0.20425
G1 X125.275 Y104.315 E0.23431
G1 X126.168 Y104.447 E0.26433
G1 X127.047 Y104.658 E0.2944
G1 X127.903 Y104.946 E0.32443
G1 X128.73 Y105.308 E0.35446
G1 X129.522 Y105.742 E0.3845
G1 X130.272 Y106.245 E0.41453
G1 X130.975 Y106.812 E0.44457
G1 X131.625 Y107.438 E0.47459
G1 X132.218 Y108.12 E0.50465
G1 X132.83 Y108.98 E0.53975
G1 X133.098 Y109.401 E0.55635
G1 X134.535 Y111.586 E0.64333
G1 X136.009 Y113.695 E0.72891
G1 X137.517 Y115.729 E0.81313
G1 X139.067 Y117.7 E0.89653
G1 X140.702 Y119.661 E0.98145
G1 X142.396 Y121.58 E1.06658
G1 X144.13 Y123.437 E1.15109
G1 X145.446 Y124.781 E1.21365
G1 X146.591 Y125.927 E1.26753
G1 X147.058 Y126.408 E1.28983
G1 X147.658 Y127.083 E1.31987
G1 X148.196 Y127.809 E1.34992
G1 X148.667 Y128.579 E1.37994
G1 X149.069 Y129.388 E1.40999
G1 X149.397 Y130.229 E1.44001
G1 X149.65 Y131.096 E1.47005
G1 X149.824 Y131.982 E1.50009
G1 X149.92 Y132.88 E1.53012
G1 X149.936 Y133.783 E1.56016
G1 X149.873 Y134.684 E1.5902
G1 X149.729 Y135.576 E1.62025
G1 X149.508 Y136.451 E1.65027
G1 X149.209 Y137.304 E1.68033
G1 X148.837 Y138.126 E1.71034
G1 X148.393 Y138.913 E1.7404
G1 X147.882 Y139.657 E1.77042
G1 X147.182 Y140.488 E1.80656
G1 X146.973 Y140.711 E1.81672
G1 X146.743 Y140.948 E1.82771
G1 X133.564 Y154.127 E2.44761
G1 X133.08 Y154.598 E2.47007
G1 X132.405 Y155.199 E2.50013
G1 X131.68 Y155.737 E2.53015
G1 X130.91 Y156.209 E2.56019
G1 X130.102 Y156.612 E2.59023
G1 X129.261 Y156.941 E2.62026
G1 X128.394 Y157.195 E2.65031
G1 X127.508 Y157.371 E2.68035
G1 X126.29 Y157.483 E2.72104
G1 X125.723 Y157.501 E2.7399
G1 X125.399 Y157.506 E2.75068
G1 X113.809 Y157.505 E3.13617
G1 X113.111 Y157.495 E3.15938
G1 X112.209 Y157.442 E3.18944
G1 X111.316 Y157.31 E3.21946
G1 X110.438 Y157.099 E3.24949
G1 X109.582 Y156.811 E3.27953
G1 X108.755 Y156.449 E3.30956
G1 X107.963 Y156.014 E3.33961
G1 X107.212 Y155.512 E3.36966
G1 X106.221 Y154.681 E3.41267
G1 X105.643 Y154.126 E3.43933
G1 X92.664 Y141.146 E4.04984
G1 X92.158 Y140.626 E4.07397
G1 X91.557 Y139.952 E4.10401
G1 X91.019 Y139.227 E4.13404
G1 X90.546 Y138.457 E4.16409
G1 X90.144 Y137.649 E4.19411
G1 X89.815 Y136.808 E4.22415
G1 X89.561 Y135.941 E4.25419
G1 X89.385 Y135.055 E4.28424
G1 X89.288 Y134.157 E4.31428
G1 X89.271 Y133.254 E4.34432
G1 X89.334 Y132.353 E4.37436
G1 X89.476 Y131.462 E4.40437
G1 X89.697 Y130.586 E4.43442
G1 X89.994 Y129.733 E4.46446
G1 X90.366 Y128.91 E4.4945
G1 X90.809 Y128.123 E4.52454
G1 X91.319 Y127.378 E4.55456
G1 X92.029 Y126.535 E4.59122
G1 X92.485 Y126.056 E4.61322
G1 X94.174 Y124.368 E4.69264
G1 X96.016 Y122.473 E4.78054
G1 X97.725 Y120.612 E4.86457
G1 X99.392 Y118.69 E4.9492
G1 X101.008 Y116.719 E5.03397
G1 X102.551 Y114.723 E5.11788
G1 X104.043 Y112.675 E5.20216
G1 X105.904 Y109.942 E5.31213
G1 X106.61 Y108.866 E5.35493
G1 X107.138 Y108.133 E5.38498
G1 X107.729 Y107.45 E5.41502
G1 X108.378 Y106.822 E5.44506
G1 X109.08 Y106.254 E5.47509
G1 X109.83 Y105.751 E5.50513
G1 X110.621 Y105.315 E5.53517
G1 X111.448 Y104.951 E5.56522
G1 X112.303 Y104.662 E5.59524
G1 X113.181 Y104.45 E5.62528
G1 X114.074 Y104.316 E5.65531
G1 X114.813 Y104.265 E5.67995
G1 X115.126 Y104.255 E5.69037
G1 X115.447 Y104.25 E5.70104
G1 X117.533 Y104.25 E5.77042
G1 X118.232 Y104.26 E5.79368
G0 F6000 X118.237 Y103.86
G1 F1200 X121.538 Y103.853 E5.90347
G1 X123.678 Y103.852 E5.97464
G1 X124.379 Y103.862 E5.99796
G1 X125.298 Y103.915 E6.02858
G1 X126.209 Y104.048 E6.0592
G1 X127.105 Y104.259 E6.08982
G1 X127.98 Y104.547 E6.12045
G1 X128.826 Y104.91 E6.15107
G1 X129.637 Y105.345 E6.18168
G1 X130.408 Y105.849 E6.21232
G1 X131.132 Y106.418 E6.24295
G1 X131.804 Y107.047 E6.27356
G1 X132.419 Y107.732 E6.30418
G1 X133.168 Y108.765 E6.34662
G1 X133.478 Y109.252 E6.36582
G1 X134.869 Y111.367 E6.45001
G1 X136.313 Y113.433 E6.53385
G1 X137.82 Y115.466 E6.61802
G1 X139.39 Y117.463 E6.70251
G1 X141.008 Y119.403 E6.78653
G1 X142.687 Y121.306 E6.87094
G1 X144.425 Y123.167 E6.95563
G1 X145.732 Y124.501 E7.01775
G1 X146.878 Y125.648 E7.07167
G1 X147.345 Y126.129 E7.09397
G1 X147.957 Y126.817 E7.1246
G1 X148.507 Y127.555 E7.15521
G1 X148.991 Y128.338 E7.18583
G1 X149.405 Y129.161 E7.21647
G1 X149.746 Y130.016 E7.24708
G1 X150.012 Y130.897 E7.27769
G1 X150.2 Y131.798 E7.3083
G1 X150.31 Y132.713 E7.33896
G1 X150.339 Y133.633 E7.36957
G1 X150.289 Y134.552 E7.40018
G1 X150.159 Y135.463 E7.43079
G1 X149.95 Y136.36 E7.46142
G1 X149.665 Y137.235 E7.49203
G1 X149.304 Y138.083 E7.52268
G1 X148.872 Y138.895 E7.55328
G1 X148.37 Y139.667 E7.5839
G1 X147.804 Y140.393 E7.61452
G1 X147.474 Y140.762 E7.63099
G1 X147.265 Y140.985 E7.64115
G1 X147.026 Y141.231 E7.65256
G1 X133.843 Y154.414 E8.27265
G1 X133.359 Y154.885 E8.29511
G1 X132.672 Y155.497 E8.32571
G1 X131.934 Y156.048 E8.35634
G1 X131.151 Y156.533 E8.38698
G1 X130.329 Y156.948 E8.4176
G1 X129.475 Y157.29 E8.4482
G1 X128.594 Y157.557 E8.47882
G1 X127.693 Y157.746 E8.50944
G1 X126.779 Y157.857 E8.54006
G1 X126.302 Y157.883 E8.55595
G1 X125.735 Y157.901 E8.57482
G1 X125.399 Y157.906 E8.586
G1 X113.803 Y157.905 E8.97168
G1 X113.105 Y157.895 E8.9949
G1 X112.186 Y157.842 E9.02552
G1 X111.275 Y157.709 E9.05614
G1 X110.379 Y157.498 E9.08675
G1 X109.505 Y157.21 E9.11736
G1 X108.658 Y156.847 E9.14801
G1 X107.847 Y156.412 E9.17862
G1 X107.077 Y155.908 E9.20923
G1 X106.353 Y155.339 E9.23985
G1 X105.945 Y154.97 E9.25815
G1 X105.36 Y154.409 E9.28511
G1 X92.377 Y141.425 E9.89581
G1 X91.871 Y140.905 E9.91995
G1 X91.258 Y140.218 E9.95057
G1 X90.707 Y139.481 E9.98117
G1 X90.223 Y138.698 E10.01179
G1 X89.808 Y137.876 E10.04242
G1 X89.465 Y137.021 E10.07306
G1 X89.199 Y136.14 E10.10367
G1 X89.01 Y135.239 E10.13429
G1 X88.899 Y134.325 E10.16491
G1 X88.869 Y133.405 E10.19553
G1 X88.918 Y132.486 E10.22613
G1 X89.047 Y131.574 E10.25677
G1 X89.254 Y130.677 E10.28739
G1 X89.539 Y129.802 E10.318
G1 X89.898 Y128.954 E10.34862
G1 X90.33 Y128.141 E10.37924
G1 X90.831 Y127.368 E10.40988
G1 X91.396 Y126.642 E10.44048
G1 X91.737 Y126.261 E10.45749
G1 X91.964 Y126.019 E10.46852
G1 X92.202 Y125.774 E10.47988
G1 X93.888 Y124.089 E10.55916
G1 X95.718 Y122.206 E10.6465
G1 X97.428 Y120.345 E10.73056
G1 X99.097 Y118.42 E10.8153
G1 X100.685 Y116.484 E10.89858
G1 X102.228 Y114.488 E10.98249
G1 X103.712 Y112.45 E11.06634
G1 X105.581 Y109.706 E11.17676
G1 X106.276 Y108.646 E11.21892
G1 X106.813 Y107.899 E11.24952
G1 X107.414 Y107.201 E11.28016
G1 X108.073 Y106.558 E11.31078
G1 X108.785 Y105.975 E11.34139
G1 X109.546 Y105.456 E11.37202
G1 X110.348 Y105.004 E11.40264
G1 X111.187 Y104.624 E11.43328
G1 X112.055 Y104.319 E11.46388
G1 X112.947 Y104.089 E11.49452
G1 X113.855 Y103.938 E11.52513
G1 X114.801 Y103.865 E11.55669
G1 X115.114 Y103.855 E11.5671
G1 X115.447 Y103.85 E11.57818
G1 X117.539 Y103.85 E11.64776
G1 X118.237 Y103.86 E11.67098
G0 F6000 X118.242 Y103.46
G1 F1200 X121.537 Y103.453 E11.78057
G1 X123.684 Y103.452 E11.85198
G1 X124.385 Y103.462 E11.8753
G1 X125.321 Y103.515 E11.90648
G1 X126.25 Y103.648 E11.93769
G1 X127.163 Y103.86 E11.96887
G1 X128.056 Y104.148 E12.00008
G1 X128.92 Y104.512 E12.03126
G1 X129.751 Y104.948 E12.06247
G1 X130.541 Y105.453 E12.09366
G1 X131.285 Y106.023 E12.12483
G1 X131.978 Y106.655 E12.15603
G1 X132.615 Y107.344 E12.18723
G1 X133.191 Y108.084 E12.21842
G1 X133.505 Y108.551 E12.23714
G1 X133.755 Y108.944 E12.25263
G1 X135.215 Y111.164 E12.34101
G1 X136.63 Y113.188 E12.42315
G1 X138.158 Y115.249 E12.50848
G1 X139.696 Y117.205 E12.59124
G1 X141.316 Y119.148 E12.67538
G1 X142.978 Y121.032 E12.75894
G1 X144.7 Y122.876 E12.84285
G1 X146.018 Y124.221 E12.90549
G1 X147.165 Y125.37 E12.95949
G1 X147.632 Y125.851 E12.98178
G1 X148.256 Y126.551 E13.01297
G1 X148.818 Y127.301 E13.04414
G1 X149.314 Y128.097 E13.07534
G1 X149.741 Y128.933 E13.10656
G1 X150.095 Y129.801 E13.13774
G1 X150.373 Y130.697 E13.16894
G1 X150.575 Y131.613 E13.20014
G1 X150.697 Y132.543 E13.23134
G1 X150.74 Y133.479 E13.2625
G1 X150.703 Y134.417 E13.29372
G1 X150.586 Y135.347 E13.3249
G1 X150.39 Y136.264 E13.35609
G1 X150.117 Y137.162 E13.38731
G1 X149.769 Y138.032 E13.41847
G1 X149.347 Y138.87 E13.44968
G1 X148.856 Y139.669 E13.48087
G1 X148.299 Y140.423 E13.51205
G1 X147.766 Y141.035 E13.53904
G1 X147.557 Y141.258 E13.54921
G1 X147.309 Y141.514 E13.56106
G1 X134.122 Y154.7 E14.18131
G1 X133.638 Y155.171 E14.20378
G1 X132.938 Y155.796 E14.23499
G1 X132.188 Y156.359 E14.26618
G1 X131.393 Y156.856 E14.29736
G1 X130.558 Y157.284 E14.32857
G1 X129.69 Y157.639 E14.35976
G1 X128.795 Y157.918 E14.39094
G1 X127.879 Y158.12 E14.42214
G1 X126.949 Y158.244 E14.45335
G1 X126.315 Y158.282 E14.47447
G1 X125.748 Y158.3 E14.49334
G1 X125.399 Y158.306 E14.50495
G1 X113.797 Y158.305 E14.89083
G1 X113.099 Y158.295 E14.91405
G1 X112.163 Y158.241 E14.94523
G1 X111.235 Y158.109 E14.97641
G1 X110.321 Y157.897 E15.00762
G1 X109.429 Y157.608 E15.0388
G1 X108.564 Y157.245 E15.07
G1 X107.734 Y156.809 E15.10119
G1 X106.943 Y156.304 E15.1324
G1 X106.199 Y155.733 E15.16359
G1 X105.669 Y155.26 E15.18722
G1 X105.077 Y154.691 E15.21453
G1 X92.09 Y141.704 E15.8254
G1 X91.584 Y141.184 E15.84953
G1 X90.96 Y140.485 E15.8807
G1 X90.397 Y139.735 E15.91189
G1 X89.9 Y138.939 E15.9431
G1 X89.472 Y138.105 E15.97428
G1 X89.117 Y137.236 E16.0055
G1 X88.838 Y136.341 E16.03668
G1 X88.636 Y135.425 E16.06788
G1 X88.512 Y134.496 E16.09905
G1 X88.468 Y133.559 E16.13025
G1 X88.504 Y132.622 E16.16144
G1 X88.62 Y131.691 E16.19264
G1 X88.815 Y130.774 E16.22382
G1 X89.087 Y129.876 E16.25503
G1 X89.434 Y129.005 E16.28622
G1 X89.855 Y128.167 E16.31741
G1 X90.345 Y127.367 E16.34861
G1 X90.902 Y126.612 E16.37982
G1 X91.445 Y125.987 E16.40735
G1 X91.672 Y125.745 E16.41839
G1 X91.919 Y125.491 E16.43017
G1 X93.601 Y123.81 E16.50927
G1 X95.419 Y121.939 E16.59603
G1 X97.147 Y120.058 E16.68099
G1 X98.769 Y118.188 E16.76332
G1 X100.387 Y116.214 E16.84821
G1 X101.903 Y114.253 E16.93065
G1 X103.4 Y112.198 E17.01522
G1 X105.222 Y109.523 E17.12286
G1 X105.941 Y108.427 E17.16646
G1 X106.488 Y107.665 E17.19766
G1 X107.099 Y106.953 E17.22887
G1 X107.767 Y106.295 E17.26005
G1 X108.49 Y105.697 E17.29126
G1 X109.26 Y105.163 E17.32243
G1 X110.074 Y104.696 E17.35364
G1 X110.924 Y104.3 E17.38483
G1 X111.805 Y103.978 E17.41602
G1 X112.71 Y103.732 E17.44722
G1 X113.632 Y103.564 E17.47839
G1 X114.788 Y103.466 E17.51697
G1 X115.101 Y103.456 E17.52739
G1 X115.446 Y103.45 E17.53887
G1 X117.545 Y103.45 E17.60868
G1 X118.242 Y103.46 E17.63186
G1 F2700 E12.63186
;MESH:Object 3
G0 F6000 X117.709 Y113.785
G0 X117.71 Y114.863
G0 X115.915 Y115.232
G0 X115.844 Y128.952
G0 X112.888 Y128.965
G0 X112.884 Y133.259
G0 X111.924 Y133.656
G0 X109.036 Y130.762
G0 X103.308 Y130.752
G0 X100.558 Y133.513
G0 X113.496 Y146.706
;TYPE:WALL-INNER
G1 F2700 E17.63186
G1 F1200 X100.442 Y133.653 E18.24586
G1 X100.302 Y133.513 E18.25245
G1 X100.442 Y133.373 E18.25669
G1 X103.237 Y130.578 E18.38816
G1 X109.108 Y130.588 E18.58343
G1 X111.966 Y133.447 E18.71789
G1 X112.707 Y133.141 E18.74455
G1 X112.706 Y128.982 E18.88288
G1 X112.706 Y128.783 E18.8895
G1 X112.905 Y128.783 E18.89378
G1 X115.733 Y128.783 E18.98784
G1 X115.733 Y115.05 E19.4446
G1 X117.325 Y115.049 E19.49755
G1 X117.524 Y115.049 E19.50417
G1 X117.524 Y115.248 E19.50845
G1 X117.524 Y128.783 E19.95863
G1 X121.827 Y128.783 E20.10175
G1 X121.827 Y119.131 E20.42277
G1 X121.832 Y115.053 E20.55841
G1 X123.434 Y115.051 E20.61169
G1 X123.633 Y115.051 E20.61831
G1 X123.633 Y115.25 E20.62259
G1 X123.629 Y128.584 E21.06608
G1 X123.629 Y128.783 E21.0727
G1 X123.828 Y128.783 E21.07698
G1 X126.502 Y128.783 E21.16592
G1 X126.502 Y133.141 E21.31087
G1 X127.243 Y133.447 E21.33753
G1 X130.1 Y130.588 E21.47197
G1 X135.971 Y130.578 E21.66724
G1 X138.906 Y133.513 E21.80529
G1 X125.713 Y146.706 E22.42585
G1 X113.496 Y146.706 E22.83219
G0 F6000 X113.33 Y147.106
;TYPE:WALL-OUTER
G1 F1200 X99.736 Y133.513 E23.47158
G1 X103.071 Y130.178 E23.62845
G1 X109.274 Y130.188 E23.83476
G1 X112.06 Y132.975 E23.96583
G1 X112.307 Y132.873 E23.97472
G1 X112.306 Y128.383 E24.12406
G1 X115.333 Y128.383 E24.22474
G1 X115.333 Y114.65 E24.6815
G1 X117.924 Y114.649 E24.76768
G1 X117.924 Y128.383 E25.22447
G1 X121.427 Y128.383 E25.34098
G1 X121.427 Y119.131 E25.6487
G1 X121.433 Y114.653 E25.79764
G1 X124.033 Y114.651 E25.88412
G1 X124.029 Y128.383 E26.34085
G1 X126.902 Y128.383 E26.4364
G1 X126.902 Y132.873 E26.58574
G1 X127.149 Y132.975 E26.59463
G1 X129.934 Y130.188 E26.72567
G1 X136.137 Y130.178 E26.93199
G1 X139.472 Y133.513 E27.08886
G1 X125.879 Y147.106 E27.72823
G1 X113.33 Y147.106 E28.14561
G0 F6000 X113.498 Y146.7
G0 X113.656 Y146.316
;TYPE:SKIN
G1 F1200 X100.852 Y133.513 E28.74785
G1 X103.397 Y130.968 E28.86756
G1 X108.948 Y130.978 E29.05218
G1 X111.874 Y133.907 E29.18988
G1 X113.097 Y133.402 E29.23389
G1 X113.096 Y129.173 E29.37455
G1 X116.123 Y129.173 E29.47523
G1 X116.123 Y115.44 E29.93199
G1 X117.134 Y115.439 E29.96562
G1 X117.134 Y129.173 E30.42241
G1 X122.217 Y129.173 E30.59147
G1 X122.217 Y119.131 E30.92547
G1 X122.222 Y115.443 E31.04813
G1 X123.243 Y115.441 E31.08209
G1 X123.239 Y129.173 E31.53882
G1 X126.112 Y129.173 E31.63438
G1 X126.112 Y133.402 E31.77503
G1 X127.335 Y133.907 E31.81904
G1 X130.26 Y130.978 E31.95672
G1 X135.811 Y130.968 E32.14135
G1 X138.356 Y133.513 E32.26106
G1 X125.553 Y146.316 E32.86327
G1 X113.656 Y146.316 E33.25897
G0 F6000 X113.911 Y146.155
G1 F1200 X101.172 Y133.416 E33.85817
G0 F6000 X101.455 Y133.134
G1 F1200 X114.477 Y146.155 E34.47066
G0 F6000 X115.042 Y146.155
G1 F1200 X101.738 Y132.851 E35.09644
G0 F6000 X102.021 Y132.568
G1 F1200 X115.608 Y146.155 E35.73553
G0 F6000 X116.174 Y146.155
G1 F1200 X102.304 Y132.285 E36.38793
G0 F6000 X102.587 Y132.002
G1 F1200 X116.739 Y146.155 E37.05362
G0 F6000 X117.305 Y146.155
G1 F1200 X102.869 Y131.719 E37.73265
G0 F6000 X103.152 Y131.437
G1 F1200 X117.871 Y146.155 E38.42496
G0 F6000 X118.436 Y146.155
G1 F1200 X103.435 Y131.154 E39.13056
G0 F6000 X103.975 Y131.128
G1 F1200 X119.002 Y146.155 E39.83739
G0 F6000 X119.568 Y146.155
G1 F1200 X104.542 Y131.129 E40.54416
G0 F6000 X105.109 Y131.13
G1 F1200 X120.133 Y146.155 E41.25087
G0 F6000 X120.699 Y146.155
G1 F1200 X105.675 Y131.131 E41.95755
G0 F6000 X106.242 Y131.132
G1 F1200 X121.265 Y146.155 E42.66419
G0 F6000 X121.83 Y146.155
G1 F1200 X106.809 Y131.133 E43.37075
G0 F6000 X107.376 Y131.135
G1 F1200 X122.396 Y146.155 E44.07725
G0 F6000 X122.962 Y146.155
G1 F1200 X107.942 Y131.135 E44.78374
G0 F6000 X108.509 Y131.137
G1 F1200 X123.528 Y146.155 E45.49017
G0 F6000 X124.093 Y146.155
G1 F1200 X111.976 Y134.038 E46.06011
G0 F6000 X112.376 Y133.872
G1 F1200 X124.659 Y146.155 E46.63787
G0 F6000 X125.225 Y146.155
G1 F1200 X112.776 Y133.706 E47.22343
G0 F6000 X113.176 Y133.541
G1 F1200 X125.639 Y146.004 E47.80965
G0 F6000 X125.922 Y145.721
G1 F1200 X113.255 Y133.054 E48.40547
G0 F6000 X113.255 Y132.489
G1 F1200 X126.205 Y145.438 E49.01457
G0 F6000 X126.487 Y145.155
G1 F1200 X113.255 Y131.923 E49.63697
G0 F6000 X113.255 Y131.357
G1 F1200 X126.77 Y144.872 E50.27267
G0 F6000 X127.053 Y144.589
G1 F1200 X113.255 Y130.792 E50.92166
G0 F6000 X113.255 Y130.226
G1 F1200 X127.336 Y144.307 E51.58399
G0 F6000 X127.619 Y144.024
G1 F1200 X113.255 Y129.66 E52.25963
G0 F6000 X113.493 Y129.332
