;FLAVOR:Marlin
;TIME:5645
;Filament used: 3.41762m
;Layer height: 0.2
;MINX:85.644
;MINY:91.563
;MINZ:0.2
;MAXX:144.351
;MAXY:138.354
;MAXZ:65
;Generated with Cura_SteamEngine 4.6.1
M140 S50
M105
M190 S50
M104 S200
M105
M109 S200
M82 ;absolute extrusion mode
; Ender 3 Custom Start G-code
G92 E0 ; Reset Extruder
G28 ; Home all axes
G1 Z2.0 F3000 ; Move Z Axis up little to prevent scratching of Heat Bed
G1 X0.1 Y20 Z0.3 F5000.0 ; Move to start position
G1 X0.1 Y200.0 Z0.3 F1500.0 E15 ; Draw the first line
G1 X0.4 Y200.0 Z0.3 F5000.0 ; Move to side a little
G1 X0.4 Y20 Z0.3 F1500.0 E30 ; Draw the second line
G92 E0 ; Reset Extruder
G1 Z2.0 F3000 ; Move Z Axis up little to prevent scratching of Heat Bed
G1 X5 Y20 Z0.3 F5000.0 ; Move over to prevent blob squish
G92 E0
G92 E0
G1 F2700 E-5
;LAYER_COUNT:325
;LAYER:0
M107
G0 F6000 X131.092 Y92.383 Z0.2
;TYPE:SKIRT
G1 F2700 E0
G1 F1200 X131.993 Y92.435 E0.03002
G1 X132.887 Y92.567 E0.06007
G1 X133.642 Y92.743 E0.08586
G1 X134.019 Y92.846 E0.09886
G1 X134.879 Y93.122 E0.1289
G1 X135.711 Y93.473 E0.15893
G1 X136.509 Y93.897 E0.18899
G1 X137.53 Y94.585 E0.22994
G1 X137.709 Y94.722 E0.23743
G1 X138.402 Y95.302 E0.26749
G1 X139.04 Y95.941 E0.29752
G1 X139.619 Y96.634 E0.32756
G1 X140.134 Y97.376 E0.3576
G1 X140.582 Y98.16 E0.38763
G1 X140.985 Y99.045 E0.41998
G1 X141.099 Y99.331 E0.43022
G1 X141.458 Y100.402 E0.46779
G1 X141.655 Y101.118 E0.49249
G1 X142.153 Y103.018 E0.55781
G1 X142.293 Y103.629 E0.57866
G1 X142.536 Y104.862 E0.62046
G1 X142.926 Y106.704 E0.68308
G1 X143.207 Y108.108 E0.73071
G1 X143.345 Y109.001 E0.76076
G1 X143.4 Y109.8 E0.7874
G1 X143.415 Y110.614 E0.81448
G1 X143.413 Y116.351 E1.00529
G1 X143.387 Y118.113 E1.0639
G1 X143.367 Y118.81 E1.08709
G1 X143.363 Y121.309 E1.17021
G1 X143.48 Y124.934 E1.29084
G1 X143.543 Y126.154 E1.33147
G1 X143.55 Y127.057 E1.36151
G1 X143.477 Y127.958 E1.39157
G1 X143.324 Y128.848 E1.42161
G1 X142.973 Y130.081 E1.46425
G1 X142.852 Y130.423 E1.47631
G1 X142.513 Y131.26 E1.50635
G1 X142.102 Y132.064 E1.53638
G1 X141.621 Y132.829 E1.56644
G1 X141.075 Y133.548 E1.59647
G1 X140.529 Y134.152 E1.62355
G1 X140.31 Y134.376 E1.63397
G1 X139.651 Y134.993 E1.66399
G1 X138.94 Y135.549 E1.69401
G1 X138.182 Y136.041 E1.72407
G1 X137.384 Y136.463 E1.75409
G1 X136.627 Y136.785 E1.78145
G1 X136.368 Y136.883 E1.79066
G1 X135.51 Y137.165 E1.8207
G1 X134.63 Y137.37 E1.85076
G1 X133.736 Y137.496 E1.88078
G1 X132.531 Y137.54 E1.92089
G1 X131.948 Y137.527 E1.94028
G1 X131.437 Y137.503 E1.9573
G1 X129.741 Y137.38 E2.01386
G1 X127.205 Y137.268 E2.09829
G1 X124.413 Y137.225 E2.19116
G1 X105.64 Y137.22 E2.81555
G1 X103.032 Y137.256 E2.9023
G1 X100.475 Y137.364 E2.98743
G1 X98.794 Y137.475 E3.04346
G1 X98.115 Y137.526 E3.0661
G1 X97.212 Y137.554 E3.09615
G1 X96.31 Y137.502 E3.1262
G1 X95.442 Y137.376 E3.15538
G1 X95.242 Y137.338 E3.16215
G1 X94.363 Y137.13 E3.19219
G1 X93.506 Y136.845 E3.22223
G1 X92.547 Y136.421 E3.2571
G1 X92.353 Y136.323 E3.26433
G1 X91.566 Y135.881 E3.29435
G1 X90.821 Y135.37 E3.3244
G1 X90.124 Y134.796 E3.35443
G1 X89.719 Y134.411 E3.37302
G1 X89.541 Y134.232 E3.38141
G1 X88.934 Y133.564 E3.41143
G1 X88.387 Y132.845 E3.44148
G1 X87.907 Y132.081 E3.47149
G1 X87.495 Y131.277 E3.50154
G1 X87.211 Y130.589 E3.5263
G1 X87.08 Y130.236 E3.53882
G1 X86.804 Y129.376 E3.56886
G1 X86.605 Y128.495 E3.5989
G1 X86.484 Y127.6 E3.62894
G1 X86.443 Y126.698 E3.65897
G1 X86.454 Y126.213 E3.67511
G1 X86.535 Y124.604 E3.72869
G1 X86.625 Y122.046 E3.81382
G1 X86.644 Y119.497 E3.8986
G1 X86.585 Y116.477 E3.99907
G1 X86.586 Y114.893 E4.05175
G1 X86.604 Y113.899 E4.08482
G1 X86.634 Y113.216 E4.10756
G1 X86.725 Y111.594 E4.16159
G1 X86.748 Y110.805 E4.18784
G1 X86.793 Y109.714 E4.22416
G1 X86.87 Y108.814 E4.2542
G1 X86.998 Y108.058 E4.27971
G1 X87.169 Y107.245 E4.30734
G1 X87.468 Y105.942 E4.3518
G1 X88.056 Y102.968 E4.45263
G1 X88.287 Y101.644 E4.49734
G1 X88.392 Y101.091 E4.51606
G1 X88.6 Y100.212 E4.5461
G1 X88.875 Y99.378 E4.57531
G1 X88.933 Y99.225 E4.58075
G1 X89.291 Y98.396 E4.61078
G1 X89.72 Y97.601 E4.64083
G1 X90.217 Y96.848 E4.67084
G1 X90.78 Y96.141 E4.7009
G1 X91.403 Y95.487 E4.73094
G1 X92.145 Y94.84 E4.76368
G1 X92.317 Y94.704 E4.77098
G1 X93.049 Y94.176 E4.801
G1 X93.825 Y93.714 E4.83103
G1 X94.64 Y93.323 E4.8611
G1 X95.339 Y93.055 E4.886
G1 X95.669 Y92.942 E4.8976
G1 X96.535 Y92.688 E4.92762
G1 X97.421 Y92.511 E4.95767
G1 X98.081 Y92.431 E4.97978
G1 X98.286 Y92.413 E4.98662
G1 X99 Y92.376 E5.0104
G1 X99.812 Y92.363 E5.03741
G1 X130.291 Y92.373 E6.05115
G1 X131.092 Y92.383 E6.07779
G0 F6000 X131.097 Y91.983
G1 F1200 X132.016 Y92.035 E6.10841
G1 X132.928 Y92.167 E6.13906
G1 X133.748 Y92.357 E6.16705
G1 X134.125 Y92.46 E6.18005
G1 X135.001 Y92.741 E6.21065
G1 X135.85 Y93.097 E6.24127
G1 X136.665 Y93.525 E6.27189
G1 X137.773 Y94.267 E6.31624
G1 X137.952 Y94.404 E6.32374
G1 X138.659 Y94.995 E6.35439
G1 X139.311 Y95.645 E6.38501
G1 X139.904 Y96.349 E6.41562
G1 X140.434 Y97.102 E6.44625
G1 X140.897 Y97.898 E6.47688
G1 X141.357 Y98.897 E6.51346
G1 X141.471 Y99.183 E6.5237
G1 X141.844 Y100.296 E6.56274
G1 X142.042 Y101.016 E6.58757
G1 X142.54 Y102.916 E6.6529
G1 X142.685 Y103.552 E6.6746
G1 X142.908 Y104.683 E6.71294
G1 X143.318 Y106.626 E6.77899
G1 X143.599 Y108.03 E6.82661
G1 X143.74 Y108.939 E6.85721
G1 X143.8 Y109.788 E6.88552
G1 X143.815 Y110.614 E6.91299
G1 X143.813 Y116.356 E7.10397
G1 X143.787 Y118.124 E7.16278
G1 X143.767 Y118.822 E7.18601
G1 X143.763 Y121.326 E7.26929
G1 X143.875 Y124.806 E7.3851
G1 X143.943 Y126.134 E7.42932
G1 X143.95 Y127.054 E7.45992
G1 X143.878 Y127.972 E7.49055
G1 X143.726 Y128.88 E7.52117
G1 X143.496 Y129.772 E7.55181
G1 X143.35 Y130.215 E7.56732
G1 X143.229 Y130.557 E7.57939
G1 X142.885 Y131.41 E7.60998
G1 X142.467 Y132.231 E7.64062
G1 X141.98 Y133.012 E7.67124
G1 X141.427 Y133.749 E7.70188
G1 X140.815 Y134.431 E7.73236
G1 X140.596 Y134.655 E7.74278
G1 X139.925 Y135.285 E7.77339
G1 X139.201 Y135.854 E7.80402
G1 X138.431 Y136.358 E7.83463
G1 X137.62 Y136.794 E7.86525
G1 X136.768 Y137.159 E7.89608
G1 X136.509 Y137.257 E7.90529
G1 X135.635 Y137.545 E7.9359
G1 X134.739 Y137.756 E7.96651
G1 X133.828 Y137.889 E7.99713
G1 X132.522 Y137.94 E8.04061
G1 X131.939 Y137.927 E8.06
G1 X131.408 Y137.902 E8.07768
G1 X129.729 Y137.78 E8.13367
G1 X127.182 Y137.668 E8.21847
G1 X124.406 Y137.625 E8.31081
G1 X105.645 Y137.62 E8.9348
G1 X103.055 Y137.656 E9.02095
G1 X100.478 Y137.764 E9.10674
G1 X98.845 Y137.872 E9.16117
G1 X98.145 Y137.925 E9.18452
G1 X97.225 Y137.954 E9.21514
G1 X96.305 Y137.904 E9.24578
G1 X95.367 Y137.769 E9.2773
G1 X95.167 Y137.731 E9.28407
G1 X94.271 Y137.52 E9.31469
G1 X93.397 Y137.232 E9.3453
G1 X92.367 Y136.778 E9.38273
G1 X92.173 Y136.68 E9.38996
G1 X91.37 Y136.23 E9.42058
G1 X90.609 Y135.712 E9.4512
G1 X89.896 Y135.129 E9.48183
G1 X89.436 Y134.693 E9.50291
G1 X89.258 Y134.514 E9.51131
G1 X88.637 Y133.834 E9.54193
G1 X88.079 Y133.102 E9.57255
G1 X87.585 Y132.325 E9.60317
G1 X87.161 Y131.508 E9.63379
G1 X86.836 Y130.728 E9.66189
G1 X86.705 Y130.375 E9.67441
G1 X86.423 Y129.499 E9.70502
G1 X86.217 Y128.601 E9.73567
G1 X86.091 Y127.689 E9.76629
G1 X86.043 Y126.77 E9.7969
G1 X86.054 Y126.194 E9.81606
G1 X86.136 Y124.565 E9.87031
G1 X86.225 Y122.065 E9.95351
G1 X86.244 Y119.502 E10.03876
G1 X86.185 Y116.477 E10.13939
G1 X86.186 Y114.887 E10.19227
G1 X86.205 Y113.882 E10.2257
G1 X86.235 Y113.193 E10.24864
G1 X86.325 Y111.594 E10.30191
G1 X86.348 Y110.788 E10.32873
G1 X86.393 Y109.697 E10.36505
G1 X86.471 Y108.78 E10.39566
G1 X86.606 Y107.976 E10.42277
G1 X86.779 Y107.155 E10.45068
G1 X87.081 Y105.84 E10.49555
G1 X87.662 Y102.901 E10.5952
G1 X87.894 Y101.57 E10.64013
G1 X87.999 Y101.017 E10.65885
G1 X88.21 Y100.12 E10.6895
G1 X88.501 Y99.237 E10.72043
G1 X88.559 Y99.084 E10.72587
G1 X88.923 Y98.238 E10.7565
G1 X89.358 Y97.427 E10.78711
G1 X89.862 Y96.656 E10.81775
G1 X90.431 Y95.933 E10.84835
G1 X91.061 Y95.261 E10.87898
G1 X91.897 Y94.526 E10.91601
G1 X92.069 Y94.39 E10.9233
G1 X92.815 Y93.851 E10.95391
G1 X93.605 Y93.379 E10.98452
G1 X94.433 Y92.977 E11.01513
G1 X95.209 Y92.677 E11.0428
G1 X95.539 Y92.564 E11.05441
G1 X96.422 Y92.303 E11.08503
G1 X97.325 Y92.121 E11.11567
G1 X98.046 Y92.033 E11.13983
G1 X98.251 Y92.015 E11.14667
G1 X98.993 Y91.976 E11.17138
G1 X99.812 Y91.963 E11.19863
G1 X130.291 Y91.973 E12.21236
G1 X131.097 Y91.983 E12.23917
G0 F6000 X131.103 Y91.583
G1 F1200 X132.039 Y91.636 E12.27035
G1 X132.968 Y91.768 E12.30156
G1 X133.853 Y91.971 E12.33176
G1 X134.23 Y92.074 E12.34476
G1 X135.123 Y92.359 E12.37594
G1 X135.989 Y92.72 E12.40715
G1 X136.821 Y93.153 E12.43834
G1 X137.613 Y93.655 E12.46953
G1 X138.017 Y93.95 E12.48617
G1 X138.196 Y94.087 E12.49366
G1 X138.915 Y94.688 E12.52483
G1 X139.581 Y95.348 E12.55602
G1 X140.189 Y96.063 E12.58723
G1 X140.733 Y96.827 E12.61843
G1 X141.21 Y97.634 E12.64961
G1 X141.728 Y98.749 E12.6905
G1 X141.842 Y99.035 E12.70074
G1 X142.23 Y100.19 E12.74126
G1 X142.429 Y100.915 E12.76627
G1 X142.927 Y102.815 E12.8316
G1 X143.078 Y103.474 E12.85409
G1 X143.317 Y104.684 E12.89511
G1 X143.71 Y106.547 E12.95844
G1 X143.991 Y107.951 E13.00606
G1 X144.136 Y108.878 E13.03727
G1 X144.2 Y109.775 E13.06718
G1 X144.215 Y110.614 E13.09509
G1 X144.213 Y116.362 E13.28626
G1 X144.186 Y118.136 E13.34527
G1 X144.167 Y118.798 E13.3673
G1 X144.163 Y121.314 E13.45098
G1 X144.278 Y124.868 E13.56925
G1 X144.342 Y126.113 E13.61072
G1 X144.351 Y127.051 E13.64192
G1 X144.279 Y127.986 E13.67311
G1 X144.128 Y128.912 E13.70431
G1 X143.899 Y129.821 E13.73549
G1 X143.727 Y130.348 E13.75393
G1 X143.606 Y130.69 E13.76599
G1 X143.256 Y131.56 E13.79718
G1 X142.833 Y132.397 E13.82838
G1 X142.34 Y133.195 E13.85957
G1 X141.781 Y133.948 E13.89077
G1 X141.101 Y134.711 E13.92476
G1 X140.882 Y134.935 E13.93518
G1 X140.199 Y135.577 E13.96636
G1 X139.463 Y136.158 E13.99754
G1 X138.68 Y136.675 E14.02875
G1 X137.856 Y137.123 E14.05995
G1 X136.91 Y137.533 E14.09424
G1 X136.651 Y137.631 E14.10345
G1 X135.76 Y137.925 E14.13465
G1 X134.848 Y138.143 E14.16584
G1 X133.92 Y138.281 E14.19705
G1 X132.984 Y138.341 E14.22824
G1 X132.513 Y138.34 E14.24391
G1 X131.93 Y138.327 E14.2633
G1 X131.379 Y138.301 E14.28165
G1 X129.683 Y138.178 E14.33821
G1 X127.193 Y138.068 E14.42111
G1 X124.4 Y138.025 E14.51401
G1 X105.651 Y138.02 E15.13761
G1 X103.042 Y138.056 E15.22439
G1 X100.52 Y138.162 E15.30835
G1 X98.902 Y138.269 E15.36228
G1 X98.175 Y138.324 E15.38653
G1 X97.238 Y138.354 E15.41771
G1 X96.301 Y138.305 E15.44892
G1 X95.293 Y138.162 E15.48278
G1 X95.093 Y138.124 E15.48955
G1 X94.18 Y137.909 E15.52075
G1 X93.288 Y137.618 E15.55195
G1 X92.186 Y137.135 E15.59197
G1 X91.992 Y137.037 E15.5992
G1 X91.174 Y136.579 E15.63038
G1 X90.398 Y136.053 E15.66156
G1 X89.669 Y135.463 E15.69276
G1 X89.152 Y134.975 E15.7164
G1 X88.974 Y134.796 E15.7248
G1 X88.342 Y134.104 E15.75597
G1 X87.771 Y133.36 E15.78716
G1 X87.265 Y132.57 E15.81836
G1 X86.829 Y131.74 E15.84955
G1 X86.461 Y130.867 E15.88106
G1 X86.33 Y130.514 E15.89358
G1 X86.042 Y129.622 E15.92476
G1 X85.83 Y128.708 E15.95596
G1 X85.697 Y127.78 E15.98714
G1 X85.644 Y126.843 E16.01836
G1 X85.655 Y126.176 E16.04055
G1 X85.736 Y124.559 E16.0944
G1 X85.825 Y122.048 E16.17796
G1 X85.844 Y119.507 E16.26248
G1 X85.785 Y116.477 E16.36328
G1 X85.786 Y114.881 E16.41636
G1 X85.805 Y113.865 E16.45016
G1 X85.835 Y113.171 E16.47326
G1 X85.926 Y111.562 E16.52686
G1 X85.948 Y110.772 E16.55315
G1 X85.993 Y109.681 E16.58947
G1 X86.072 Y108.746 E16.62068
G1 X86.214 Y107.895 E16.64937
G1 X86.389 Y107.066 E16.67755
G1 X86.694 Y105.74 E16.72281
G1 X87.271 Y102.815 E16.82197
G1 X87.501 Y101.495 E16.86653
G1 X87.606 Y100.942 E16.88525
G1 X87.82 Y100.029 E16.91644
G1 X88.127 Y99.095 E16.94914
G1 X88.185 Y98.942 E16.95459
G1 X88.555 Y98.08 E16.98579
G1 X88.996 Y97.252 E17.01699
G1 X89.507 Y96.466 E17.04817
G1 X90.083 Y95.725 E17.07939
G1 X90.719 Y95.037 E17.11055
G1 X91.648 Y94.212 E17.15187
G1 X91.82 Y94.076 E17.15917
G1 X92.58 Y93.527 E17.19035
G1 X93.384 Y93.044 E17.22154
G1 X94.226 Y92.631 E17.25274
G1 X95.079 Y92.298 E17.28319
G1 X95.409 Y92.185 E17.29479
G1 X96.309 Y91.919 E17.32601
G1 X97.228 Y91.731 E17.35721
G1 X98.011 Y91.634 E17.38345
G1 X98.216 Y91.616 E17.39029
G1 X98.986 Y91.576 E17.41594
G1 X99.813 Y91.563 E17.44345
G1 X130.292 Y91.573 E18.45718
G1 X131.103 Y91.583 E18.48416
G1 F2700 E13.48416
G0 F6000 X132.257 Y102.887
G0 X132.257 Y105.54
G0 X131.967 Y105.946
G0 X118.238 Y113.51
G1 F2700 E18.48416
G1 F1200 X119.416 Y113.112 E18.52552
G1 X119.416 Y113.908 E18.55199
G1 X118.238 Y113.51 E18.59335
G0 F6000 X116.988 Y113.51
G1 F1200 X119.831 Y112.55 E18.69315
G1 X119.816 Y112.793 E18.70125
G1 X119.816 Y114.229 E18.74901
G1 X119.839 Y114.474 E18.75719
G1 X116.988 Y113.51 E18.85729
G0 F6000 X115.485 Y114.269
G1 F1200 X115.165 Y114.216 E18.86808
G1 X114.836 Y114.216 E18.87902
G1 X114.516 Y114.269 E18.88981
G1 X98.678 Y119.616 E19.4458
G1 X98.678 Y118.405 E19.48607
G1 X98.766 Y118.393 E19.48903
G1 X108.303 Y115.174 E19.82381
G1 X108.555 Y115.047 E19.8332
G1 X108.761 Y114.855 E19.84256
G1 X108.906 Y114.613 E19.85195
G1 X108.983 Y114.227 E19.86504
G1 X108.983 Y112.791 E19.9128
G1 X108.943 Y112.512 E19.92217
G1 X108.827 Y112.255 E19.93155
G1 X108.644 Y112.04 E19.94094
G1 X108.303 Y111.843 E19.95404
G1 X98.881 Y108.664 E20.28478
G1 X98.876 Y107.467 E20.32459
G1 X114.515 Y112.751 E20.87363
G1 X114.835 Y112.804 E20.88442
G1 X115.164 Y112.804 E20.89536
G1 X115.484 Y112.751 E20.90615
G1 X131.323 Y107.402 E21.46219
G1 X131.324 Y108.614 E21.5025
G1 X131.234 Y108.627 E21.50552
G1 X121.696 Y111.846 E21.84034
G1 X121.444 Y111.973 E21.84972
G1 X121.238 Y112.165 E21.85909
G1 X121.093 Y112.407 E21.86847
G1 X121.016 Y112.793 E21.88156
G1 X121.016 Y114.229 E21.92933
G1 X121.056 Y114.508 E21.9387
G1 X121.172 Y114.765 E21.94808
G1 X121.355 Y114.98 E21.95747
G1 X121.696 Y115.176 E21.97055
G1 X131.251 Y118.397 E22.30592
G1 X131.318 Y118.409 E22.30819
G1 X131.322 Y119.62 E22.34846
G1 X115.485 Y114.269 E22.90446
G0 F6000 X115.357 Y114.648
G1 F1200 X115.165 Y114.616 E22.91093
G1 X114.836 Y114.616 E22.92188
G1 X114.644 Y114.648 E22.92835
G1 X98.279 Y120.176 E23.50287
G1 X98.278 Y118.019 E23.57461
G1 X98.513 Y118.042 E23.58246
G1 X98.638 Y118.014 E23.58672
G1 X108.175 Y114.795 E23.92151
G1 X108.365 Y114.689 E23.92874
G1 X108.505 Y114.522 E23.93599
G1 X108.583 Y114.227 E23.94614
G1 X108.583 Y112.791 E23.9939
G1 X108.543 Y112.576 E24.00118
G1 X108.43 Y112.39 E24.00841
G1 X108.175 Y112.222 E24.01857
G1 X98.632 Y109.002 E24.35355
G1 X98.482 Y108.981 E24.35859
G1 X98.474 Y106.908 E24.42754
G1 X114.643 Y112.372 E24.9952
G1 X114.835 Y112.404 E25.00167
G1 X115.164 Y112.404 E25.01262
G1 X115.356 Y112.372 E25.01909
G1 X131.722 Y106.843 E25.59365
G1 X131.725 Y109.002 E25.66546
G1 X131.487 Y108.978 E25.67342
G1 X131.362 Y109.006 E25.67768
G1 X121.824 Y112.225 E26.01249
G1 X121.634 Y112.331 E26.01973
G1 X121.494 Y112.498 E26.02698
G1 X121.416 Y112.793 E26.03712
G1 X121.416 Y114.229 E26.08489
G1 X121.456 Y114.444 E26.09216
G1 X121.569 Y114.63 E26.0994
G1 X121.824 Y114.797 E26.10954
G1 X131.377 Y118.018 E26.44484
G1 X131.593 Y118.047 E26.45209
G1 X131.717 Y118.018 E26.45633
G1 X131.724 Y120.179 E26.5282
G1 X115.357 Y114.648 E27.10282
G0 F6000 X115.229 Y115.027
G1 F1200 X115.165 Y115.016 E27.10498
G1 X114.836 Y115.016 E27.11592
G1 X114.772 Y115.027 E27.11808
G1 X99.26 Y120.263 E27.66261
G1 X97.913 Y120.725 E27.70997
G1 X97.879 Y120.75 E27.71138
G1 X97.878 Y117.914 E27.8057
G1 X97.828 Y117.781 E27.81043
G1 X96.985 Y116.831 E27.85267
G1 X96.985 Y114.383 E27.93409
G1 X97.156 Y114.078 E27.94572
G1 X97.181 Y113.98 E27.94909
G1 X97.175 Y110.191 E28.07511
G1 X98.027 Y109.303 E28.11604
G1 X98.083 Y109.164 E28.12102
G1 X98.072 Y106.35 E28.21462
G1 X114.771 Y111.993 E28.80088
G1 X114.835 Y112.004 E28.80304
G1 X115.164 Y112.004 E28.81399
G1 X115.228 Y111.993 E28.81615
G1 X132.085 Y106.296 E29.40797
G1 X132.121 Y106.27 E29.40944
G1 X132.125 Y109.104 E29.5037
G1 X132.175 Y109.237 E29.50843
G1 X133.015 Y110.185 E29.55056
G1 X133.014 Y116.83 E29.77157
G1 X132.165 Y117.813 E29.81477
G1 X132.117 Y117.944 E29.81941
G1 X132.126 Y120.754 E29.91287
