;FLAVOR:Marlin
;TIME:2967
;Filament used: 1.87802m
;Layer height: 0.2
;MINX:77.327
;MINY:78.766
;MINZ:0.2
;MAXX:139.6
;MAXY:135.166
;MAXZ:20
;Generated with Cura_SteamEngine 4.6.1
M140 S55
M105
M190 S55
M104 S210
M105
M109 S210
M82 ;absolute extrusion mode
; Ender 3 Custom Start G-code
G92 E0 ; Reset Extruder
G28 ; Home all axes
G1 Z2.0 F3000 ; Move Z Axis up little to prevent scratching of Heat Bed
G1 X0.1 Y20 Z0.3 F5000.0 ; Move to start position
G1 X0.1 Y200.0 Z0.3 F1500.0 E15 ; Draw the first line
G1 X0.4 Y200.0 Z0.3 F5000.0 ; Move to side a little
G1 X0.4 Y20 Z0.3 F1500.0 E30 ; Draw the second line
G92 E0 ; Reset Extruder
G1 Z2.0 F3000 ; Move Z Axis up little to prevent scratching of Heat Bed
G1 X5 Y20 Z0.3 F5000.0 ; Move over to prevent blob squish
G92 E0
G92 E0
G1 F2700 E-5
;LAYER_COUNT:100
;LAYER:0
M107
G0 F6000 X104.702 Y79.581 Z0.2
;TYPE:SKIRT
G1 F2700 E0
G1 F1200 X107.252 Y79.654 E0.08485
G1 X110.76 Y79.638 E0.20153
G1 X113.539 Y79.575 E0.29398
G1 X115.377 Y79.57 E0.35511
G1 X116.076 Y79.578 E0.37836
G1 X116.977 Y79.628 E0.40838
G1 X117.871 Y79.758 E0.43842
G1 X118.75 Y79.966 E0.46847
G1 X119.607 Y80.252 E0.49852
G1 X120.435 Y80.612 E0.52855
G1 X121.228 Y81.043 E0.55856
G1 X121.98 Y81.544 E0.58862
G1 X122.685 Y82.109 E0.61867
G1 X123.337 Y82.734 E0.64871
G1 X123.931 Y83.414 E0.67874
G1 X124.462 Y84.144 E0.70876
G1 X124.927 Y84.918 E0.73879
G1 X125.171 Y85.397 E0.75667
G1 X126.274 Y87.716 E0.84208
G1 X127.438 Y90.003 E0.92744
G1 X128.632 Y92.193 E1.0104
G1 X129.926 Y94.412 E1.09583
G1 X131.269 Y96.574 E1.18049
G1 X132.667 Y98.688 E1.26478
G1 X134.122 Y100.759 E1.34896
G1 X135.881 Y103.11 E1.44662
G1 X136.672 Y104.133 E1.48963
G1 X137.193 Y104.871 E1.51968
G1 X137.646 Y105.653 E1.54974
G1 X138.028 Y106.471 E1.57976
G1 X138.336 Y107.32 E1.6098
G1 X138.567 Y108.193 E1.63984
G1 X138.721 Y109.083 E1.66988
G1 X138.796 Y109.983 E1.69992
G1 X138.79 Y110.886 E1.72995
G1 X138.705 Y111.785 E1.75999
G1 X138.54 Y112.673 E1.79003
G1 X138.298 Y113.543 E1.82006
G1 X137.979 Y114.388 E1.8501
G1 X137.587 Y115.202 E1.88015
G1 X137.125 Y115.977 E1.91016
G1 X136.596 Y116.709 E1.9402
G1 X136.155 Y117.228 E1.96285
G1 X135.948 Y117.456 E1.9731
G1 X135.608 Y117.812 E1.98947
G1 X122.433 Y130.987 E2.60918
G1 X121.949 Y131.458 E2.63164
G1 X121.274 Y132.059 E2.6617
G1 X120.549 Y132.597 E2.69173
G1 X119.779 Y133.069 E2.72177
G1 X118.971 Y133.472 E2.7518
G1 X118.13 Y133.801 E2.78184
G1 X117.263 Y134.055 E2.81188
G1 X116.377 Y134.231 E2.84193
G1 X115.159 Y134.343 E2.88261
G1 X114.592 Y134.361 E2.90148
G1 X114.268 Y134.366 E2.91226
G1 X102.664 Y134.365 E3.29821
G1 X101.966 Y134.355 E3.32142
G1 X101.064 Y134.302 E3.35148
G1 X100.171 Y134.17 E3.3815
G1 X99.293 Y133.959 E3.41154
G1 X98.437 Y133.671 E3.44157
G1 X97.61 Y133.309 E3.4716
G1 X96.818 Y132.874 E3.50165
G1 X96.067 Y132.372 E3.5317
G1 X95.272 Y131.723 E3.56583
G1 X95.116 Y131.582 E3.57283
G1 X94.818 Y131.301 E3.58645
G1 X94.621 Y131.108 E3.59562
G1 X81.484 Y117.971 E4.21355
G1 X81.016 Y117.49 E4.23587
G1 X80.416 Y116.815 E4.26591
G1 X79.877 Y116.09 E4.29595
G1 X79.405 Y115.321 E4.32596
G1 X79.003 Y114.512 E4.35601
G1 X78.674 Y113.671 E4.38605
G1 X78.42 Y112.804 E4.41609
G1 X78.244 Y111.919 E4.44611
G1 X78.147 Y111.021 E4.47615
G1 X78.13 Y110.118 E4.50619
G1 X78.193 Y109.217 E4.53623
G1 X78.336 Y108.325 E4.56627
G1 X78.556 Y107.449 E4.59631
G1 X78.853 Y106.597 E4.62632
G1 X79.225 Y105.773 E4.65639
G1 X79.668 Y104.986 E4.68643
G1 X80.252 Y104.146 E4.72046
G1 X81.897 Y102.014 E4.81002
G1 X83.407 Y99.938 E4.89541
G1 X84.827 Y97.865 E4.97898
G1 X86.218 Y95.707 E5.06437
G1 X87.518 Y93.558 E5.14791
G1 X88.79 Y91.314 E5.2337
G1 X89.959 Y89.108 E5.31674
G1 X91.389 Y86.193 E5.42473
G1 X91.743 Y85.439 E5.45243
G1 X92.163 Y84.639 E5.48249
G1 X92.652 Y83.88 E5.51252
G1 X93.206 Y83.167 E5.54255
G1 X93.821 Y82.505 E5.5726
G1 X94.492 Y81.901 E5.60263
G1 X95.214 Y81.359 E5.63266
G1 X95.981 Y80.882 E5.6627
G1 X96.788 Y80.475 E5.69276
G1 X97.627 Y80.141 E5.72279
G1 X98.492 Y79.883 E5.75282
G1 X99.377 Y79.702 E5.78286
G1 X100.655 Y79.581 E5.82556
G1 X100.974 Y79.571 E5.83617
G1 X101.298 Y79.566 E5.84695
G1 X103.695 Y79.567 E5.92668
G1 X104.702 Y79.581 E5.96017
G0 F6000 X104.713 Y79.181
G1 F1200 X107.261 Y79.254 E6.04495
G1 X110.749 Y79.238 E6.16097
G1 X113.537 Y79.175 E6.25372
G1 X115.381 Y79.17 E6.31505
G1 X116.08 Y79.178 E6.3383
G1 X117 Y79.228 E6.36895
G1 X117.911 Y79.358 E6.39955
G1 X118.808 Y79.567 E6.43019
G1 X119.683 Y79.853 E6.4608
G1 X120.53 Y80.213 E6.49141
G1 X121.343 Y80.646 E6.52205
G1 X122.115 Y81.148 E6.55268
G1 X122.84 Y81.714 E6.58327
G1 X123.514 Y82.342 E6.61391
G1 X124.131 Y83.025 E6.64452
G1 X124.686 Y83.76 E6.67516
G1 X125.175 Y84.54 E6.70578
G1 X125.532 Y85.225 E6.73147
G1 X126.641 Y87.557 E6.81735
G1 X127.78 Y89.794 E6.90085
G1 X128.994 Y92.02 E6.98518
G1 X130.268 Y94.206 E7.06933
G1 X131.593 Y96.339 E7.15285
G1 X133 Y98.468 E7.23773
G1 X134.453 Y100.535 E7.32176
G1 X136.137 Y102.786 E7.41526
G1 X136.989 Y103.888 E7.46159
G1 X137.52 Y104.641 E7.49224
G1 X137.984 Y105.436 E7.52285
G1 X138.377 Y106.269 E7.55349
G1 X138.696 Y107.132 E7.58409
G1 X138.939 Y108.02 E7.61471
G1 X139.104 Y108.926 E7.64534
G1 X139.19 Y109.842 E7.67594
G1 X139.196 Y110.763 E7.70657
G1 X139.122 Y111.681 E7.7372
G1 X138.969 Y112.589 E7.76783
G1 X138.737 Y113.48 E7.79845
G1 X138.429 Y114.347 E7.82906
G1 X138.047 Y115.185 E7.85969
G1 X137.594 Y115.986 E7.89029
G1 X137.073 Y116.745 E7.92091
G1 X136.451 Y117.497 E7.95337
G1 X136.244 Y117.725 E7.96361
G1 X135.891 Y118.095 E7.98062
G1 X122.712 Y131.274 E8.60052
G1 X122.228 Y131.745 E8.62298
G1 X121.541 Y132.357 E8.65359
G1 X120.803 Y132.908 E8.68422
G1 X120.02 Y133.393 E8.71485
G1 X119.198 Y133.808 E8.74548
G1 X118.344 Y134.15 E8.77608
G1 X117.463 Y134.417 E8.80669
G1 X116.562 Y134.606 E8.83731
G1 X115.648 Y134.717 E8.86794
G1 X115.171 Y134.743 E8.88383
G1 X114.604 Y134.761 E8.90269
G1 X114.268 Y134.766 E8.91387
G1 X102.658 Y134.765 E9.30002
G1 X101.96 Y134.755 E9.32324
G1 X101.041 Y134.702 E9.35386
G1 X100.13 Y134.569 E9.38448
G1 X99.234 Y134.358 E9.41509
G1 X98.36 Y134.07 E9.4457
G1 X97.513 Y133.707 E9.47635
G1 X96.702 Y133.272 E9.50696
G1 X95.932 Y132.768 E9.53757
G1 X95.004 Y132.02 E9.57721
G1 X94.848 Y131.879 E9.58421
G1 X94.538 Y131.587 E9.59837
G1 X94.341 Y131.394 E9.60754
G1 X81.198 Y118.25 E10.22577
G1 X80.73 Y117.769 E10.24809
G1 X80.117 Y117.082 E10.27872
G1 X79.566 Y116.344 E10.30935
G1 X79.081 Y115.561 E10.33998
G1 X78.666 Y114.74 E10.37058
G1 X78.324 Y113.885 E10.40121
G1 X78.058 Y113.004 E10.43182
G1 X77.868 Y112.103 E10.46244
G1 X77.758 Y111.189 E10.49306
G1 X77.728 Y110.269 E10.52368
G1 X77.777 Y109.349 E10.55432
G1 X77.906 Y108.438 E10.58492
G1 X78.114 Y107.541 E10.61555
G1 X78.398 Y106.665 E10.64618
G1 X78.758 Y105.818 E10.67679
G1 X79.189 Y105.004 E10.70742
G1 X79.935 Y103.901 E10.75171
G1 X81.602 Y101.74 E10.84249
G1 X83.07 Y99.723 E10.92546
G1 X84.494 Y97.644 E11.00927
G1 X85.866 Y95.514 E11.09354
G1 X87.186 Y93.333 E11.17833
G1 X88.431 Y91.136 E11.26232
G1 X89.61 Y88.911 E11.34607
G1 X91.025 Y86.026 E11.45295
G1 X91.381 Y85.269 E11.48077
G1 X91.808 Y84.453 E11.5114
G1 X92.305 Y83.678 E11.54203
G1 X92.867 Y82.949 E11.57264
G1 X93.49 Y82.271 E11.60327
G1 X94.169 Y81.649 E11.63389
G1 X94.9 Y81.09 E11.6645
G1 X95.677 Y80.595 E11.69514
G1 X96.493 Y80.17 E11.72574
G1 X97.344 Y79.817 E11.75639
G1 X98.221 Y79.54 E11.78698
G1 X99.12 Y79.34 E11.81761
G1 X100.033 Y79.218 E11.84824
G1 X100.643 Y79.181 E11.86857
G1 X100.962 Y79.171 E11.87918
G1 X101.298 Y79.166 E11.89036
G1 X103.695 Y79.167 E11.97009
G1 X104.713 Y79.181 E12.00395
G0 F6000 X104.725 Y78.782
G1 F1200 X107.241 Y78.854 E12.08766
G1 X110.737 Y78.838 E12.20394
G1 X113.536 Y78.775 E12.29706
G1 X115.386 Y78.77 E12.35859
G1 X116.085 Y78.778 E12.38184
G1 X117.021 Y78.828 E12.41302
G1 X117.95 Y78.959 E12.44422
G1 X118.864 Y79.168 E12.47541
G1 X119.758 Y79.454 E12.50663
G1 X120.623 Y79.815 E12.5378
G1 X121.455 Y80.248 E12.569
G1 X122.247 Y80.751 E12.6002
G1 X122.993 Y81.32 E12.63141
G1 X123.687 Y81.949 E12.66256
G1 X124.326 Y82.636 E12.69377
G1 X124.904 Y83.375 E12.72497
G1 X125.417 Y84.16 E12.75616
G1 X125.893 Y85.054 E12.78985
G1 X126.979 Y87.338 E12.87397
G1 X128.152 Y89.643 E12.95999
G1 X129.324 Y91.792 E13.0414
G1 X130.62 Y94.014 E13.12696
G1 X131.939 Y96.138 E13.21011
G1 X133.328 Y98.239 E13.29388
G1 X134.757 Y100.273 E13.37656
G1 X136.53 Y102.642 E13.47498
G1 X137.305 Y103.644 E13.51711
G1 X137.847 Y104.41 E13.54832
G1 X138.321 Y105.219 E13.57951
G1 X138.725 Y106.065 E13.61069
G1 X139.055 Y106.943 E13.64189
G1 X139.309 Y107.846 E13.67309
G1 X139.485 Y108.767 E13.70427
G1 X139.582 Y109.7 E13.73547
G1 X139.6 Y110.638 E13.76668
G1 X139.537 Y111.573 E13.79784
G1 X139.395 Y112.5 E13.82904
G1 X139.175 Y113.412 E13.86024
G1 X138.877 Y114.301 E13.89142
G1 X138.505 Y115.162 E13.92262
G1 X138.061 Y115.988 E13.95381
G1 X137.548 Y116.774 E13.98503
G1 X136.747 Y117.766 E14.02744
G1 X136.54 Y117.994 E14.03768
G1 X136.174 Y118.378 E14.05532
G1 X122.991 Y131.56 E14.67539
G1 X122.507 Y132.031 E14.69785
G1 X121.807 Y132.656 E14.72906
G1 X121.057 Y133.219 E14.76025
G1 X120.262 Y133.716 E14.79144
G1 X119.427 Y134.144 E14.82264
G1 X118.559 Y134.499 E14.85383
G1 X117.664 Y134.778 E14.88501
G1 X116.748 Y134.98 E14.91621
G1 X115.818 Y135.104 E14.94742
G1 X115.184 Y135.142 E14.96854
G1 X114.617 Y135.16 E14.98741
G1 X114.268 Y135.166 E14.99902
G1 X102.652 Y135.165 E15.38537
G1 X101.954 Y135.155 E15.40859
G1 X101.018 Y135.101 E15.43977
G1 X100.09 Y134.969 E15.47095
G1 X99.176 Y134.757 E15.50215
G1 X98.284 Y134.468 E15.53334
G1 X97.419 Y134.105 E15.56454
G1 X96.589 Y133.669 E15.59572
G1 X95.798 Y133.164 E15.62694
G1 X94.736 Y132.317 E15.67212
G1 X94.58 Y132.176 E15.67911
G1 X94.258 Y131.873 E15.69382
G1 X94.061 Y131.68 E15.70299
G1 X80.911 Y118.529 E16.32155
G1 X80.443 Y118.048 E16.34387
G1 X79.818 Y117.348 E16.37508
G1 X79.255 Y116.598 E16.40627
G1 X78.758 Y115.803 E16.43746
G1 X78.331 Y114.968 E16.46865
G1 X77.976 Y114.1 E16.49984
G1 X77.697 Y113.205 E16.53102
G1 X77.494 Y112.289 E16.56223
G1 X77.371 Y111.359 E16.59343
G1 X77.327 Y110.422 E16.62463
G1 X77.363 Y109.485 E16.65582
G1 X77.479 Y108.554 E16.68702
G1 X77.674 Y107.637 E16.7182
G1 X77.946 Y106.739 E16.74941
G1 X78.293 Y105.868 E16.78059
G1 X78.714 Y105.03 E16.81179
G1 X79.204 Y104.231 E16.84296
G1 X79.618 Y103.657 E16.8665
G1 X81.265 Y101.523 E16.95616
G1 X82.761 Y99.467 E17.04073
G1 X84.171 Y97.407 E17.12375
G1 X85.521 Y95.312 E17.20665
G1 X86.838 Y93.135 E17.29127
G1 X88.088 Y90.931 E17.37555
G1 X89.243 Y88.752 E17.45757
G1 X90.673 Y85.835 E17.56563
G1 X91.019 Y85.099 E17.59268
G1 X91.454 Y84.268 E17.62387
G1 X91.957 Y83.476 E17.65508
G1 X92.527 Y82.731 E17.68628
G1 X93.158 Y82.037 E17.71747
G1 X93.845 Y81.399 E17.74866
G1 X94.585 Y80.823 E17.77985
G1 X95.371 Y80.311 E17.81105
G1 X96.197 Y79.868 E17.84222
G1 X97.059 Y79.497 E17.87343
G1 X97.949 Y79.201 E17.90463
G1 X98.86 Y78.981 E17.9358
G1 X99.788 Y78.84 E17.96702
G1 X100.63 Y78.781 E17.99509
G1 X100.949 Y78.771 E18.00571
G1 X101.299 Y78.766 E18.01735
G1 X103.696 Y78.767 E18.09708
G1 X104.725 Y78.782 E18.1313
G1 F2700 E13.1313
;MESH:Logitech-C270-Holder.stl
G0 F6000 X104.99 Y88.08
G0 X105.02 Y94.242
G0 X104.725 Y95.315
G0 X113.349 Y95.677
G0 X113.349 Y90.558
G0 X115.185 Y90.552
G0 X115.19 Y110.114
G0 X116.15 Y110.511
G0 X119.039 Y107.616
G0 X124.763 Y107.616
G0 X127.514 Y110.378
G0 X114.582 Y123.566
;TYPE:WALL-INNER
G1 F2700 E18.1313
G1 F1200 X102.351 Y123.566 E18.53811
G1 X89.162 Y110.377 E19.15848
G1 X92.098 Y107.441 E19.29658
G1 X97.966 Y107.442 E19.49175
G1 X100.826 Y110.303 E19.6263
G1 X101.567 Y109.997 E19.65296
G1 X101.567 Y90.565 E20.29928
G1 X101.567 Y90.366 E20.30589
G1 X101.766 Y90.366 E20.31018
G1 X103.767 Y90.367 E20.37673
G1 X103.767 Y95.495 E20.54729
G1 X113.167 Y95.495 E20.85993
G1 X113.167 Y90.377 E21.03016
G1 X115.167 Y90.369 E21.09668
G1 X115.367 Y90.369 E21.10333
G1 X115.367 Y90.569 E21.10764
G1 X115.367 Y109.996 E21.75378
G1 X116.108 Y110.302 E21.78045
G1 X118.967 Y107.442 E21.91495
G1 X124.835 Y107.442 E22.11012
G1 X127.631 Y110.237 E22.24161
G1 X127.771 Y110.377 E22.2482
G1 X127.631 Y110.517 E22.25244
G1 X114.582 Y123.566 E22.86623
G0 F6000 X114.748 Y123.966
;TYPE:WALL-OUTER
G1 F1200 X102.185 Y123.966 E23.28407
G1 X88.596 Y110.377 E23.92326
G1 X91.932 Y107.041 E24.08017
G1 X98.132 Y107.042 E24.28639
G1 X100.92 Y109.831 E24.41755
G1 X101.167 Y109.729 E24.42644
G1 X101.167 Y89.966 E25.08376
G1 X104.167 Y89.967 E25.18354
G1 X104.167 Y95.095 E25.3541
G1 X112.767 Y95.095 E25.64013
G1 X112.767 Y89.978 E25.81033
G1 X115.767 Y89.968 E25.91011
G1 X115.767 Y109.728 E26.56733
G1 X116.014 Y109.83 E26.57622
G1 X118.801 Y107.042 E26.70733
G1 X125.001 Y107.042 E26.91354
G1 X128.337 Y110.377 E27.07044
G1 X114.748 Y123.966 E27.70962
G0 F6000 X114.58 Y123.56
G0 X114.422 Y123.176
;TYPE:SKIN
G1 F1200 X102.511 Y123.176 E28.10578
G1 X89.712 Y110.377 E28.70781
G1 X92.258 Y107.831 E28.82756
G1 X97.806 Y107.832 E29.01209
G1 X100.734 Y110.763 E29.14989
G1 X101.957 Y110.258 E29.19389
G1 X101.957 Y90.756 E29.84253
G1 X103.377 Y90.757 E29.88976
G1 X103.377 Y95.885 E30.06032
G1 X113.557 Y95.885 E30.39891
G1 X113.557 Y90.765 E30.5692
G1 X114.977 Y90.761 E30.61643
G1 X114.977 Y110.257 E31.26487
G1 X116.2 Y110.762 E31.30888
G1 X119.127 Y107.832 E31.44663
G1 X124.675 Y107.832 E31.63115
G1 X127.221 Y110.377 E31.75089
G1 X114.422 Y123.176 E32.35291
G0 F6000 X114.619 Y123.373
G0 X102.65 Y123.456
G0 X102.65 Y123.015
G1 F1200 X89.974 Y110.339 E32.94915
G0 F6000 X90.257 Y110.056
G1 F1200 X103.216 Y123.015 E33.5587
G0 F6000 X103.782 Y123.015
G1 F1200 X90.54 Y109.773 E34.18157
G0 F6000 X90.822 Y109.49
G1 F1200 X104.347 Y123.015 E34.81774
G0 F6000 X104.913 Y123.015
G1 F1200 X91.105 Y109.207 E35.46723
G0 F6000 X91.388 Y108.924
G1 F1200 X105.479 Y123.015 E36.13002
G0 F6000 X106.044 Y123.015
G1 F1200 X91.671 Y108.642 E36.80609
G0 F6000 X91.954 Y108.359
G1 F1200 X106.61 Y123.015 E37.49546
G0 F6000 X107.176 Y123.015
G1 F1200 X92.237 Y108.076 E38.19814
G0 F6000 X92.717 Y107.99
G1 F1200 X107.741 Y123.015 E38.90485
G0 F6000 X108.307 Y123.015
G1 F1200 X93.282 Y107.99 E39.61158
G0 F6000 X93.848 Y107.99
G1 F1200 X108.873 Y123.015 E40.31831
G0 F6000 X109.438 Y123.015
G1 F1200 X94.414 Y107.99 E41.02502
G0 F6000 X94.979 Y107.99
G1 F1200 X110.004 Y123.015 E41.73175
G0 F6000 X110.57 Y123.015
G1 F1200 X95.546 Y107.991 E42.43843
G0 F6000 X96.112 Y107.991
G1 F1200 X111.135 Y123.015 E43.14509
G0 F6000 X111.701 Y123.015
G1 F1200 X96.677 Y107.991 E43.85177
G0 F6000 X97.243 Y107.991
G1 F1200 X112.267 Y123.015 E44.55845
G0 F6000 X112.833 Y123.015
G1 F1200 X100.747 Y110.93 E45.12692
G0 F6000 X101.148 Y110.764
G1 F1200 X113.398 Y123.015 E45.70315
G0 F6000 X113.964 Y123.015
G1 F1200 X101.548 Y110.599 E46.28716
G0 F6000 X101.949 Y110.434
G1 F1200 X114.443 Y122.929 E46.87486
G0 F6000 X114.726 Y122.646
G1 F1200 X102.116 Y110.035 E47.46802
G0 F6000 X102.116 Y109.47
G1 F1200 X115.009 Y122.363 E48.07447
G0 F6000 X115.292 Y122.08
G1 F1200 X102.116 Y108.904 E48.69422
G0 F6000 X102.116 Y108.338
G1 F1200 X115.575 Y121.797 E49.32729
G0 F6000 X115.858 Y121.514
G1 F1200 X102.116 Y107.772 E49.97368
G0 F6000 X102.116 Y107.207
G1 F1200 X116.14 Y121.232 E50.63335
G0 F6000 X116.423 Y120.949
G1 F1200 X102.116 Y106.641 E51.30633
G0 F6000 X102.116 Y106.075
G1 F1200 X116.706 Y120.666 E51.99262
G0 F6000 X116.989 Y120.383
G1 F1200 X102.116 Y105.51 E52.6922
G0 F6000 X102.116 Y104.944
G1 F1200 X117.272 Y120.1 E53.40509
G0 F6000 X117.555 Y119.817
G1 F1200 X102.116 Y104.378 E54.13129
G0 F6000 X102.116 Y103.813
G1 F1200 X117.837 Y119.534 E54.87076
G0 F6000 X118.12 Y119.252
G1 F1200 X102.116 Y103.247 E55.62356
G0 F6000 X102.116 Y102.681
G1 F1200 X118.403 Y118.969 E56.38968
G0 F6000 X118.686 Y118.686
G1 F1200 X102.116 Y102.116 E57.16908
G0 F6000 X102.116 Y101.55
G1 F1200 X118.969 Y118.403 E57.96179
G0 F6000 X119.252 Y118.12
G1 F1200 X102.116 Y100.984 E58.76782
G0 F6000 X102.116 Y100.419
G1 F1200 X119.534 Y117.837 E59.58711
G0 F6000 X119.817 Y117.555
G1 F1200 X102.116 Y99.853 E60.41973
G0 F6000 X102.116 Y99.287
G1 F1200 X120.1 Y117.272 E61.26567
