;FLAVOR:Marlin
;TIME:6509
;Filament used: 6.15494m
;Layer height: 0.3
;MINX:78.886
;MINY:80.472
;MINZ:0.2
;MAXX:141.104
;MAXY:139.548
;MAXZ:60.1
;Generated with Cura_SteamEngine 4.6.2
M140 S55
M105
M190 S55
M104 S210
M105
M109 S210
M82 ;absolute extrusion mode
; Ender 3 Custom Start G-code
G92 E0 ; Reset Extruder
G28 ; Home all axes
G1 Z2.0 F3000 ; Move Z Axis up little to prevent scratching of Heat Bed
G1 X0.1 Y20 Z0.3 F5000.0 ; Move to start position
G1 X0.1 Y200.0 Z0.3 F1500.0 E15 ; Draw the first line
G1 X0.4 Y200.0 Z0.3 F5000.0 ; Move to side a little
G1 X0.4 Y20 Z0.3 F1500.0 E30 ; Draw the second line
G92 E0 ; Reset Extruder
G1 Z2.0 F3000 ; Move Z Axis up little to prevent scratching of Heat Bed
G1 X5 Y20 Z0.3 F5000.0 ; Move over to prevent blob squish
G92 E0
G92 E0
G1 F1500 E-6.5
;LAYER_COUNT:200
;LAYER:0
M107
G1 F300 Z0.4
G0 F6000 X106.279 Y81.288 Z0.4
;TYPE:SKIRT
G1 F300 Z0.2
G1 F1500 E0
G1 F1200 X108.695 Y81.357 E0.08039
G1 X111.216 Y81.357 E0.16424
G1 X112.238 Y81.324 E0.19825
G1 X115.109 Y81.272 E0.29375
G1 X116.903 Y81.273 E0.35342
G1 X117.603 Y81.283 E0.37671
G1 X118.504 Y81.336 E0.40673
G1 X119.398 Y81.468 E0.43678
G1 X120.276 Y81.679 E0.46682
G1 X121.132 Y81.967 E0.49686
G1 X121.959 Y82.329 E0.52688
G1 X122.751 Y82.763 E0.55692
G1 X123.501 Y83.266 E0.58695
G1 X124.204 Y83.833 E0.61699
G1 X124.855 Y84.459 E0.64703
G1 X125.447 Y85.141 E0.67707
G1 X125.976 Y85.873 E0.70711
G1 X126.439 Y86.648 E0.73713
G1 X126.976 Y87.818 E0.77995
G1 X127.043 Y87.992 E0.78615
G1 X128.023 Y90.423 E0.87333
G1 X129.042 Y92.759 E0.9581
G1 X130.115 Y95.041 E1.04197
G1 X131.276 Y97.337 E1.12754
G1 X132.467 Y99.539 E1.21081
G1 X133.742 Y101.741 E1.29544
G1 X135.087 Y103.922 E1.38066
G1 X136.456 Y106.007 E1.46362
G1 X138.377 Y108.734 E1.57457
G1 X139.014 Y109.764 E1.61485
G1 X139.082 Y109.89 E1.61961
G1 X139.476 Y110.703 E1.64966
G1 X139.795 Y111.547 E1.67967
G1 X140.039 Y112.417 E1.70972
G1 X140.205 Y113.304 E1.73973
G1 X140.292 Y114.203 E1.76978
G1 X140.299 Y115.106 E1.79981
G1 X140.226 Y116.007 E1.82988
G1 X140.074 Y116.897 E1.85991
G1 X139.844 Y117.77 E1.88993
G1 X139.537 Y118.619 E1.91996
G1 X139.156 Y119.438 E1.95
G1 X138.705 Y120.221 E1.98006
G1 X138.186 Y120.96 E2.01009
G1 X137.485 Y121.776 E2.04587
G1 X136.789 Y122.502 E2.07932
G1 X124.015 Y135.319 E2.68119
G1 X123.508 Y135.814 E2.70475
G1 X122.834 Y136.416 E2.73481
G1 X122.11 Y136.956 E2.76485
G1 X121.341 Y137.429 E2.79488
G1 X120.533 Y137.833 E2.82492
G1 X119.693 Y138.164 E2.85495
G1 X118.826 Y138.419 E2.88501
G1 X117.941 Y138.596 E2.91503
G1 X116.615 Y138.713 E2.9593
G1 X115.831 Y138.729 E2.98539
G1 X104.22 Y138.748 E3.37157
G1 X103.56 Y138.74 E3.39352
G1 X102.659 Y138.689 E3.42354
G1 X101.765 Y138.559 E3.45359
G1 X100.886 Y138.35 E3.48364
G1 X100.03 Y138.064 E3.51365
G1 X99.202 Y137.703 E3.5437
G1 X98.409 Y137.271 E3.57373
G1 X97.657 Y136.77 E3.60379
G1 X96.751 Y136.023 E3.64284
G1 X96.042 Y135.366 E3.67499
G1 X95.757 Y135.091 E3.68816
G1 X83.068 Y122.38 E4.28553
G1 X82.582 Y121.878 E4.30877
G1 X81.983 Y121.202 E4.33881
G1 X81.358 Y120.342 E4.37417
G1 X80.874 Y119.524 E4.40578
G1 X80.486 Y118.708 E4.43584
G1 X80.172 Y117.861 E4.46588
G1 X79.935 Y116.99 E4.4959
G1 X79.775 Y116.101 E4.52595
G1 X79.694 Y115.201 E4.556
G1 X79.694 Y114.298 E4.58604
G1 X79.773 Y113.399 E4.61605
G1 X79.932 Y112.51 E4.64609
G1 X80.168 Y111.638 E4.67614
G1 X80.481 Y110.791 E4.70617
G1 X80.867 Y109.975 E4.73619
G1 X81.547 Y108.867 E4.77943
G1 X82.163 Y107.994 E4.81497
G1 X82.528 Y107.49 E4.83567
G1 X83.978 Y105.364 E4.92126
G1 X85.323 Y103.267 E5.00412
G1 X86.652 Y101.059 E5.08983
G1 X87.889 Y98.866 E5.17358
G1 X89.084 Y96.6 E5.25878
G1 X90.2 Y94.331 E5.34288
G1 X91.252 Y92.031 E5.427
G1 X92.246 Y89.681 E5.51187
G1 X92.831 Y88.185 E5.5653
G1 X93.05 Y87.648 E5.58459
G1 X93.428 Y86.828 E5.61462
G1 X93.877 Y86.044 E5.64467
G1 X94.393 Y85.303 E5.6747
G1 X94.973 Y84.611 E5.70473
G1 X95.612 Y83.973 E5.73476
G1 X96.305 Y83.393 E5.76482
G1 X97.046 Y82.877 E5.79485
G1 X97.83 Y82.429 E5.82489
G1 X98.651 Y82.052 E5.85493
G1 X99.501 Y81.749 E5.88495
G1 X100.376 Y81.523 E5.915
G1 X101.266 Y81.374 E5.94502
G1 X102.199 Y81.304 E5.97614
G1 X103.46 Y81.272 E6.01809
G1 X105.303 Y81.273 E6.07939
G1 X106.279 Y81.288 E6.11186
G0 F6000 X106.291 Y80.888
G1 F1200 X108.707 Y80.957 E6.19225
G1 X111.203 Y80.957 E6.27526
G1 X112.23 Y80.924 E6.30944
G1 X115.109 Y80.872 E6.40521
G1 X116.908 Y80.873 E6.46504
G1 X117.608 Y80.883 E6.48833
G1 X118.528 Y80.936 E6.51898
G1 X119.439 Y81.069 E6.5496
G1 X120.335 Y81.28 E6.58022
G1 X121.209 Y81.568 E6.61082
G1 X122.055 Y81.931 E6.64144
G1 X122.867 Y82.366 E6.67208
G1 X123.637 Y82.87 E6.70269
G1 X124.361 Y83.439 E6.73332
G1 X125.033 Y84.068 E6.76393
G1 X125.648 Y84.754 E6.79457
G1 X126.201 Y85.49 E6.82519
G1 X126.688 Y86.271 E6.85581
G1 X127.105 Y87.092 E6.88643
G1 X127.35 Y87.674 E6.90744
G1 X127.429 Y87.88 E6.91477
G1 X128.401 Y90.292 E7.00127
G1 X129.399 Y92.578 E7.08423
G1 X130.476 Y94.869 E7.16843
G1 X131.619 Y97.13 E7.25269
G1 X132.822 Y99.354 E7.33679
G1 X134.095 Y101.552 E7.42127
G1 X135.413 Y103.689 E7.50478
G1 X136.784 Y105.778 E7.58789
G1 X138.704 Y108.503 E7.69876
G1 X139.366 Y109.574 E7.74064
G1 X139.434 Y109.7 E7.7454
G1 X139.836 Y110.528 E7.77601
G1 X140.164 Y111.388 E7.80663
G1 X140.417 Y112.274 E7.83727
G1 X140.591 Y113.178 E7.86789
G1 X140.687 Y114.093 E7.89849
G1 X140.702 Y115.014 E7.92913
G1 X140.638 Y115.932 E7.95973
G1 X140.494 Y116.842 E7.99038
G1 X140.272 Y117.735 E8.02098
G1 X139.974 Y118.606 E8.0516
G1 X139.6 Y119.448 E8.08224
G1 X139.156 Y120.254 E8.11285
G1 X138.642 Y121.018 E8.14348
G1 X137.775 Y122.052 E8.18836
G1 X137.072 Y122.784 E8.22211
G1 X124.294 Y135.606 E8.82419
G1 X123.787 Y136.101 E8.84775
G1 X123.101 Y136.714 E8.87835
G1 X122.364 Y137.267 E8.909
G1 X121.582 Y137.753 E8.93962
G1 X120.761 Y138.169 E8.97023
G1 X119.907 Y138.513 E9.00086
G1 X119.026 Y138.781 E9.03148
G1 X118.126 Y138.972 E9.06209
G1 X117.212 Y139.083 E9.09271
G1 X116.624 Y139.113 E9.11229
G1 X115.831 Y139.129 E9.13867
G1 X104.216 Y139.148 E9.52499
G1 X103.556 Y139.14 E9.54694
G1 X102.636 Y139.089 E9.57759
G1 X101.725 Y138.958 E9.6082
G1 X100.828 Y138.749 E9.63883
G1 X99.953 Y138.463 E9.66945
G1 X99.107 Y138.102 E9.70004
G1 X98.294 Y137.668 E9.7307
G1 X97.523 Y137.166 E9.7613
G1 X96.479 Y136.316 E9.80607
G1 X95.77 Y135.659 E9.83822
G1 X95.474 Y135.373 E9.85191
G1 X82.78 Y122.658 E10.44949
G1 X82.294 Y122.156 E10.47273
G1 X81.683 Y121.467 E10.50336
G1 X81.022 Y120.56 E10.54069
G1 X80.529 Y119.727 E10.57288
G1 X80.132 Y118.896 E10.60352
G1 X79.808 Y118.034 E10.63414
G1 X79.56 Y117.148 E10.66474
G1 X79.391 Y116.243 E10.69537
G1 X79.3 Y115.327 E10.72598
G1 X79.289 Y114.406 E10.75662
G1 X79.359 Y113.488 E10.78724
G1 X79.507 Y112.579 E10.81787
G1 X79.734 Y111.687 E10.84848
G1 X80.037 Y110.818 E10.87909
G1 X80.415 Y109.978 E10.90973
G1 X80.864 Y109.175 E10.94033
G1 X81.22 Y108.636 E10.96181
G1 X81.839 Y107.76 E10.99749
G1 X82.194 Y107.269 E11.01764
G1 X83.638 Y105.152 E11.10287
G1 X85.002 Y103.026 E11.18689
G1 X86.295 Y100.877 E11.2703
G1 X87.538 Y98.674 E11.35443
G1 X88.729 Y96.416 E11.43934
G1 X89.828 Y94.181 E11.52218
G1 X90.897 Y91.845 E11.60762
G1 X91.863 Y89.559 E11.69017
G1 X92.461 Y88.034 E11.74465
G1 X92.68 Y87.497 E11.76394
G1 X93.064 Y86.661 E11.79454
G1 X93.52 Y85.861 E11.82516
G1 X94.043 Y85.103 E11.85579
G1 X94.63 Y84.394 E11.88641
G1 X95.276 Y83.738 E11.91703
G1 X95.977 Y83.141 E11.94765
G1 X96.727 Y82.607 E11.97828
G1 X97.52 Y82.14 E12.00889
G1 X98.351 Y81.744 E12.0395
G1 X99.213 Y81.421 E12.07012
G1 X100.1 Y81.174 E12.10074
G1 X101.005 Y81.005 E12.13136
G1 X102.188 Y80.904 E12.17085
G1 X103.46 Y80.872 E12.21317
G1 X105.309 Y80.873 E12.27467
G1 X106.291 Y80.888 E12.30734
G0 F6000 X106.302 Y80.488
G1 F1200 X108.718 Y80.557 E12.38773
G1 X111.189 Y80.557 E12.46991
G1 X112.223 Y80.524 E12.50432
G1 X115.109 Y80.472 E12.60033
G1 X116.914 Y80.473 E12.66036
G1 X117.614 Y80.483 E12.68364
G1 X118.55 Y80.536 E12.71483
G1 X119.479 Y80.669 E12.74604
G1 X120.393 Y80.881 E12.77725
G1 X121.285 Y81.17 E12.80843
G1 X122.149 Y81.533 E12.8396
G1 X122.98 Y81.969 E12.87081
G1 X123.77 Y82.474 E12.902
G1 X124.515 Y83.045 E12.93322
G1 X125.208 Y83.676 E12.96439
G1 X125.844 Y84.365 E12.99558
G1 X126.42 Y85.105 E13.02677
G1 X126.931 Y85.892 E13.05798
G1 X127.372 Y86.719 E13.08915
G1 X127.723 Y87.531 E13.11857
G1 X127.794 Y87.714 E13.1251
G1 X128.763 Y90.119 E13.21134
G1 X129.764 Y92.413 E13.29459
G1 X130.837 Y94.696 E13.37849
G1 X131.978 Y96.953 E13.4626
G1 X133.177 Y99.169 E13.54641
G1 X134.423 Y101.321 E13.62911
G1 X135.761 Y103.49 E13.71388
G1 X137.118 Y105.557 E13.79612
G1 X139.031 Y108.273 E13.90661
G1 X139.718 Y109.384 E13.95006
G1 X139.786 Y109.51 E13.95482
G1 X140.196 Y110.353 E13.986
G1 X140.533 Y111.229 E14.01721
G1 X140.793 Y112.13 E14.0484
G1 X140.976 Y113.05 E14.0796
G1 X141.08 Y113.982 E14.11079
G1 X141.104 Y114.919 E14.14197
G1 X141.049 Y115.855 E14.17315
G1 X140.913 Y116.783 E14.20435
G1 X140.7 Y117.697 E14.23556
G1 X140.409 Y118.588 E14.26674
G1 X140.043 Y119.452 E14.29795
G1 X139.605 Y120.281 E14.32913
G1 X139.098 Y121.07 E14.36033
G1 X138.525 Y121.813 E14.39153
G1 X138.064 Y122.328 E14.41452
G1 X137.356 Y123.067 E14.44856
G1 X124.573 Y135.892 E15.05082
G1 X124.066 Y136.387 E15.07439
G1 X123.368 Y137.013 E15.10557
G1 X122.619 Y137.577 E15.13676
G1 X121.824 Y138.075 E15.16796
G1 X120.99 Y138.504 E15.19915
G1 X120.123 Y138.86 E15.23033
G1 X119.228 Y139.141 E15.26153
G1 X118.313 Y139.345 E15.29271
G1 X117.383 Y139.47 E15.32392
G1 X116.633 Y139.513 E15.3489
G1 X115.832 Y139.529 E15.37555
G1 X104.211 Y139.548 E15.76207
G1 X103.551 Y139.54 E15.78402
G1 X102.614 Y139.489 E15.81523
G1 X101.686 Y139.358 E15.8464
G1 X100.771 Y139.148 E15.87763
G1 X99.878 Y138.862 E15.90881
G1 X99.013 Y138.5 E15.94
G1 X98.182 Y138.066 E15.97118
G1 X97.39 Y137.563 E16.00239
G1 X96.645 Y136.994 E16.03357
G1 X96.207 Y136.609 E16.05296
G1 X95.498 Y135.952 E16.08511
G1 X95.191 Y135.656 E16.0993
G1 X82.493 Y122.936 E16.69709
G1 X82.007 Y122.434 E16.72033
G1 X81.384 Y121.733 E16.75152
G1 X80.687 Y120.778 E16.79085
G1 X80.184 Y119.93 E16.82364
G1 X79.777 Y119.085 E16.85483
G1 X79.444 Y118.209 E16.886
G1 X79.187 Y117.307 E16.9172
G1 X79.007 Y116.386 E16.94841
G1 X78.907 Y115.454 E16.97959
G1 X78.886 Y114.516 E17.01079
G1 X78.946 Y113.58 E17.04199
G1 X79.084 Y112.653 E17.07316
G1 X79.302 Y111.74 E17.10438
G1 X79.596 Y110.85 E17.13555
G1 X79.965 Y109.987 E17.16677
G1 X80.406 Y109.16 E17.19794
G1 X80.893 Y108.406 E17.2278
G1 X81.515 Y107.525 E17.26367
G1 X81.884 Y107.014 E17.28463
G1 X83.288 Y104.957 E17.36747
G1 X84.666 Y102.809 E17.45235
G1 X85.946 Y100.681 E17.53494
G1 X87.186 Y98.485 E17.61882
G1 X88.373 Y96.232 E17.70352
G1 X89.484 Y93.973 E17.78725
G1 X90.511 Y91.73 E17.8693
G1 X91.511 Y89.363 E17.95476
G1 X92.09 Y87.883 E18.00762
G1 X92.309 Y87.346 E18.02691
G1 X92.7 Y86.494 E18.05809
G1 X93.162 Y85.677 E18.08931
G1 X93.692 Y84.904 E18.12048
G1 X94.286 Y84.178 E18.15168
G1 X94.94 Y83.505 E18.18289
G1 X95.648 Y82.891 E18.21406
G1 X96.407 Y82.339 E18.24528
G1 X97.209 Y81.853 E18.27647
G1 X98.05 Y81.438 E18.30766
G1 X98.923 Y81.096 E18.33884
G1 X99.822 Y80.83 E18.37002
G1 X100.741 Y80.641 E18.40123
G1 X101.673 Y80.531 E18.43244
G1 X102.176 Y80.505 E18.4492
G1 X103.46 Y80.472 E18.49192
G1 X105.315 Y80.473 E18.55361
G1 X106.302 Y80.488 E18.58645
G1 F1500 E12.08645
G1 F300 Z0.4
;MESH:Logitech-C270-Holderv2.stl
G0 F6000 X103.889 Y127.95 Z0.4
;TYPE:WALL-INNER
G1 F300 Z0.2
G1 F1500 E18.58645
G1 F1200 X90.711 Y114.751 E19.20679
G1 X93.609 Y111.834 E19.34355
G1 X99.487 Y111.824 E19.53906
G1 X102.35 Y114.668 E19.67328
G1 X103.088 Y114.359 E19.69989
G1 X103.088 Y92.072 E20.44116
G1 X105.097 Y92.072 E20.50798
G1 X105.296 Y92.072 E20.51459
G1 X105.296 Y92.271 E20.51888
G1 X105.295 Y99.661 E20.76467
G1 X105.295 Y99.86 E20.77129
G1 X105.494 Y99.86 E20.77557
G1 X114.653 Y99.847 E21.0802
G1 X114.68 Y96.371 E21.19582
G1 X114.68 Y92.072 E21.3388
G1 X116.764 Y92.072 E21.40812
G1 X116.881 Y92.072 E21.41201
G1 X116.887 Y92.251 E21.41796
G1 X116.88 Y92.368 E21.42108
G1 X116.864 Y92.606 E21.42902
G1 X116.864 Y96.368 E21.55414
G1 X116.888 Y113.961 E22.13929
G1 X116.964 Y114.414 E22.15456
G1 X117.663 Y114.636 E22.17896
G1 X120.467 Y111.808 E22.31141
G1 X126.343 Y111.8 E22.50685
G1 X129.146 Y114.591 E22.63841
G1 X129.147 Y114.592 E22.63846
G1 X129.287 Y114.731 E22.64502
G1 X129.147 Y114.871 E22.64927
G1 X116.135 Y127.928 E23.26237
G1 X103.889 Y127.95 E23.66968
G0 F6000 X103.723 Y128.35
;TYPE:WALL-OUTER
G1 F1200 X90.146 Y114.752 E24.30879
G1 X93.442 Y111.434 E24.46434
G1 X99.652 Y111.424 E24.67089
G1 X102.442 Y114.196 E24.8017
G1 X102.688 Y114.093 E24.81057
G1 X102.688 Y91.672 E25.55629
G1 X105.696 Y91.672 E25.65634
G1 X105.695 Y99.459 E25.91534
G1 X114.256 Y99.448 E26.20008
G1 X114.28 Y96.369 E26.30249
G1 X114.28 Y91.672 E26.45871
G1 X117.268 Y91.672 E26.55809
G1 X117.288 Y92.253 E26.57743
G1 X117.264 Y92.619 E26.58963
G1 X117.264 Y96.368 E26.71432
G1 X117.288 Y113.928 E27.29837
G1 X117.318 Y114.107 E27.3044
G1 X117.551 Y114.181 E27.31254
G1 X120.3 Y111.408 E27.44241
G1 X126.508 Y111.4 E27.64888
G1 X129.853 Y114.729 E27.80585
G1 X116.301 Y128.328 E28.4444
G1 X103.723 Y128.35 E28.86275
G0 F6000 X103.891 Y127.944
G0 X104.05 Y127.56
;TYPE:SKIN
G1 F1200 X91.261 Y114.751 E29.46477
G1 X93.772 Y112.224 E29.58326
G1 X99.327 Y112.214 E29.76802
G1 X102.26 Y115.128 E29.90553
G1 X103.478 Y114.618 E29.94945
G1 X103.478 Y92.462 E30.68636
G1 X104.906 Y92.462 E30.73386
G1 X104.905 Y100.25 E30.99289
G1 X115.04 Y100.237 E31.32998
G1 X115.07 Y96.373 E31.4585
G1 X115.07 Y92.462 E31.58858
G1 X116.482 Y92.462 E31.63554
G1 X116.474 Y92.594 E31.63994
G1 X116.498 Y113.994 E32.35171
G1 X116.619 Y114.714 E32.37599
G1 X117.772 Y115.08 E32.41623
G1 X120.631 Y112.198 E32.55125
G1 X126.181 Y112.19 E32.73584
G1 X128.735 Y114.733 E32.85572
G1 X115.973 Y127.538 E33.45701
G1 X104.05 Y127.56 E33.85357
G0 F6000 X104.205 Y127.398
G1 F1200 X91.521 Y114.714 E34.45019
G0 F6000 X91.803 Y114.431
G1 F1200 X104.77 Y127.398 E35.06012
G0 F6000 X105.334 Y127.396
G1 F1200 X92.085 Y114.147 E35.68331
G0 F6000 X92.367 Y113.863
G1 F1200 X105.899 Y127.395 E36.31981
G0 F6000 X106.464 Y127.394
G1 F1200 X92.649 Y113.579 E36.96963
G0 F6000 X92.931 Y113.296
G1 F1200 X107.029 Y127.393 E37.63273
G0 F6000 X107.593 Y127.392
G1 F1200 X93.212 Y113.011 E38.30917
G0 F6000 X93.495 Y112.728
G1 F1200 X108.158 Y127.391 E38.99887
G0 F6000 X108.722 Y127.39
G1 F1200 X93.777 Y112.444 E39.70186
G0 F6000 X94.28 Y112.382
G1 F1200 X109.287 Y127.389 E40.40775
G0 F6000 X109.851 Y127.388
G1 F1200 X94.845 Y112.381 E41.11361
G0 F6000 X95.409 Y112.38
G1 F1200 X110.416 Y127.387 E41.81949
G0 F6000 X110.981 Y127.385
G1 F1200 X95.974 Y112.379 E42.52535
G0 F6000 X96.539 Y112.379
G1 F1200 X111.546 Y127.385 E43.23121
G0 F6000 X112.11 Y127.383
G1 F1200 X97.104 Y112.377 E43.93705
G0 F6000 X97.669 Y112.376
G1 F1200 X112.675 Y127.383 E44.64291
G0 F6000 X113.24 Y127.382
G1 F1200 X98.233 Y112.375 E45.34879
G0 F6000 X98.798 Y112.374
G1 F1200 X113.804 Y127.381 E46.05465
G0 F6000 X114.369 Y127.38
G1 F1200 X102.281 Y115.292 E46.62323
G0 F6000 X102.68 Y115.125
G1 F1200 X114.933 Y127.378 E47.19958
G0 F6000 X115.498 Y127.378
G1 F1200 X103.079 Y114.958 E47.78375
G0 F6000 X103.477 Y114.791
G1 F1200 X115.985 Y127.299 E48.37209
G0 F6000 X116.268 Y127.016
G1 F1200 X103.637 Y114.385 E48.96621
G0 F6000 X103.637 Y113.82
G1 F1200 X116.55 Y126.732 E49.57358
G0 F6000 X116.832 Y126.449
G1 F1200 X103.637 Y113.254 E50.19423
G0 F6000 X103.637 Y112.688
G1 F1200 X117.115 Y126.166 E50.82819
G0 F6000 X117.397 Y125.882
G1 F1200 X103.637 Y112.123 E51.4754
G0 F6000 X103.637 Y111.557
G1 F1200 X117.679 Y125.599 E52.13589
G0 F6000 X117.962 Y125.316
G1 F1200 X103.637 Y110.991 E52.80969
G0 F6000 X103.637 Y110.426
G1 F1200 X118.244 Y125.032 E53.49674
G0 F6000 X118.526 Y124.749
G1 F1200 X103.637 Y109.86 E54.19707
G0 F6000 X103.637 Y109.294
G1 F1200 X118.809 Y124.466 E54.91072
G0 F6000 X119.091 Y124.182
G1 F1200 X103.637 Y108.728 E55.63762
G0 F6000 X103.637 Y108.163
G1 F1200 X119.373 Y123.899 E56.3778
G0 F6000 X119.656 Y123.616
