;FLAVOR:Marlin
;TIME:4632
;Filament used: 2.90704m
;Layer height: 0.2
;MINX:88.974
;MINY:78.507
;MINZ:0.2
;MAXX:141.026
;MAXY:151.492
;MAXZ:39.2
;Generated with Cura_SteamEngine 4.6.1
M140 S55
M105
M190 S55
M104 S210
M105
M109 S210
M82 ;absolute extrusion mode
; Ender 3 Custom Start G-code
G92 E0 ; Reset Extruder
G28 ; Home all axes
G1 Z2.0 F3000 ; Move Z Axis up little to prevent scratching of Heat Bed
G1 X0.1 Y20 Z0.3 F5000.0 ; Move to start position
G1 X0.1 Y200.0 Z0.3 F1500.0 E15 ; Draw the first line
G1 X0.4 Y200.0 Z0.3 F5000.0 ; Move to side a little
G1 X0.4 Y20 Z0.3 F1500.0 E30 ; Draw the second line
G92 E0 ; Reset Extruder
G1 Z2.0 F3000 ; Move Z Axis up little to prevent scratching of Heat Bed
G1 X5 Y20 Z0.3 F5000.0 ; Move over to prevent blob squish
G92 E0
G92 E0
G1 F2700 E-5
;LAYER_COUNT:196
;LAYER:0
M107
G0 F6000 X127.29 Y79.325 Z0.2
;TYPE:SKIRT
G1 F2700 E0
G1 F1200 X127.722 Y79.344 E0.01438
G1 X128.408 Y79.397 E0.03727
G1 X128.694 Y79.429 E0.04684
G1 X129.586 Y79.569 E0.07687
G1 X130.294 Y79.739 E0.10109
G1 X130.657 Y79.84 E0.11362
G1 X131.743 Y80.209 E0.15177
G1 X132.05 Y80.333 E0.16278
G1 X132.653 Y80.6 E0.18471
G1 X132.84 Y80.69 E0.19162
G1 X133.758 Y81.191 E0.2264
G1 X133.963 Y81.317 E0.2344
G1 X134.89 Y81.96 E0.27193
G1 X135.252 Y82.242 E0.28719
G1 X135.94 Y82.828 E0.31725
G1 X136.525 Y83.421 E0.34495
G1 X136.811 Y83.735 E0.35908
G1 X137.478 Y84.547 E0.39403
G1 X137.751 Y84.917 E0.40932
G1 X138.254 Y85.667 E0.43936
G1 X138.571 Y86.226 E0.46073
G1 X138.683 Y86.439 E0.46874
G1 X139.181 Y87.539 E0.5089
G1 X139.351 Y87.983 E0.52471
G1 X139.6 Y88.715 E0.55043
G1 X139.668 Y88.943 E0.55834
G1 X139.959 Y90.21 E0.60158
G1 X139.996 Y90.436 E0.6092
G1 X140.1 Y91.308 E0.6384
G1 X140.128 Y91.675 E0.65065
G1 X140.159 Y92.306 E0.67166
G1 X140.168 Y92.817 E0.68866
G1 X140.167 Y98.713 E0.88476
G1 X140.155 Y99.531 E0.91197
G1 X140.167 Y103.074 E1.02981
G1 X140.209 Y105.89 E1.12348
G1 X140.225 Y106.598 E1.14704
G1 X140.226 Y107.627 E1.18126
G1 X140.225 Y139.896 E2.25453
G1 X140.215 Y140.62 E2.27861
G1 X140.163 Y141.521 E2.30863
G1 X140.031 Y142.415 E2.33869
G1 X139.82 Y143.293 E2.36872
G1 X139.533 Y144.149 E2.39875
G1 X139.171 Y144.977 E2.42881
G1 X138.737 Y145.769 E2.45884
G1 X138.235 Y146.519 E2.48886
G1 X137.669 Y147.223 E2.51891
G1 X137.042 Y147.873 E2.54894
G1 X136.36 Y148.466 E2.579
G1 X135.629 Y148.996 E2.60903
G1 X134.854 Y149.459 E2.63906
G1 X134.041 Y149.851 E2.66908
G1 X133.196 Y150.171 E2.69913
G1 X132.326 Y150.414 E2.72918
G1 X131.438 Y150.579 E2.75922
G1 X130.299 Y150.675 E2.79723
G1 X129.547 Y150.692 E2.82225
G1 X125.604 Y150.691 E2.9534
G1 X124.899 Y150.681 E2.97685
G1 X123.998 Y150.628 E3.00687
G1 X123.104 Y150.496 E3.03692
G1 X122.226 Y150.285 E3.06696
G1 X121.37 Y149.997 E3.097
G1 X120.543 Y149.635 E3.12702
G1 X119.751 Y149.201 E3.15706
G1 X119 Y148.699 E3.18711
G1 X118.297 Y148.132 E3.21714
G1 X117.625 Y147.482 E3.24824
G1 X116.712 Y146.514 E3.2925
G1 X114.858 Y144.579 E3.38163
G1 X113.054 Y142.801 E3.46587
G1 X111.166 Y141.042 E3.5517
G1 X109.281 Y139.383 E3.63522
G1 X107.342 Y137.771 E3.71909
G1 X105.326 Y136.19 E3.8043
G1 X103.289 Y134.683 E3.88857
G1 X101.209 Y133.235 E3.97287
G1 X99.073 Y131.833 E4.05785
G1 X96.945 Y130.523 E4.14096
G1 X96.034 Y130 E4.1759
G1 X94.817 Y129.282 E4.2229
G1 X94.06 Y128.789 E4.25294
G1 X93.35 Y128.231 E4.28298
G1 X92.692 Y127.613 E4.313
G1 X92.091 Y126.938 E4.34306
G1 X91.553 Y126.214 E4.37306
G1 X91.08 Y125.444 E4.40312
G1 X90.677 Y124.636 E4.43315
G1 X90.348 Y123.795 E4.46319
G1 X90.094 Y122.928 E4.49324
G1 X89.918 Y122.042 E4.52328
G1 X89.804 Y120.782 E4.56536
G1 X89.774 Y119.568 E4.60575
G1 X89.775 Y93.055 E5.48758
G1 X89.785 Y92.351 E5.51099
G1 X89.815 Y91.706 E5.53247
G1 X89.847 Y91.294 E5.54621
G1 X89.956 Y90.398 E5.57623
G1 X90.082 Y89.768 E5.5976
G1 X90.182 Y89.339 E5.61225
G1 X90.426 Y88.47 E5.64228
G1 X90.675 Y87.794 E5.66624
G1 X90.911 Y87.217 E5.68697
G1 X91.29 Y86.397 E5.71702
G1 X91.537 Y85.945 E5.73415
G1 X91.675 Y85.708 E5.74327
G1 X92.164 Y84.949 E5.7733
G1 X92.496 Y84.506 E5.79171
G1 X92.771 Y84.159 E5.80644
G1 X93.553 Y83.282 E5.84552
G1 X93.775 Y83.06 E5.85596
G1 X94.657 Y82.274 E5.89526
G1 X94.935 Y82.054 E5.90705
G1 X95.563 Y81.594 E5.93294
G1 X95.741 Y81.474 E5.94008
G1 X96.862 Y80.819 E5.98326
G1 X97.23 Y80.634 E5.99696
G1 X98.054 Y80.264 E6.027
G1 X98.491 Y80.103 E6.04249
G1 X98.857 Y79.977 E6.05537
G1 X99.604 Y79.751 E6.08132
G1 X99.815 Y79.696 E6.08858
G1 X100.698 Y79.507 E6.11861
G1 X101.282 Y79.426 E6.13822
G1 X101.612 Y79.39 E6.14926
G1 X102.111 Y79.348 E6.16592
G1 X102.329 Y79.335 E6.17318
G1 X102.65 Y79.321 E6.18387
G1 X103.292 Y79.307 E6.20523
G1 X126.465 Y79.308 E6.97596
G1 X127.29 Y79.325 E7.00341
G0 F6000 X127.308 Y78.925
G1 F1200 X127.74 Y78.944 E7.01779
G1 X128.453 Y79 E7.04158
G1 X128.739 Y79.032 E7.05115
G1 X129.648 Y79.174 E7.08175
G1 X130.401 Y79.354 E7.1075
G1 X130.764 Y79.455 E7.12003
G1 X131.893 Y79.838 E7.15968
G1 X132.2 Y79.962 E7.1707
G1 X132.827 Y80.24 E7.19351
G1 X133.014 Y80.33 E7.20041
G1 X133.968 Y80.85 E7.23655
G1 X134.173 Y80.976 E7.24455
G1 X135.136 Y81.645 E7.28355
G1 X135.498 Y81.927 E7.29881
G1 X136.199 Y82.524 E7.32944
G1 X136.821 Y83.151 E7.35881
G1 X137.107 Y83.465 E7.37294
G1 X137.8 Y84.31 E7.40929
G1 X138.073 Y84.68 E7.42458
G1 X138.586 Y85.443 E7.45516
G1 X138.925 Y86.04 E7.478
G1 X139.037 Y86.253 E7.486
G1 X139.554 Y87.396 E7.52772
G1 X139.724 Y87.84 E7.54354
G1 X139.983 Y88.6 E7.57024
G1 X140.051 Y88.828 E7.57816
G1 X140.354 Y90.145 E7.6231
G1 X140.391 Y90.371 E7.63072
G1 X140.499 Y91.278 E7.6611
G1 X140.527 Y91.645 E7.67334
G1 X140.559 Y92.291 E7.69486
G1 X140.568 Y92.814 E7.71225
G1 X140.567 Y98.719 E7.90865
G1 X140.555 Y99.536 E7.93583
G1 X140.567 Y103.066 E8.05324
G1 X140.609 Y105.872 E8.14658
G1 X140.625 Y106.598 E8.17073
G1 X140.626 Y107.627 E8.20496
G1 X140.625 Y139.901 E9.27839
G1 X140.615 Y140.625 E9.30248
G1 X140.562 Y141.545 E9.33313
G1 X140.43 Y142.456 E9.36374
G1 X140.219 Y143.352 E9.39436
G1 X139.932 Y144.226 E9.42495
G1 X139.569 Y145.073 E9.4556
G1 X139.134 Y145.884 E9.48621
G1 X138.631 Y146.655 E9.51683
G1 X138.062 Y147.379 E9.54746
G1 X137.433 Y148.051 E9.57807
G1 X136.748 Y148.667 E9.60871
G1 X136.012 Y149.22 E9.63933
G1 X135.231 Y149.707 E9.66995
G1 X134.411 Y150.125 E9.70056
G1 X133.557 Y150.47 E9.73119
G1 X132.677 Y150.74 E9.76181
G1 X131.777 Y150.932 E9.79242
G1 X130.863 Y151.045 E9.82305
G1 X130.31 Y151.075 E9.84147
G1 X129.547 Y151.092 E9.86685
G1 X125.599 Y151.091 E9.99816
G1 X124.894 Y151.081 E10.02161
G1 X123.975 Y151.028 E10.05223
G1 X123.063 Y150.895 E10.08288
G1 X122.167 Y150.684 E10.1135
G1 X121.293 Y150.396 E10.14411
G1 X120.447 Y150.033 E10.17473
G1 X119.635 Y149.598 E10.20536
G1 X118.865 Y149.095 E10.23595
G1 X118.141 Y148.526 E10.26658
G1 X117.334 Y147.756 E10.30368
G1 X116.423 Y146.79 E10.34784
G1 X114.571 Y144.857 E10.43688
G1 X112.766 Y143.078 E10.52117
G1 X110.929 Y141.366 E10.60469
G1 X109.027 Y139.693 E10.68894
G1 X107.063 Y138.06 E10.7739
G1 X105.109 Y136.527 E10.8565
G1 X103.045 Y135.001 E10.94187
G1 X100.982 Y133.564 E11.0255
G1 X98.874 Y132.181 E11.10935
G1 X96.728 Y130.86 E11.19317
G1 X95.831 Y130.345 E11.22757
G1 X94.614 Y129.627 E11.27456
G1 X93.842 Y129.125 E11.30519
G1 X93.116 Y128.558 E11.33583
G1 X92.443 Y127.93 E11.36645
G1 X91.827 Y127.246 E11.39706
G1 X91.272 Y126.512 E11.42767
G1 X90.783 Y125.732 E11.45829
G1 X90.363 Y124.912 E11.48893
G1 X90.016 Y124.059 E11.51956
G1 X89.745 Y123.18 E11.55015
G1 X89.551 Y122.28 E11.58078
G1 X89.436 Y121.366 E11.61141
G1 X89.404 Y120.794 E11.63047
G1 X89.374 Y119.568 E11.67126
G1 X89.375 Y93.049 E12.55328
G1 X89.385 Y92.345 E12.5767
G1 X89.416 Y91.675 E12.59901
G1 X89.448 Y91.263 E12.61275
G1 X89.559 Y90.349 E12.64338
G1 X89.693 Y89.678 E12.66614
G1 X89.793 Y89.249 E12.68079
G1 X90.04 Y88.362 E12.71141
G1 X90.305 Y87.642 E12.73693
G1 X90.541 Y87.065 E12.75766
G1 X90.926 Y86.229 E12.78828
G1 X91.192 Y85.744 E12.80667
G1 X91.33 Y85.507 E12.81579
G1 X91.827 Y84.732 E12.84642
G1 X92.183 Y84.257 E12.86616
G1 X92.458 Y83.91 E12.88089
G1 X93.27 Y82.999 E12.92147
G1 X93.492 Y82.777 E12.93192
G1 X94.409 Y81.96 E12.97277
G1 X94.687 Y81.74 E12.98456
G1 X95.34 Y81.263 E13.01145
G1 X95.518 Y81.143 E13.01859
G1 X96.682 Y80.461 E13.06346
G1 X97.05 Y80.276 E13.07716
G1 X97.89 Y79.899 E13.10779
G1 X98.361 Y79.724 E13.1245
G1 X98.727 Y79.598 E13.13737
G1 X99.503 Y79.364 E13.16433
G1 X99.714 Y79.309 E13.17158
G1 X100.614 Y79.115 E13.2022
G1 X101.238 Y79.029 E13.22316
G1 X101.568 Y78.993 E13.2342
G1 X102.087 Y78.949 E13.25152
G1 X102.638 Y78.921 E13.26987
G1 X103.292 Y78.907 E13.29163
G1 X126.471 Y78.908 E14.06256
G1 X127.308 Y78.925 E14.09041
G0 F6000 X127.325 Y78.526
G1 F1200 X127.757 Y78.545 E14.10479
G1 X128.497 Y78.602 E14.12948
G1 X128.783 Y78.634 E14.13905
G1 X129.71 Y78.778 E14.17025
G1 X130.509 Y78.969 E14.19757
G1 X130.872 Y79.07 E14.21011
G1 X132.043 Y79.468 E14.25124
G1 X132.35 Y79.592 E14.26225
G1 X133 Y79.879 E14.28589
G1 X133.187 Y79.969 E14.29279
G1 X134.177 Y80.51 E14.33031
G1 X134.382 Y80.636 E14.33832
G1 X135.382 Y81.329 E14.37878
G1 X135.744 Y81.611 E14.39404
G1 X136.459 Y82.219 E14.42526
G1 X137.116 Y82.882 E14.4563
G1 X137.402 Y83.196 E14.47043
G1 X138.121 Y84.072 E14.50812
G1 X138.394 Y84.442 E14.52342
G1 X138.919 Y85.22 E14.55464
G1 X139.279 Y85.854 E14.57888
G1 X139.391 Y86.067 E14.58689
G1 X139.928 Y87.253 E14.63019
G1 X140.098 Y87.697 E14.646
G1 X140.366 Y88.486 E14.67372
G1 X140.434 Y88.714 E14.68163
G1 X140.748 Y90.081 E14.72828
G1 X140.785 Y90.307 E14.7359
G1 X140.898 Y91.247 E14.76739
G1 X140.926 Y91.614 E14.77963
G1 X140.959 Y92.277 E14.80171
G1 X140.968 Y92.81 E14.81944
G1 X140.967 Y98.724 E15.01614
G1 X140.955 Y99.539 E15.04325
G1 X140.967 Y103.059 E15.16033
G1 X141.009 Y105.927 E15.25573
G1 X141.025 Y106.597 E15.27802
G1 X141.026 Y107.626 E15.31224
G1 X141.025 Y139.907 E16.38591
G1 X141.015 Y140.631 E16.40999
G1 X140.962 Y141.567 E16.44118
G1 X140.83 Y142.496 E16.47238
G1 X140.618 Y143.41 E16.50359
G1 X140.33 Y144.302 E16.53477
G1 X139.967 Y145.167 E16.56597
G1 X139.532 Y145.997 E16.59714
G1 X139.027 Y146.788 E16.62835
G1 X138.457 Y147.533 E16.65955
G1 X137.825 Y148.226 E16.69074
G1 X137.137 Y148.863 E16.72193
G1 X136.397 Y149.439 E16.75312
G1 X135.61 Y149.95 E16.78433
G1 X134.783 Y150.392 E16.81552
G1 X133.922 Y150.762 E16.84669
G1 X133.031 Y151.058 E16.87791
G1 X132.119 Y151.276 E16.9091
G1 X131.192 Y151.416 E16.94028
G1 X130.321 Y151.475 E16.96932
G1 X129.547 Y151.492 E16.99507
G1 X125.593 Y151.491 E17.12658
G1 X124.888 Y151.481 E17.15003
G1 X123.952 Y151.428 E17.18121
G1 X123.023 Y151.295 E17.21242
G1 X122.109 Y151.083 E17.24363
G1 X121.217 Y150.795 E17.27481
G1 X120.353 Y150.431 E17.30599
G1 X119.522 Y149.996 E17.33719
G1 X118.732 Y149.491 E17.36837
G1 X117.987 Y148.92 E17.39959
G1 X117.043 Y148.031 E17.44272
G1 X116.075 Y147.005 E17.48964
G1 X114.284 Y145.136 E17.57573
G1 X112.495 Y143.373 E17.65927
G1 X110.658 Y141.661 E17.74279
G1 X108.749 Y139.982 E17.82735
G1 X106.827 Y138.384 E17.91048
G1 X104.848 Y136.831 E17.99415
G1 X102.808 Y135.322 E18.07855
G1 X100.781 Y133.911 E18.16069
G1 X98.641 Y132.507 E18.24582
G1 X96.534 Y131.21 E18.32811
G1 X95.628 Y130.689 E18.36287
G1 X94.411 Y129.971 E18.40987
G1 X93.624 Y129.46 E18.44108
G1 X92.883 Y128.885 E18.47228
G1 X92.195 Y128.248 E18.50346
G1 X91.563 Y127.555 E18.53466
G1 X90.992 Y126.811 E18.56585
G1 X90.487 Y126.02 E18.59706
G1 X90.051 Y125.19 E18.62825
G1 X89.688 Y124.326 E18.65942
G1 X89.399 Y123.433 E18.69063
G1 X89.188 Y122.519 E18.72183
G1 X89.055 Y121.591 E18.75301
G1 X89.004 Y120.805 E18.77921
G1 X88.974 Y119.568 E18.82037
G1 X88.975 Y93.044 E19.70256
G1 X88.985 Y92.34 E19.72598
G1 X89.017 Y91.644 E19.74915
G1 X89.049 Y91.232 E19.76289
G1 X89.161 Y90.301 E19.79408
G1 X89.303 Y89.587 E19.8183
G1 X89.403 Y89.158 E19.83295
G1 X89.655 Y88.254 E19.86416
G1 X89.935 Y87.491 E19.89119
G1 X90.171 Y86.914 E19.91193
G1 X90.562 Y86.062 E19.94311
G1 X90.846 Y85.543 E19.96278
G1 X90.984 Y85.306 E19.9719
G1 X91.49 Y84.516 E20.00311
G1 X91.869 Y84.009 E20.02416
G1 X92.144 Y83.662 E20.03889
G1 X92.987 Y82.716 E20.08103
G1 X93.209 Y82.494 E20.09147
G1 X94.161 Y81.646 E20.13388
G1 X94.439 Y81.426 E20.14567
G1 X95.116 Y80.931 E20.17356
G1 X95.294 Y80.811 E20.1807
G1 X96.502 Y80.104 E20.22726
G1 X96.87 Y79.919 E20.24096
G1 X97.725 Y79.534 E20.27214
G1 X98.23 Y79.346 E20.29007
G1 X98.596 Y79.22 E20.30294
G1 X99.402 Y78.977 E20.33094
G1 X99.613 Y78.922 E20.33819
G1 X100.53 Y78.724 E20.3694
G1 X101.195 Y78.631 E20.39173
G1 X101.525 Y78.595 E20.40277
G1 X102.063 Y78.55 E20.42073
G1 X102.627 Y78.521 E20.43951
G1 X103.292 Y78.507 E20.46163
G1 X126.477 Y78.508 E21.23277
G1 X127.325 Y78.526 E21.26098
G1 F2700 E16.26098
;MESH:IKEA_BROR_PAN_HOLDER.stl
G0 F6000 X126.991 Y88.842
G0 X126.991 Y89.927
G0 X128.448 Y90.83
G0 X128.92 Y91.417
G0 X129.172 Y92.142
G0 X129.186 Y98.519
G0 X106.958 Y98.875
G0 X106.958 Y100.927
G0 X128.669 Y101.307
G0 X128.982 Y101.486
G0 X129.168 Y101.812
G0 X129.256 Y107.707
G0 X129.244 Y139.71
G0 X125.628 Y139.892
;TYPE:WALL-INNER
G1 F2700 E21.26098
G1 F1200 X125.628 Y120.09 E21.9196
G1 X125.628 Y119.891 E21.92622
G1 X125.429 Y119.891 E21.9305
G1 X100.773 Y119.894 E22.75056
G1 X100.574 Y119.894 E22.75718
G1 X100.574 Y119.695 E22.76146
G1 X100.574 Y92.513 E23.66554
G1 X100.601 Y92.172 E23.67691
G1 X100.619 Y92.048 E23.68108
G1 X100.7 Y91.756 E23.69116
G1 X100.737 Y91.65 E23.6949
G1 X100.871 Y91.355 E23.70567
G1 X100.922 Y91.258 E23.70932
G1 X101.095 Y91.012 E23.71932
G1 X101.172 Y90.921 E23.72328
G1 X101.391 Y90.702 E23.73359
G1 X101.48 Y90.626 E23.73748
G1 X101.732 Y90.448 E23.74774
G1 X101.834 Y90.392 E23.75161
G1 X102.107 Y90.26 E23.7617
G1 X102.203 Y90.23 E23.76504
G1 X102.527 Y90.142 E23.77621
G1 X102.619 Y90.13 E23.77929
G1 X102.944 Y90.107 E23.79013
G1 X126.996 Y90.107 E24.5901
G1 X127.322 Y90.128 E24.60097
G1 X127.42 Y90.14 E24.60425
G1 X127.725 Y90.224 E24.61477
G1 X127.821 Y90.256 E24.61814
G1 X128.118 Y90.392 E24.629
G1 X128.209 Y90.443 E24.63247
G1 X128.462 Y90.621 E24.64276
G1 X128.559 Y90.699 E24.6469
G1 X128.766 Y90.907 E24.65666
G1 X128.853 Y91.013 E24.66122
G1 X129.025 Y91.256 E24.67113
G1 X129.071 Y91.337 E24.67422
G1 X129.214 Y91.648 E24.68561
G1 X129.246 Y91.743 E24.68894
G1 X129.331 Y92.043 E24.69931
G1 X129.342 Y92.13 E24.70223
G1 X129.368 Y92.469 E24.71354
G1 X129.368 Y98.701 E24.92082
G1 X106.786 Y98.703 E25.6719
G1 X106.786 Y101.098 E25.75155
G1 X111.209 Y101.105 E25.89866
G1 X128.492 Y101.11 E26.4735
G1 X128.549 Y101.12 E26.47542
G1 X128.713 Y101.14 E26.48092
G1 X128.922 Y101.226 E26.48844
G1 X129.106 Y101.366 E26.49613
G1 X129.242 Y101.549 E26.50371
G1 X129.334 Y101.767 E26.51158
G1 X129.367 Y102.034 E26.52053
G1 X129.368 Y106.879 E26.68167
G1 X129.425 Y106.879 E26.68357
G1 X129.426 Y107.707 E26.71111
G1 X129.426 Y139.892 E27.78159
G1 X125.628 Y139.892 E27.90791
G0 F6000 X125.228 Y140.292
;TYPE:WALL-OUTER
G1 F1200 X125.228 Y120.291 E28.57314
G1 X100.174 Y120.294 E29.40644
G1 X100.174 Y92.495 E30.33104
G1 X100.203 Y92.124 E30.34342
G1 X100.226 Y91.971 E30.34856
G1 X100.319 Y91.636 E30.36013
G1 X100.366 Y91.499 E30.36494
G1 X100.511 Y91.18 E30.3766
G1 X100.58 Y91.05 E30.38149
G1 X100.78 Y90.765 E30.39307
G1 X100.874 Y90.655 E30.39789
G1 X101.125 Y90.403 E30.40972
G1 X101.237 Y90.308 E30.4146
G1 X101.517 Y90.11 E30.42601
G1 X101.652 Y90.035 E30.43114
G1 X101.956 Y89.889 E30.44236
G1 X102.098 Y89.844 E30.44732
G1 X102.444 Y89.75 E30.45924
G1 X102.586 Y89.731 E30.46401
G1 X102.93 Y89.707 E30.47548
G1 X127.005 Y89.707 E31.27621
G1 X127.366 Y89.73 E31.28824
G1 X127.5 Y89.747 E31.29274
G1 X127.831 Y89.838 E31.30415
G1 X127.969 Y89.884 E31.30899
G1 X128.302 Y90.037 E31.32118
G1 X128.422 Y90.104 E31.32575
G1 X128.701 Y90.3 E31.33709
G1 X128.826 Y90.401 E31.34244
G1 X129.066 Y90.642 E31.35375
G1 X129.167 Y90.765 E31.35904
G1 X129.365 Y91.044 E31.37042
G1 X129.431 Y91.161 E31.37489
G1 X129.583 Y91.492 E31.38701
G1 X129.629 Y91.626 E31.39172
G1 X129.724 Y91.965 E31.40343
G1 X129.741 Y92.099 E31.40792
G1 X129.768 Y92.451 E31.41966
G1 X129.768 Y99.101 E31.64084
G1 X107.186 Y99.103 E32.39192
