;FLAVOR:Marlin
;TIME:6078
;Filament used: 3.9118m
;Layer height: 0.2
;MINX:86.252
;MINY:66.272
;MINZ:0.2
;MAXX:138.293
;MAXY:139.235
;MAXZ:60.2
;Generated with Cura_SteamEngine 4.6.1
M140 S55
M105
M190 S55
M104 S210
M105
M109 S210
M82 ;absolute extrusion mode
; Ender 3 Custom Start G-code
G92 E0 ; Reset Extruder
G28 ; Home all axes
G1 Z2.0 F3000 ; Move Z Axis up little to prevent scratching of Heat Bed
G1 X0.1 Y20 Z0.3 F5000.0 ; Move to start position
G1 X0.1 Y200.0 Z0.3 F1500.0 E15 ; Draw the first line
G1 X0.4 Y200.0 Z0.3 F5000.0 ; Move to side a little
G1 X0.4 Y20 Z0.3 F1500.0 E30 ; Draw the second line
G92 E0 ; Reset Extruder
G1 Z2.0 F3000 ; Move Z Axis up little to prevent scratching of Heat Bed
G1 X5 Y20 Z0.3 F5000.0 ; Move over to prevent blob squish
G92 E0
G92 E0
G1 F2700 E-5
;LAYER_COUNT:301
;LAYER:0
M107
G0 F6000 X124.668 Y67.091 Z0.2
;TYPE:SKIRT
G1 F2700 E0
G1 F1200 X125.203 Y67.113 E0.01781
G1 X126.103 Y67.19 E0.04785
G1 X127.204 Y67.395 E0.0851
G1 X127.466 Y67.459 E0.09407
G1 X128.333 Y67.712 E0.12411
G1 X128.827 Y67.895 E0.14163
G1 X129.313 Y68.089 E0.15904
G1 X130.048 Y68.416 E0.18579
G1 X130.287 Y68.534 E0.19466
G1 X131.078 Y68.969 E0.22468
G1 X131.639 Y69.337 E0.247
G1 X131.993 Y69.586 E0.26139
G1 X132.614 Y70.059 E0.28736
G1 X132.785 Y70.2 E0.29473
G1 X133.584 Y70.933 E0.33079
G1 X133.773 Y71.126 E0.33978
G1 X134.375 Y71.799 E0.36981
G1 X134.718 Y72.242 E0.38844
G1 X134.982 Y72.603 E0.40332
G1 X135.63 Y73.608 E0.44309
G1 X135.752 Y73.824 E0.45134
G1 X136.16 Y74.626 E0.48127
G1 X136.361 Y75.069 E0.49745
G1 X136.697 Y75.907 E0.52748
G1 X136.885 Y76.502 E0.54823
G1 X136.991 Y76.876 E0.56116
G1 X137.199 Y77.755 E0.59121
G1 X137.324 Y78.608 E0.61988
G1 X137.37 Y79.053 E0.63476
G1 X137.409 Y79.555 E0.65151
G1 X137.43 Y79.946 E0.66453
G1 X137.445 Y80.491 E0.68266
G1 X137.435 Y89.007 E0.96591
G1 X137.445 Y90.054 E1.00073
G1 X137.445 Y91.161 E1.03755
G1 X137.489 Y94.206 E1.13884
G1 X137.493 Y127.625 E2.25036
G1 X137.484 Y128.352 E2.27454
G1 X137.433 Y129.254 E2.30459
G1 X137.302 Y130.148 E2.33464
G1 X137.093 Y131.026 E2.36466
G1 X136.807 Y131.883 E2.39471
G1 X136.446 Y132.711 E2.42475
G1 X136.014 Y133.503 E2.45476
G1 X135.513 Y134.255 E2.48481
G1 X134.947 Y134.959 E2.51486
G1 X134.322 Y135.61 E2.54487
G1 X133.641 Y136.204 E2.57493
G1 X132.91 Y136.735 E2.60498
G1 X132.136 Y137.199 E2.63499
G1 X131.323 Y137.593 E2.66504
G1 X130.479 Y137.913 E2.69506
G1 X129.609 Y138.158 E2.72513
G1 X128.722 Y138.324 E2.75514
G1 X127.571 Y138.422 E2.79356
G1 X126.964 Y138.435 E2.81375
G1 X122.861 Y138.434 E2.95022
G1 X122.159 Y138.424 E2.97357
G1 X121.257 Y138.371 E3.00362
G1 X120.364 Y138.239 E3.03365
G1 X119.486 Y138.028 E3.06368
G1 X118.63 Y137.74 E3.09372
G1 X117.802 Y137.378 E3.12378
G1 X117.01 Y136.944 E3.15381
G1 X116.26 Y136.441 E3.18385
G1 X115.557 Y135.875 E3.21387
G1 X114.847 Y135.185 E3.2468
G1 X113.048 Y133.258 E3.33448
G1 X111.265 Y131.45 E3.41894
G1 X109.429 Y129.691 E3.5035
G1 X107.534 Y127.977 E3.58849
G1 X105.613 Y126.333 E3.67259
G1 X103.648 Y124.748 E3.75655
G1 X101.628 Y123.212 E3.84096
G1 X99.563 Y121.729 E3.92551
G1 X97.449 Y120.3 E4.01038
G1 X95.312 Y118.943 E4.09458
G1 X93.073 Y117.608 E4.18128
G1 X92.156 Y117.078 E4.21651
G1 X91.395 Y116.592 E4.24654
G1 X90.68 Y116.04 E4.27658
G1 X90.017 Y115.427 E4.30662
G1 X89.41 Y114.758 E4.33666
G1 X88.865 Y114.038 E4.3667
G1 X88.385 Y113.273 E4.39673
G1 X87.976 Y112.468 E4.42677
G1 X87.639 Y111.63 E4.45681
G1 X87.377 Y110.766 E4.48684
G1 X87.193 Y109.882 E4.51687
G1 X87.088 Y108.985 E4.54691
G1 X87.065 Y108.532 E4.56199
G1 X87.052 Y107.925 E4.58219
G1 X87.053 Y80.78 E5.48503
G1 X87.06 Y80.282 E5.5016
G1 X87.07 Y79.945 E5.51281
G1 X87.096 Y79.393 E5.53119
G1 X87.179 Y78.494 E5.56122
G1 X87.323 Y77.683 E5.58862
G1 X87.434 Y77.178 E5.60581
G1 X87.804 Y75.899 E5.6501
G1 X87.936 Y75.534 E5.66301
G1 X88.28 Y74.699 E5.69304
G1 X88.79 Y73.741 E5.72914
G1 X89.126 Y73.183 E5.7508
G1 X89.626 Y72.431 E5.78084
G1 X89.97 Y71.986 E5.79955
G1 X90.105 Y71.821 E5.80664
G1 X90.732 Y71.122 E5.83787
G1 X90.996 Y70.854 E5.85038
G1 X92.005 Y69.957 E5.89529
G1 X92.368 Y69.675 E5.91057
G1 X93.105 Y69.153 E5.94061
G1 X93.684 Y68.807 E5.96305
G1 X93.888 Y68.694 E5.9708
G1 X94.68 Y68.299 E6.00024
G1 X94.918 Y68.193 E6.0089
G1 X95.842 Y67.834 E6.04188
G1 X96.454 Y67.63 E6.06333
G1 X97.323 Y67.383 E6.09338
G1 X98.21 Y67.213 E6.12342
G1 X99.442 Y67.11 E6.16454
G1 X101.181 Y67.072 E6.22239
G1 X123.72 Y67.073 E6.97204
G1 X124.668 Y67.091 E7.00358
G0 F6000 X124.685 Y66.691
G1 F1200 X125.22 Y66.713 E7.02139
G1 X126.137 Y66.791 E7.052
G1 X127.299 Y67.007 E7.09131
G1 X127.561 Y67.071 E7.10028
G1 X128.445 Y67.328 E7.1309
G1 X128.976 Y67.523 E7.14971
G1 X129.462 Y67.717 E7.16711
G1 X130.225 Y68.057 E7.1949
G1 X130.464 Y68.175 E7.20376
G1 X131.271 Y68.618 E7.23438
G1 X131.869 Y69.01 E7.25816
G1 X132.223 Y69.259 E7.27256
G1 X132.869 Y69.751 E7.29957
G1 X133.04 Y69.892 E7.30694
G1 X133.869 Y70.654 E7.34439
G1 X134.058 Y70.847 E7.35337
G1 X134.673 Y71.532 E7.38399
G1 X135.041 Y72.006 E7.40395
G1 X135.305 Y72.367 E7.41883
G1 X135.979 Y73.411 E7.46016
G1 X136.101 Y73.627 E7.46841
G1 X136.524 Y74.46 E7.49948
G1 X136.725 Y74.903 E7.51566
G1 X137.068 Y75.757 E7.54627
G1 X137.27 Y76.393 E7.56847
G1 X137.376 Y76.767 E7.5814
G1 X137.589 Y77.662 E7.61199
G1 X137.722 Y78.567 E7.64242
G1 X137.768 Y79.012 E7.6573
G1 X137.809 Y79.534 E7.67471
G1 X137.83 Y79.925 E7.68774
G1 X137.845 Y80.491 E7.70657
G1 X137.835 Y89.003 E7.98968
G1 X137.845 Y90.05 E8.0245
G1 X137.845 Y91.155 E8.06126
G1 X137.889 Y94.206 E8.16274
G1 X137.893 Y127.63 E9.27443
G1 X137.884 Y128.357 E9.29861
G1 X137.833 Y129.276 E9.32923
G1 X137.702 Y130.188 E9.35987
G1 X137.492 Y131.084 E9.39048
G1 X137.206 Y131.959 E9.4211
G1 X136.845 Y132.806 E9.45172
G1 X136.411 Y133.618 E9.48234
G1 X135.909 Y134.39 E9.51297
G1 X135.341 Y135.115 E9.5436
G1 X134.713 Y135.788 E9.57422
G1 X134.029 Y136.404 E9.60484
G1 X133.294 Y136.958 E9.63545
G1 X132.514 Y137.447 E9.66607
G1 X131.694 Y137.866 E9.69669
G1 X130.841 Y138.212 E9.72731
G1 X129.961 Y138.483 E9.75794
G1 X129.061 Y138.676 E9.78855
G1 X128.147 Y138.791 E9.81919
G1 X127.582 Y138.822 E9.83801
G1 X126.964 Y138.835 E9.85857
G1 X122.855 Y138.834 E9.99524
G1 X122.153 Y138.824 E10.01859
G1 X121.234 Y138.771 E10.0492
G1 X120.323 Y138.638 E10.07982
G1 X119.427 Y138.427 E10.11044
G1 X118.552 Y138.139 E10.14108
G1 X117.706 Y137.776 E10.1717
G1 X116.895 Y137.341 E10.20231
G1 X116.124 Y136.837 E10.23294
G1 X115.4 Y136.269 E10.26355
G1 X114.555 Y135.458 E10.30251
G1 X112.772 Y133.548 E10.38941
G1 X110.968 Y131.72 E10.47483
G1 X109.168 Y129.994 E10.55778
G1 X107.287 Y128.292 E10.64215
G1 X105.351 Y126.635 E10.7269
G1 X103.4 Y125.063 E10.81024
G1 X101.392 Y123.535 E10.89416
G1 X99.31 Y122.041 E10.97939
G1 X97.241 Y120.642 E11.06246
G1 X95.114 Y119.292 E11.14625
G1 X92.819 Y117.923 E11.23513
G1 X91.956 Y117.424 E11.26829
G1 X91.18 Y116.929 E11.29891
G1 X90.449 Y116.369 E11.32953
G1 X89.77 Y115.747 E11.36016
G1 X89.148 Y115.069 E11.39076
G1 X88.586 Y114.339 E11.4214
G1 X88.091 Y113.563 E11.45202
G1 X87.664 Y112.748 E11.48262
G1 X87.31 Y111.898 E11.51324
G1 X87.03 Y111.021 E11.54386
G1 X86.828 Y110.122 E11.57451
G1 X86.705 Y109.21 E11.60512
G1 X86.665 Y108.543 E11.62734
G1 X86.652 Y107.925 E11.6479
G1 X86.653 Y80.774 E12.55095
G1 X86.66 Y80.276 E12.56751
G1 X86.671 Y79.926 E12.57916
G1 X86.697 Y79.374 E12.59754
G1 X86.78 Y78.457 E12.62816
G1 X86.932 Y77.597 E12.65721
G1 X87.043 Y77.092 E12.67441
G1 X87.28 Y76.203 E12.70501
G1 X87.428 Y75.763 E12.72045
G1 X87.56 Y75.398 E12.73336
G1 X87.91 Y74.547 E12.76396
G1 X88.447 Y73.535 E12.80207
G1 X88.783 Y72.977 E12.82373
G1 X89.292 Y72.21 E12.85435
G1 X89.66 Y71.733 E12.87439
G1 X89.795 Y71.568 E12.88148
G1 X90.448 Y70.841 E12.91398
G1 X90.712 Y70.573 E12.92649
G1 X91.385 Y69.946 E12.95709
G1 X91.76 Y69.641 E12.97316
G1 X92.123 Y69.359 E12.98845
G1 X92.874 Y68.826 E13.01908
G1 X93.49 Y68.458 E13.04295
G1 X93.694 Y68.345 E13.0507
G1 X94.517 Y67.934 E13.0813
G1 X94.755 Y67.828 E13.08997
G1 X95.716 Y67.455 E13.12425
G1 X96.328 Y67.251 E13.14571
G1 X97.213 Y66.998 E13.17632
G1 X98.117 Y66.823 E13.20695
G1 X99.433 Y66.71 E13.25088
G1 X101.181 Y66.672 E13.30903
G1 X123.726 Y66.673 E14.05888
G1 X124.685 Y66.691 E14.09078
G0 F6000 X124.701 Y66.291
G1 F1200 X125.236 Y66.313 E14.10859
G1 X126.171 Y66.392 E14.1398
G1 X127.394 Y66.618 E14.18117
G1 X127.656 Y66.682 E14.19014
G1 X128.557 Y66.943 E14.22134
G1 X129.124 Y67.152 E14.24144
G1 X129.61 Y67.346 E14.25884
G1 X130.402 Y67.699 E14.28768
G1 X130.641 Y67.817 E14.29655
G1 X131.463 Y68.267 E14.32771
G1 X132.1 Y68.683 E14.35302
G1 X132.454 Y68.932 E14.36741
G1 X133.123 Y69.442 E14.39539
G1 X133.294 Y69.583 E14.40276
G1 X134.155 Y70.374 E14.44165
G1 X134.344 Y70.567 E14.45064
G1 X134.971 Y71.264 E14.48182
G1 X135.364 Y71.77 E14.50313
G1 X135.628 Y72.131 E14.518
G1 X136.327 Y73.214 E14.56087
G1 X136.449 Y73.43 E14.56913
G1 X136.888 Y74.295 E14.60139
G1 X137.089 Y74.738 E14.61757
G1 X137.44 Y75.608 E14.64877
G1 X137.655 Y76.283 E14.67233
G1 X137.761 Y76.657 E14.68526
G1 X137.978 Y77.57 E14.71648
G1 X138.12 Y78.526 E14.74862
G1 X138.166 Y78.971 E14.7635
G1 X138.208 Y79.512 E14.78155
G1 X138.229 Y79.903 E14.79457
G1 X138.245 Y80.491 E14.81414
G1 X138.235 Y89.131 E15.1015
G1 X138.245 Y90.151 E15.13543
G1 X138.245 Y91.149 E15.16862
G1 X138.289 Y94.206 E15.27031
G1 X138.293 Y127.635 E16.38216
G1 X138.284 Y128.362 E16.40635
G1 X138.233 Y129.299 E16.43756
G1 X138.101 Y130.227 E16.46873
G1 X137.892 Y131.141 E16.49992
G1 X137.605 Y132.034 E16.53111
G1 X137.243 Y132.9 E16.56233
G1 X136.809 Y133.731 E16.59351
G1 X136.305 Y134.522 E16.62471
G1 X135.736 Y135.267 E16.65589
G1 X135.105 Y135.962 E16.68711
G1 X134.418 Y136.6 E16.71829
G1 X133.679 Y137.177 E16.74948
G1 X132.893 Y137.689 E16.78068
G1 X132.067 Y138.132 E16.81185
G1 X131.205 Y138.504 E16.84308
G1 X130.316 Y138.8 E16.87424
G1 X129.404 Y139.02 E16.90545
G1 X128.477 Y139.161 E16.93663
G1 X127.593 Y139.222 E16.96611
G1 X126.964 Y139.235 E16.98703
G1 X122.849 Y139.234 E17.1239
G1 X122.147 Y139.224 E17.14725
G1 X121.211 Y139.171 E17.17843
G1 X120.283 Y139.038 E17.20961
G1 X119.369 Y138.826 E17.24082
G1 X118.476 Y138.538 E17.27202
G1 X117.612 Y138.174 E17.30321
G1 X116.781 Y137.738 E17.33442
G1 X115.991 Y137.233 E17.3656
G1 X115.247 Y136.663 E17.39678
G1 X114.263 Y135.731 E17.44185
G1 X112.478 Y133.819 E17.52885
G1 X110.708 Y132.024 E17.6127
G1 X108.886 Y130.278 E17.69663
G1 X107.024 Y128.594 E17.78013
G1 X105.102 Y126.949 E17.86428
G1 X103.152 Y125.377 E17.94758
G1 X101.145 Y123.85 E18.03146
G1 X99.099 Y122.382 E18.11522
G1 X97.024 Y120.979 E18.19853
G1 X94.858 Y119.604 E18.28386
G1 X92.653 Y118.288 E18.36926
G1 X91.756 Y117.77 E18.40372
G1 X90.965 Y117.267 E18.43489
G1 X90.219 Y116.698 E18.4661
G1 X89.525 Y116.067 E18.4973
G1 X88.887 Y115.38 E18.52848
G1 X88.31 Y114.64 E18.55969
G1 X87.798 Y113.855 E18.59086
G1 X87.354 Y113.028 E18.62208
G1 X86.983 Y112.167 E18.65326
G1 X86.687 Y111.277 E18.68446
G1 X86.467 Y110.365 E18.71566
G1 X86.326 Y109.438 E18.74685
G1 X86.265 Y108.554 E18.77632
G1 X86.252 Y107.925 E18.79725
G1 X86.253 Y80.768 E19.70049
G1 X86.26 Y80.27 E19.71706
G1 X86.271 Y79.907 E19.72914
G1 X86.297 Y79.355 E19.74752
G1 X86.381 Y78.421 E19.77871
G1 X86.541 Y77.512 E19.80941
G1 X86.652 Y77.007 E19.8266
G1 X86.893 Y76.1 E19.85782
G1 X87.052 Y75.627 E19.87441
G1 X87.184 Y75.262 E19.88732
G1 X87.54 Y74.394 E19.91853
G1 X88.105 Y73.329 E19.95862
G1 X88.441 Y72.771 E19.98029
G1 X88.958 Y71.989 E20.01147
G1 X89.35 Y71.479 E20.03286
G1 X89.485 Y71.314 E20.03995
G1 X90.163 Y70.561 E20.07365
G1 X90.427 Y70.293 E20.08617
G1 X91.113 Y69.653 E20.11737
G1 X91.515 Y69.325 E20.13463
G1 X91.878 Y69.043 E20.14992
G1 X92.642 Y68.5 E20.18109
G1 X93.296 Y68.108 E20.20645
G1 X93.5 Y67.995 E20.21421
G1 X94.355 Y67.569 E20.24598
G1 X94.593 Y67.463 E20.25464
G1 X95.589 Y67.075 E20.2902
G1 X96.201 Y66.871 E20.31165
G1 X97.103 Y66.613 E20.34286
G1 X98.023 Y66.432 E20.37404
G1 X99.424 Y66.31 E20.42082
G1 X101.181 Y66.272 E20.47927
G1 X123.732 Y66.273 E21.22932
G1 X124.701 Y66.291 E21.26155
G1 F2700 E16.26155
;MESH:Object 3
G0 F6000 X124.25 Y76.607
G0 X124.25 Y77.692
G0 X125.74 Y78.593
G0 X126.185 Y79.166
G0 X126.424 Y79.781
G0 X126.475 Y80.287
G0 X126.464 Y86.263
G0 X104.232 Y86.641
G0 X104.232 Y88.674
G0 X125.92 Y89.053
G0 X126.274 Y89.249
G0 X126.448 Y89.67
G0 X126.512 Y94.824
G0 X126.512 Y127.453
G0 X122.899 Y127.635
;TYPE:WALL-INNER
G1 F2700 E21.26155
G1 F1200 X122.899 Y107.655 E21.92609
G1 X97.852 Y107.655 E22.75916
G1 X97.852 Y80.239 E23.67102
G1 X97.873 Y79.914 E23.68185
G1 X97.888 Y79.81 E23.68534
G1 X97.968 Y79.506 E23.6958
G1 X98.003 Y79.401 E23.69948
G1 X98.12 Y79.129 E23.70933
G1 X98.362 Y78.764 E23.72389
G1 X98.435 Y78.677 E23.72767
G1 X98.661 Y78.449 E23.73835
G1 X98.748 Y78.379 E23.74206
G1 X98.991 Y78.196 E23.75218
G1 X99.059 Y78.162 E23.75471
G1 X99.527 Y77.961 E23.77165
G1 X99.747 Y77.898 E23.77926
G1 X99.849 Y77.898 E23.78265
G1 X100.241 Y77.872 E23.79572
G1 X124.255 Y77.872 E24.59443
G1 X124.615 Y77.895 E24.60643
G1 X124.726 Y77.895 E24.61012
G1 X124.95 Y77.954 E24.61782
G1 X125.055 Y78.007 E24.62174
G1 X125.478 Y78.192 E24.63709
G1 X125.738 Y78.386 E24.64788
G1 X125.847 Y78.459 E24.65224
G1 X126.03 Y78.642 E24.66085
G1 X126.1 Y78.748 E24.66508
G1 X126.297 Y79.01 E24.67598
G1 X126.336 Y79.086 E24.67882
G1 X126.482 Y79.427 E24.69116
G1 X126.536 Y79.535 E24.69517
G1 X126.595 Y79.758 E24.70285
G1 X126.595 Y79.888 E24.70717
G1 X126.646 Y80.277 E24.72022
G1 X126.646 Y86.445 E24.92537
G1 X111.839 Y86.447 E25.41785
G1 X108.195 Y86.469 E25.53905
G1 X104.06 Y86.469 E25.67658
G1 X104.06 Y88.846 E25.75564
G1 X108.473 Y88.851 E25.90242
G1 X125.653 Y88.851 E26.47383
G1 X125.721 Y88.873 E26.47621
G1 X125.861 Y88.875 E26.48086
G1 X125.968 Y88.886 E26.48444
G1 X126.045 Y88.924 E26.4873
G1 X126.202 Y88.977 E26.49281
G1 X126.245 Y89.012 E26.49465
G1 X126.393 Y89.123 E26.5008
G1 X126.413 Y89.147 E26.50184
G1 X126.505 Y89.295 E26.50764
G1 X126.544 Y89.375 E26.5106
G1 X126.592 Y89.518 E26.51562
G1 X126.619 Y89.652 E26.52016
G1 X126.619 Y89.767 E26.52399
G1 X126.645 Y89.842 E26.52663
G1 X126.646 Y94.642 E26.68628
G1 X126.694 Y94.642 E26.68787
G1 X126.694 Y127.635 E27.78523
G1 X122.899 Y127.635 E27.91145
G0 F6000 X122.499 Y128.035
;TYPE:WALL-OUTER
G1 F1200 X122.499 Y108.055 E28.57599
G1 X97.452 Y108.055 E29.40905
G1 X97.452 Y80.229 E30.33455
G1 X97.475 Y79.872 E30.34645
G1 X97.495 Y79.73 E30.35122
G1 X97.585 Y79.39 E30.36291
G1 X97.629 Y79.257 E30.36757
G1 X97.766 Y78.938 E30.37912
G1 X98.036 Y78.53 E30.39539
G1 X98.146 Y78.4 E30.40106
G1 X98.394 Y78.15 E30.41277
G1 X98.507 Y78.059 E30.41759
G1 X98.778 Y77.855 E30.42888
G1 X98.894 Y77.797 E30.43319
G1 X99.392 Y77.583 E30.45122
G1 X99.69 Y77.498 E30.46153
G1 X99.836 Y77.498 E30.46638
G1 X100.23 Y77.472 E30.47951
G1 X124.264 Y77.472 E31.27889
G1 X124.628 Y77.495 E31.29102
G1 X124.777 Y77.495 E31.29597
G1 X125.094 Y77.578 E31.30687
G1 X125.224 Y77.644 E31.31172
G1 X125.57 Y77.792 E31.32424
G1 X125.686 Y77.849 E31.32854
G1 X125.969 Y78.059 E31.34026
G1 X126.098 Y78.146 E31.34543
G1 X126.34 Y78.387 E31.35679
G1 X126.427 Y78.517 E31.362
G1 X126.64 Y78.802 E31.37383
G1 X126.697 Y78.913 E31.37798
G1 X126.845 Y79.259 E31.3905
G1 X126.911 Y79.392 E31.39544
G1 X126.995 Y79.707 E31.40628
G1 X126.995 Y79.862 E31.41143
G1 X127.046 Y80.248 E31.42438
G1 X127.046 Y86.845 E31.6438
G1 X111.84 Y86.847 E32.14955
G1 X108.197 Y86.869 E32.27072
G1 X104.46 Y86.869 E32.39502
G1 X104.46 Y88.446 E32.44747
G1 X108.473 Y88.451 E32.58094
G1 X125.717 Y88.451 E33.15448
G1 X125.787 Y88.474 E33.15693
G1 X125.884 Y88.475 E33.16016
G1 X126.081 Y88.495 E33.16674
G1 X126.199 Y88.554 E33.17113
G1 X126.398 Y88.621 E33.17811
G1 X126.491 Y88.696 E33.18209
G1 X126.672 Y88.832 E33.18962
G1 X126.739 Y88.914 E33.19314
G1 X126.855 Y89.101 E33.20046
G1 X126.914 Y89.219 E33.20485
G1 X126.979 Y89.412 E33.21162
G1 X127.019 Y89.614 E33.21847
G1 X127.019 Y89.7 E33.22133
G1 X127.045 Y89.776 E33.224
G1 X127.046 Y94.242 E33.37254
G1 X127.094 Y94.242 E33.37414
G1 X127.094 Y128.035 E34.4981
