;FLAVOR:Marlin
;TIME:4675
;Filament used: 2.90569m
;Layer height: 0.2
;MINX:88.974
;MINY:78.507
;MINZ:0.2
;MAXX:141.026
;MAXY:151.492
;MAXZ:39.2
;Generated with Cura_SteamEngine 4.6.1
M140 S50
M105
M190 S50
M104 S200
M105
M109 S200
M82 ;absolute extrusion mode
; Ender 3 Custom Start G-code
G92 E0 ; Reset Extruder
G28 ; Home all axes
G1 Z2.0 F3000 ; Move Z Axis up little to prevent scratching of Heat Bed
G1 X0.1 Y20 Z0.3 F5000.0 ; Move to start position
G1 X0.1 Y200.0 Z0.3 F1500.0 E15 ; Draw the first line
G1 X0.4 Y200.0 Z0.3 F5000.0 ; Move to side a little
G1 X0.4 Y20 Z0.3 F1500.0 E30 ; Draw the second line
G92 E0 ; Reset Extruder
G1 Z2.0 F3000 ; Move Z Axis up little to prevent scratching of Heat Bed
G1 X5 Y20 Z0.3 F5000.0 ; Move over to prevent blob squish
G92 E0
G92 E0
G1 F2700 E-5
;LAYER_COUNT:196
;LAYER:0
M107
G0 F6000 X127.406 Y79.326 Z0.2
;TYPE:SKIRT
G1 F2700 E0
G1 F1200 X127.768 Y79.342 E0.01205
G1 X128.668 Y79.422 E0.0421
G1 X129.375 Y79.542 E0.06596
G1 X130.05 Y79.681 E0.08888
G1 X130.926 Y79.902 E0.11893
G1 X131.678 Y80.16 E0.14537
G1 X131.9 Y80.246 E0.15329
G1 X132.948 Y80.722 E0.19157
G1 X133.326 Y80.92 E0.20576
G1 X134.425 Y81.587 E0.24852
G1 X134.656 Y81.748 E0.25789
G1 X135.297 Y82.233 E0.28462
G1 X135.476 Y82.38 E0.29233
G1 X136.201 Y83.036 E0.32484
G1 X136.458 Y83.292 E0.33691
G1 X137.069 Y83.958 E0.36697
G1 X137.388 Y84.357 E0.38396
G1 X137.667 Y84.725 E0.39932
G1 X138.18 Y85.468 E0.42935
G1 X138.666 Y86.332 E0.46232
G1 X138.928 Y86.857 E0.48184
G1 X139.295 Y87.683 E0.5119
G1 X139.569 Y88.476 E0.53981
G1 X139.734 Y89.025 E0.55887
G1 X139.956 Y89.901 E0.58893
G1 X140.08 Y90.64 E0.61385
G1 X140.112 Y90.885 E0.62207
G1 X140.171 Y91.466 E0.64149
G1 X140.187 Y91.686 E0.64883
G1 X140.213 Y92.271 E0.66831
G1 X140.226 Y93.215 E0.69971
G1 X140.225 Y119.898 E1.58719
G1 X140.215 Y120.625 E1.61137
G1 X140.163 Y121.527 E1.64142
G1 X140.031 Y122.42 E1.67144
G1 X139.82 Y123.299 E1.70151
G1 X139.533 Y124.155 E1.73154
G1 X139.171 Y124.982 E1.76156
G1 X138.737 Y125.774 E1.7916
G1 X138.235 Y126.525 E1.82165
G1 X137.669 Y127.228 E1.85167
G1 X137.042 Y127.879 E1.88173
G1 X136.361 Y128.471 E1.91174
G1 X135.357 Y129.175 E1.95252
G1 X134.913 Y129.443 E1.96977
G1 X133.065 Y130.51 E2.04075
G1 X130.918 Y131.834 E2.12464
G1 X128.804 Y133.22 E2.20872
G1 X126.71 Y134.68 E2.29362
G1 X124.654 Y136.201 E2.37869
G1 X122.686 Y137.745 E2.46188
G1 X120.699 Y139.398 E2.54785
G1 X118.805 Y141.065 E2.63177
G1 X116.952 Y142.791 E2.71599
G1 X115.144 Y144.575 E2.80047
G1 X113.241 Y146.562 E2.89198
G1 X112.434 Y147.43 E2.9314
G1 X111.79 Y148.064 E2.96146
G1 X111.093 Y148.638 E2.99149
G1 X110.348 Y149.148 E3.02152
G1 X109.56 Y149.59 E3.05157
G1 X108.737 Y149.96 E3.08158
G1 X107.884 Y150.257 E3.11162
G1 X107.008 Y150.477 E3.14166
G1 X106.116 Y150.618 E3.1717
G1 X105.249 Y150.679 E3.20061
G1 X104.642 Y150.692 E3.2208
G1 X100.549 Y150.691 E3.35694
G1 X99.851 Y150.682 E3.38015
G1 X98.95 Y150.631 E3.41017
G1 X98.056 Y150.499 E3.44023
G1 X97.178 Y150.29 E3.47024
G1 X96.321 Y150.003 E3.5003
G1 X95.494 Y149.642 E3.53032
G1 X94.701 Y149.209 E3.56037
G1 X93.95 Y148.708 E3.59039
G1 X93.246 Y148.142 E3.62044
G1 X92.595 Y147.516 E3.65048
G1 X92.002 Y146.835 E3.68051
G1 X91.472 Y146.104 E3.71054
G1 X91.008 Y145.329 E3.74058
G1 X90.614 Y144.516 E3.77063
G1 X90.294 Y143.672 E3.80065
G1 X90.05 Y142.802 E3.83071
G1 X89.884 Y141.914 E3.86075
G1 X89.787 Y140.759 E3.8993
G1 X89.774 Y140.15 E3.91956
G1 X89.775 Y106.842 E5.02739
G1 X89.802 Y105.002 E5.0886
G1 X89.823 Y104.27 E5.11296
G1 X89.837 Y102.291 E5.17878
G1 X89.832 Y99.001 E5.2882
G1 X89.833 Y93.017 E5.48723
G1 X89.85 Y92.185 E5.51491
G1 X89.87 Y91.733 E5.52996
G1 X89.928 Y91.01 E5.55408
G1 X89.958 Y90.751 E5.56276
G1 X90.101 Y89.86 E5.59277
G1 X90.364 Y88.851 E5.62745
G1 X90.535 Y88.31 E5.64632
G1 X90.92 Y87.288 E5.68265
G1 X91.027 Y87.044 E5.69151
G1 X91.417 Y86.25 E5.72093
G1 X91.529 Y86.045 E5.7287
G1 X92.13 Y85.077 E5.7666
G1 X92.318 Y84.809 E5.77748
G1 X92.869 Y84.094 E5.80751
G1 X93.188 Y83.732 E5.82356
G1 X93.557 Y83.334 E5.84161
G1 X94.2 Y82.7 E5.87164
G1 X94.998 Y82.049 E5.90589
G1 X95.454 Y81.714 E5.92471
G1 X96.205 Y81.212 E5.95476
G1 X96.796 Y80.878 E5.97734
G1 X97.53 Y80.515 E6.00457
G1 X97.8 Y80.395 E6.0144
G1 X98.877 Y79.988 E6.05269
G1 X99.245 Y79.872 E6.06553
G1 X100.398 Y79.581 E6.10508
G1 X100.707 Y79.522 E6.11554
G1 X101.601 Y79.392 E6.14559
G1 X102.085 Y79.355 E6.16173
G1 X102.599 Y79.328 E6.17885
G1 X103.006 Y79.315 E6.1924
G1 X103.693 Y79.307 E6.21525
G1 X126.479 Y79.308 E6.97311
G1 X127.406 Y79.326 E7.00395
G0 F6000 X127.424 Y78.926
G1 F1200 X127.786 Y78.942 E7.016
G1 X128.703 Y79.023 E7.04662
G1 X129.456 Y79.15 E7.07202
G1 X130.131 Y79.289 E7.09494
G1 X131.024 Y79.514 E7.12557
G1 X131.822 Y79.787 E7.15362
G1 X132.044 Y79.873 E7.16154
G1 X133.133 Y80.367 E7.20131
G1 X133.511 Y80.565 E7.21551
G1 X134.654 Y81.259 E7.25998
G1 X134.885 Y81.42 E7.26935
G1 X135.551 Y81.924 E7.29713
G1 X135.73 Y82.071 E7.30483
G1 X136.484 Y82.753 E7.33864
G1 X136.741 Y83.009 E7.35071
G1 X137.364 Y83.687 E7.38133
G1 X137.707 Y84.115 E7.39958
G1 X137.986 Y84.483 E7.41494
G1 X138.51 Y85.24 E7.44556
G1 X139.024 Y86.154 E7.48044
G1 X139.286 Y86.679 E7.49995
G1 X139.66 Y87.52 E7.53056
G1 X139.952 Y88.361 E7.56017
G1 X140.117 Y88.91 E7.57924
G1 X140.344 Y89.802 E7.60985
G1 X140.477 Y90.588 E7.63637
G1 X140.509 Y90.833 E7.64459
G1 X140.57 Y91.437 E7.66478
G1 X140.586 Y91.657 E7.67211
G1 X140.613 Y92.265 E7.69236
G1 X140.626 Y93.215 E7.72396
G1 X140.625 Y119.904 E8.61164
G1 X140.615 Y120.631 E8.63582
G1 X140.562 Y121.55 E8.66643
G1 X140.43 Y122.461 E8.69705
G1 X140.219 Y123.357 E8.72767
G1 X139.932 Y124.232 E8.7583
G1 X139.569 Y125.078 E8.78891
G1 X139.135 Y125.89 E8.81954
G1 X138.631 Y126.661 E8.85017
G1 X138.063 Y127.385 E8.88078
G1 X137.434 Y128.057 E8.91139
G1 X136.749 Y128.672 E8.94201
G1 X136.013 Y129.225 E8.97263
G1 X135.567 Y129.516 E8.99034
G1 X135.113 Y129.79 E9.00798
G1 X133.27 Y130.855 E9.07878
G1 X131.125 Y132.176 E9.16257
G1 X129.022 Y133.555 E9.24621
G1 X126.931 Y135.013 E9.33099
G1 X124.916 Y136.504 E9.41436
G1 X122.904 Y138.083 E9.49943
G1 X120.973 Y139.689 E9.58297
G1 X119.097 Y141.34 E9.66608
G1 X117.223 Y143.086 E9.75127
G1 X115.431 Y144.853 E9.83498
G1 X113.556 Y146.812 E9.92517
G1 X112.727 Y147.703 E9.96565
G1 X112.071 Y148.349 E9.99627
G1 X111.362 Y148.936 E10.02688
G1 X110.604 Y149.459 E10.05751
G1 X109.804 Y149.914 E10.08813
G1 X108.968 Y150.299 E10.11874
G1 X108.101 Y150.609 E10.14936
G1 X107.21 Y150.843 E10.18
G1 X106.303 Y150.998 E10.21061
G1 X105.26 Y151.079 E10.2454
G1 X104.642 Y151.092 E10.26596
G1 X100.544 Y151.091 E10.40226
G1 X99.846 Y151.082 E10.42548
G1 X98.927 Y151.03 E10.45609
G1 X98.016 Y150.899 E10.4867
G1 X97.12 Y150.689 E10.51731
G1 X96.245 Y150.402 E10.54794
G1 X95.398 Y150.04 E10.57858
G1 X94.586 Y149.606 E10.6092
G1 X93.815 Y149.104 E10.6398
G1 X93.09 Y148.536 E10.67043
G1 X92.417 Y147.907 E10.70107
G1 X91.802 Y147.223 E10.73166
G1 X91.248 Y146.488 E10.76228
G1 X90.76 Y145.707 E10.79291
G1 X90.341 Y144.887 E10.82354
G1 X89.995 Y144.034 E10.85415
G1 X89.725 Y143.154 E10.88477
G1 X89.532 Y142.253 E10.91541
G1 X89.418 Y141.34 E10.94602
G1 X89.387 Y140.769 E10.96504
G1 X89.374 Y140.15 E10.98563
G1 X89.375 Y106.836 E12.09366
G1 X89.402 Y104.99 E12.15506
G1 X89.423 Y104.255 E12.17952
G1 X89.437 Y102.288 E12.24494
G1 X89.432 Y99.002 E12.35423
G1 X89.433 Y93.011 E12.5535
G1 X89.45 Y92.167 E12.58157
G1 X89.47 Y91.715 E12.59662
G1 X89.53 Y90.964 E12.62168
G1 X89.56 Y90.705 E12.63035
G1 X89.706 Y89.796 E12.66097
G1 X89.983 Y88.73 E12.69761
G1 X90.154 Y88.189 E12.71648
G1 X90.553 Y87.127 E12.75421
G1 X90.66 Y86.883 E12.76307
G1 X91.066 Y86.058 E12.79365
G1 X91.178 Y85.853 E12.80142
G1 X91.802 Y84.848 E12.84077
G1 X91.99 Y84.58 E12.85166
G1 X92.551 Y83.85 E12.88228
G1 X92.895 Y83.46 E12.89957
G1 X93.264 Y83.062 E12.91763
G1 X93.918 Y82.415 E12.94822
G1 X94.761 Y81.726 E12.98444
G1 X95.217 Y81.391 E13.00326
G1 X95.982 Y80.879 E13.03387
G1 X96.424 Y80.624 E13.05084
G1 X96.604 Y80.526 E13.05766
G1 X97.368 Y80.15 E13.08598
G1 X97.638 Y80.03 E13.09581
G1 X98.756 Y79.606 E13.13558
G1 X99.124 Y79.49 E13.14841
G1 X100.323 Y79.188 E13.18954
G1 X100.632 Y79.129 E13.2
G1 X101.543 Y78.996 E13.23062
G1 X102.064 Y78.956 E13.248
G1 X102.578 Y78.929 E13.26512
G1 X103.001 Y78.915 E13.2792
G1 X103.693 Y78.907 E13.30221
G1 X126.485 Y78.908 E14.06028
G1 X127.424 Y78.926 E14.09152
G0 F6000 X127.442 Y78.527
G1 F1200 X127.804 Y78.543 E14.10357
G1 X128.738 Y78.624 E14.13475
G1 X129.537 Y78.758 E14.1617
G1 X130.212 Y78.897 E14.18462
G1 X131.121 Y79.125 E14.21579
G1 X131.967 Y79.414 E14.24552
G1 X132.189 Y79.5 E14.25344
G1 X133.319 Y80.013 E14.29472
G1 X133.697 Y80.211 E14.30891
G1 X134.883 Y80.931 E14.35506
G1 X135.114 Y81.092 E14.36442
G1 X135.805 Y81.615 E14.39324
G1 X135.984 Y81.762 E14.40095
G1 X136.766 Y82.47 E14.43603
G1 X137.023 Y82.726 E14.4481
G1 X137.659 Y83.415 E14.47929
G1 X138.026 Y83.873 E14.49881
G1 X138.305 Y84.241 E14.51417
G1 X138.839 Y85.012 E14.54536
G1 X139.381 Y85.975 E14.58211
G1 X139.643 Y86.5 E14.60163
G1 X140.026 Y87.356 E14.63282
G1 X140.336 Y88.246 E14.66416
G1 X140.501 Y88.795 E14.68323
G1 X140.732 Y89.704 E14.71443
G1 X140.873 Y90.536 E14.74249
G1 X140.905 Y90.781 E14.75071
G1 X140.969 Y91.408 E14.77167
G1 X140.985 Y91.628 E14.77901
G1 X141.013 Y92.259 E14.80002
G1 X141.026 Y93.215 E14.83182
G1 X141.025 Y119.909 E15.71966
G1 X141.015 Y120.636 E15.74385
G1 X140.962 Y121.573 E15.77506
G1 X140.83 Y122.501 E15.80624
G1 X140.619 Y123.415 E15.83744
G1 X140.33 Y124.307 E15.86862
G1 X139.967 Y125.172 E15.89982
G1 X139.532 Y126.003 E15.93102
G1 X139.027 Y126.793 E15.9622
G1 X138.457 Y127.538 E15.9934
G1 X137.826 Y128.232 E16.0246
G1 X137.137 Y128.869 E16.05581
G1 X136.397 Y129.445 E16.087
G1 X135.776 Y129.856 E16.11177
G1 X135.313 Y130.136 E16.12977
G1 X133.5 Y131.183 E16.1994
G1 X131.35 Y132.509 E16.28341
G1 X129.225 Y133.902 E16.36792
G1 X127.176 Y135.33 E16.45099
G1 X125.156 Y136.825 E16.53458
G1 X123.162 Y138.39 E16.61888
G1 X121.229 Y139.996 E16.70247
G1 X119.33 Y141.669 E16.78665
G1 X117.511 Y143.363 E16.86932
G1 X115.7 Y145.149 E16.95392
G1 X113.889 Y147.041 E17.04103
G1 X113.02 Y147.975 E17.08346
G1 X112.352 Y148.634 E17.11467
G1 X111.631 Y149.234 E17.14587
G1 X110.862 Y149.77 E17.17704
G1 X110.049 Y150.238 E17.20824
G1 X109.2 Y150.636 E17.23943
G1 X108.319 Y150.959 E17.27064
G1 X107.415 Y151.207 E17.30182
G1 X106.492 Y151.377 E17.33303
G1 X105.271 Y151.479 E17.37379
G1 X104.642 Y151.492 E17.39471
G1 X100.539 Y151.491 E17.53118
G1 X99.841 Y151.482 E17.55439
G1 X98.905 Y151.43 E17.58557
G1 X97.976 Y151.298 E17.61678
G1 X97.062 Y151.088 E17.64798
G1 X96.169 Y150.801 E17.67917
G1 X95.304 Y150.438 E17.71037
G1 X94.473 Y150.004 E17.74156
G1 X93.682 Y149.5 E17.77275
G1 X92.937 Y148.93 E17.80395
G1 X92.243 Y148.299 E17.83515
G1 X91.606 Y147.612 E17.86631
G1 X91.029 Y146.872 E17.89752
G1 X90.517 Y146.086 E17.92872
G1 X90.074 Y145.259 E17.95992
G1 X89.703 Y144.398 E17.9911
G1 X89.407 Y143.508 E18.0223
G1 X89.188 Y142.596 E18.0535
G1 X89.047 Y141.669 E18.08468
G1 X88.987 Y140.78 E18.11432
G1 X88.974 Y140.15 E18.13528
G1 X88.975 Y106.83 E19.2435
G1 X89.002 Y104.979 E19.30507
G1 X89.023 Y104.24 E19.32966
G1 X89.037 Y102.286 E19.39466
G1 X89.032 Y99.002 E19.50388
G1 X89.033 Y93.005 E19.70334
G1 X89.041 Y92.471 E19.72111
G1 X89.051 Y92.15 E19.73179
G1 X89.071 Y91.698 E19.74684
G1 X89.133 Y90.918 E19.77286
G1 X89.163 Y90.659 E19.78153
G1 X89.311 Y89.733 E19.81272
G1 X89.601 Y88.61 E19.8513
G1 X89.772 Y88.069 E19.87017
G1 X90.187 Y86.966 E19.90937
G1 X90.294 Y86.722 E19.91823
G1 X90.715 Y85.866 E19.94996
G1 X90.827 Y85.661 E19.95773
G1 X91.475 Y84.618 E19.99857
G1 X91.663 Y84.35 E20.00945
G1 X92.234 Y83.606 E20.04065
G1 X92.601 Y83.188 E20.05915
G1 X92.97 Y82.79 E20.0772
G1 X93.637 Y82.13 E20.10841
G1 X94.524 Y81.404 E20.14653
G1 X94.98 Y81.069 E20.16535
G1 X95.759 Y80.547 E20.19654
G1 X96.233 Y80.273 E20.21475
G1 X96.413 Y80.175 E20.22157
G1 X97.205 Y79.784 E20.25095
G1 X97.475 Y79.664 E20.26077
G1 X98.636 Y79.225 E20.30206
G1 X99.004 Y79.109 E20.31489
G1 X100.248 Y78.795 E20.35756
G1 X100.557 Y78.736 E20.36803
G1 X101.485 Y78.6 E20.39922
G1 X102.043 Y78.556 E20.41784
G1 X102.557 Y78.529 E20.43496
G1 X102.996 Y78.515 E20.44957
G1 X103.693 Y78.507 E20.47275
G1 X126.491 Y78.508 E21.23101
G1 X127.442 Y78.527 E21.26265
G1 F2700 E16.26265
;MESH:IKEA_BROR_PAN_HOLDER.stl
G0 F6000 X127.014 Y88.842
G0 X127.014 Y89.927
G0 X102.615 Y90.308
G0 X101.873 Y90.593
G0 X101.278 Y91.122
G0 X100.909 Y91.814
G0 X100.803 Y92.528
G0 X100.814 Y98.52
G0 X123.042 Y98.875
G0 X123.042 Y100.933
G0 X101.333 Y101.306
G0 X101.018 Y101.486
G0 X100.832 Y101.812
G0 X100.756 Y107.061
G0 X100.756 Y139.71
G0 X104.372 Y139.892
;TYPE:WALL-INNER
G1 F2700 E21.26265
G1 F1200 X100.574 Y139.892 E21.38897
G1 X100.574 Y106.879 E22.48699
G1 X100.625 Y106.879 E22.48869
G1 X100.632 Y106.192 E22.51154
G1 X100.632 Y102.038 E22.6497
G1 X100.666 Y101.767 E22.65878
G1 X100.758 Y101.549 E22.66665
G1 X100.894 Y101.366 E22.67424
G1 X101.079 Y101.225 E22.68197
G1 X101.29 Y101.139 E22.68955
G1 X101.557 Y101.105 E22.6985
G1 X123.214 Y101.105 E23.41882
G1 X123.214 Y98.703 E23.49871
G1 X100.632 Y98.702 E24.24979
G1 X100.632 Y92.516 E24.45554
G1 X100.655 Y92.146 E24.46787
G1 X100.669 Y92.045 E24.47126
G1 X100.744 Y91.77 E24.48074
G1 X100.791 Y91.635 E24.48549
G1 X100.922 Y91.35 E24.49593
G1 X100.977 Y91.252 E24.49966
G1 X101.146 Y91.013 E24.5094
G1 X101.221 Y90.921 E24.51335
G1 X101.441 Y90.7 E24.52372
G1 X101.546 Y90.614 E24.52823
G1 X101.776 Y90.452 E24.53759
G1 X101.891 Y90.388 E24.54197
G1 X102.169 Y90.26 E24.55215
G1 X102.269 Y90.226 E24.55566
G1 X102.575 Y90.142 E24.56621
G1 X102.675 Y90.128 E24.56957
G1 X103.064 Y90.107 E24.58253
G1 X127.02 Y90.107 E25.37931
G1 X127.374 Y90.128 E25.3911
G1 X127.479 Y90.142 E25.39463
G1 X127.776 Y90.222 E25.40486
G1 X127.889 Y90.26 E25.40882
G1 X128.163 Y90.39 E25.41891
G1 X128.279 Y90.454 E25.42332
G1 X128.5 Y90.61 E25.43231
G1 X128.61 Y90.703 E25.4371
G1 X128.821 Y90.914 E25.44703
G1 X128.913 Y91.022 E25.45175
G1 X129.07 Y91.245 E25.46082
G1 X129.119 Y91.336 E25.46426
G1 X129.259 Y91.646 E25.47557
G1 X129.302 Y91.767 E25.47984
G1 X129.382 Y92.054 E25.48975
G1 X129.401 Y92.175 E25.49382
G1 X129.426 Y92.463 E25.50344
G1 X129.426 Y119.695 E26.40918
G1 X129.426 Y119.894 E26.4158
G1 X129.227 Y119.894 E26.42008
G1 X104.571 Y119.891 E27.24014
G1 X104.372 Y119.891 E27.24676
G1 X104.372 Y120.09 E27.25104
G1 X104.372 Y139.892 E27.90966
G0 F6000 X104.772 Y140.292
;TYPE:WALL-OUTER
G1 F1200 X100.174 Y140.292 E28.06259
G1 X100.174 Y106.479 E29.18722
G1 X100.229 Y106.479 E29.18904
G1 X100.232 Y106.19 E29.19866
G1 X100.232 Y102.012 E29.33762
G1 X100.276 Y101.664 E29.34928
G1 X100.408 Y101.348 E29.36067
G1 X100.608 Y101.081 E29.37177
G1 X100.876 Y100.876 E29.38299
G1 X101.189 Y100.748 E29.39424
G1 X101.531 Y100.705 E29.4057
G1 X122.814 Y100.705 E30.11358
G1 X122.814 Y99.103 E30.16686
G1 X100.232 Y99.102 E30.91794
G1 X100.232 Y92.507 E31.13729
G1 X100.257 Y92.106 E31.15066
G1 X100.277 Y91.963 E31.15546
G1 X100.363 Y91.647 E31.16635
G1 X100.418 Y91.489 E31.17192
G1 X100.564 Y91.17 E31.18358
G1 X100.638 Y91.039 E31.18859
G1 X100.829 Y90.768 E31.19962
G1 X100.925 Y90.651 E31.20465
G1 X101.172 Y90.402 E31.21632
G1 X101.299 Y90.299 E31.22175
G1 X101.566 Y90.111 E31.23261
G1 X101.701 Y90.035 E31.23777
G1 X102.023 Y89.887 E31.24955
G1 X102.163 Y89.84 E31.25447
G1 X102.49 Y89.75 E31.26575
G1 X102.634 Y89.73 E31.27058
G1 X103.062 Y89.707 E31.28484
G1 X127.027 Y89.707 E32.08192
G1 X127.412 Y89.73 E32.09475
G1 X127.559 Y89.75 E32.09968
G1 X127.889 Y89.839 E32.11105
G1 X128.039 Y89.888 E32.1163
G1 X128.35 Y90.036 E32.12775
G1 X128.489 Y90.113 E32.13304
G1 X128.75 Y90.297 E32.14366
G1 X128.882 Y90.409 E32.14942
G1 X129.113 Y90.64 E32.16028
G1 X129.229 Y90.776 E32.16623
G1 X129.414 Y91.039 E32.17692
G1 X129.484 Y91.17 E32.18186
G1 X129.629 Y91.491 E32.19358
G1 X129.685 Y91.649 E32.19915
G1 X129.773 Y91.968 E32.21016
G1 X129.796 Y92.111 E32.21498
G1 X129.826 Y92.451 E32.22633
G1 X129.826 Y120.294 E33.15239
