;FLAVOR:Marlin
;TIME:6111
;Filament used: 3.90963m
;Layer height: 0.2
;MINX:89.298
;MINY:84.967
;MINZ:0.2
;MAXX:141.34
;MAXY:157.93
;MAXZ:60.2
;Generated with Cura_SteamEngine 4.6.1
M140 S50
M105
M190 S50
M104 S200
M105
M109 S200
M82 ;absolute extrusion mode
; Ender 3 Custom Start G-code
G92 E0 ; Reset Extruder
G28 ; Home all axes
G1 Z2.0 F3000 ; Move Z Axis up little to prevent scratching of Heat Bed
G1 X0.1 Y20 Z0.3 F5000.0 ; Move to start position
G1 X0.1 Y200.0 Z0.3 F1500.0 E15 ; Draw the first line
G1 X0.4 Y200.0 Z0.3 F5000.0 ; Move to side a little
G1 X0.4 Y20 Z0.3 F1500.0 E30 ; Draw the second line
G92 E0 ; Reset Extruder
G1 Z2.0 F3000 ; Move Z Axis up little to prevent scratching of Heat Bed
G1 X5 Y20 Z0.3 F5000.0 ; Move over to prevent blob squish
G92 E0
G92 E0
G1 F2700 E-5
;LAYER_COUNT:301
;LAYER:0
M107
G0 F6000 X127.689 Y85.783 Z0.2
;TYPE:SKIRT
G1 F2700 E0
G1 F1200 X128.191 Y85.802 E0.01671
G1 X129.091 Y85.876 E0.04674
G1 X129.599 Y85.954 E0.06384
G1 X129.89 Y86.006 E0.07367
G1 X130.771 Y86.204 E0.1037
G1 X131.378 Y86.389 E0.12481
G1 X131.687 Y86.494 E0.13566
G1 X132.558 Y86.836 E0.16679
G1 X133.077 Y87.071 E0.18574
G1 X133.302 Y87.179 E0.19404
G1 X134.098 Y87.606 E0.22408
G1 X135.124 Y88.304 E0.26535
G1 X135.621 Y88.688 E0.28624
G1 X136.311 Y89.271 E0.31629
G1 X136.675 Y89.625 E0.33317
G1 X136.858 Y89.812 E0.34188
G1 X137.735 Y90.836 E0.38672
G1 X138.038 Y91.241 E0.40354
G1 X138.547 Y91.987 E0.43358
G1 X139.001 Y92.802 E0.46461
G1 X139.28 Y93.362 E0.48542
G1 X139.646 Y94.188 E0.51547
G1 X139.88 Y94.852 E0.53888
G1 X139.952 Y95.081 E0.54687
G1 X140.115 Y95.655 E0.56671
G1 X140.167 Y95.862 E0.57381
G1 X140.371 Y96.905 E0.60916
G1 X140.414 Y97.206 E0.61927
G1 X140.515 Y98.451 E0.66082
G1 X140.54 Y99.837 E0.70692
G1 X140.539 Y126.354 E1.58888
G1 X140.529 Y127.081 E1.61307
G1 X140.477 Y127.983 E1.64312
G1 X140.345 Y128.876 E1.67314
G1 X140.134 Y129.755 E1.70321
G1 X139.847 Y130.611 E1.73323
G1 X139.485 Y131.438 E1.76326
G1 X139.051 Y132.23 E1.7933
G1 X138.549 Y132.981 E1.82334
G1 X137.983 Y133.684 E1.85336
G1 X137.356 Y134.335 E1.88342
G1 X136.675 Y134.927 E1.91343
G1 X135.655 Y135.641 E1.95485
G1 X135.205 Y135.912 E1.97232
G1 X133.342 Y136.99 E2.04391
G1 X131.153 Y138.34 E2.12945
G1 X129.033 Y139.732 E2.2138
G1 X126.962 Y141.178 E2.29781
G1 X124.907 Y142.7 E2.38286
G1 X122.934 Y144.25 E2.46631
G1 X120.961 Y145.893 E2.55171
G1 X119.059 Y147.569 E2.63603
G1 X117.194 Y149.308 E2.72084
G1 X115.4 Y151.081 E2.80473
G1 X113.589 Y152.973 E2.89184
G1 X112.754 Y153.87 E2.9326
G1 X112.109 Y154.503 E2.96266
G1 X111.412 Y155.077 E2.99269
G1 X110.666 Y155.587 E3.02275
G1 X109.878 Y156.028 E3.05278
G1 X109.055 Y156.398 E3.08279
G1 X108.202 Y156.694 E3.11282
G1 X107.325 Y156.914 E3.1429
G1 X106.433 Y157.055 E3.17293
G1 X105.633 Y157.113 E3.19961
G1 X105.307 Y157.124 E3.21046
G1 X104.963 Y157.13 E3.2219
G1 X100.873 Y157.129 E3.35794
G1 X100.175 Y157.12 E3.38115
G1 X99.274 Y157.069 E3.41117
G1 X98.38 Y156.937 E3.44123
G1 X97.502 Y156.728 E3.47125
G1 X96.645 Y156.441 E3.5013
G1 X95.818 Y156.08 E3.53132
G1 X95.025 Y155.647 E3.56137
G1 X94.274 Y155.146 E3.59139
G1 X93.57 Y154.58 E3.62144
G1 X92.919 Y153.954 E3.65148
G1 X92.326 Y153.273 E3.68151
G1 X91.796 Y152.542 E3.71154
G1 X91.332 Y151.767 E3.74159
G1 X90.938 Y150.954 E3.77163
G1 X90.618 Y150.11 E3.80166
G1 X90.374 Y149.24 E3.83171
G1 X90.208 Y148.352 E3.86176
G1 X90.111 Y147.197 E3.90031
G1 X90.098 Y146.588 E3.92057
G1 X90.099 Y113.3 E5.02773
G1 X90.137 Y110.973 E5.10514
G1 X90.151 Y108.767 E5.17851
G1 X90.136 Y106.383 E5.2578
G1 X90.146 Y105.242 E5.29575
G1 X90.147 Y99.496 E5.48687
G1 X90.157 Y98.798 E5.51009
G1 X90.196 Y98.039 E5.53536
G1 X90.244 Y97.5 E5.55336
G1 X90.364 Y96.605 E5.5834
G1 X90.494 Y95.991 E5.60427
G1 X90.57 Y95.679 E5.61495
G1 X90.822 Y94.812 E5.64498
G1 X91.102 Y94.081 E5.67102
G1 X91.271 Y93.686 E5.68531
G1 X91.484 Y93.222 E5.70229
G1 X91.652 Y92.878 E5.71502
G1 X92.083 Y92.085 E5.74504
G1 X92.553 Y91.375 E5.77336
G1 X92.731 Y91.129 E5.78346
G1 X93.034 Y90.732 E5.80007
G1 X93.203 Y90.521 E5.80906
G1 X94.043 Y89.594 E5.85067
G1 X94.243 Y89.399 E5.85996
G1 X94.917 Y88.798 E5.88999
G1 X95.345 Y88.467 E5.90799
G1 X95.724 Y88.19 E5.9236
G1 X96.476 Y87.69 E5.95364
G1 X96.998 Y87.396 E5.97356
G1 X97.272 Y87.252 E5.98386
G1 X97.808 Y86.99 E6.0037
G1 X98.212 Y86.807 E6.01845
G1 X99.051 Y86.471 E6.04851
G1 X99.81 Y86.238 E6.07492
G1 X100.165 Y86.144 E6.08714
G1 X101.048 Y85.952 E6.11719
G1 X102.31 Y85.815 E6.15941
G1 X103.226 Y85.778 E6.1899
G1 X104.09 Y85.767 E6.21864
G1 X126.841 Y85.768 E6.97534
G1 X127.689 Y85.783 E7.00355
G0 F6000 X127.704 Y85.384
G1 F1200 X128.206 Y85.403 E7.02026
G1 X129.124 Y85.477 E7.05089
G1 X129.67 Y85.56 E7.06926
G1 X129.961 Y85.612 E7.07909
G1 X130.859 Y85.813 E7.1097
G1 X131.506 Y86.011 E7.1322
G1 X131.815 Y86.116 E7.14306
G1 X132.721 Y86.47 E7.17541
G1 X133.25 Y86.711 E7.19475
G1 X133.475 Y86.819 E7.20305
G1 X134.287 Y87.253 E7.23367
G1 X135.369 Y87.987 E7.27716
G1 X135.866 Y88.371 E7.29805
G1 X136.569 Y88.965 E7.32866
G1 X136.961 Y89.345 E7.34682
G1 X137.144 Y89.532 E7.35552
G1 X137.759 Y90.217 E7.38614
G1 X138.056 Y90.596 E7.40215
G1 X138.359 Y91.001 E7.41897
G1 X138.878 Y91.761 E7.44958
G1 X139.359 Y92.624 E7.48244
G1 X139.638 Y93.184 E7.50325
G1 X140.012 Y94.025 E7.53387
G1 X140.262 Y94.732 E7.55881
G1 X140.334 Y94.961 E7.56679
G1 X140.503 Y95.557 E7.5874
G1 X140.555 Y95.764 E7.5945
G1 X140.767 Y96.848 E7.63123
G1 X140.81 Y97.149 E7.64135
G1 X140.915 Y98.443 E7.68453
G1 X140.94 Y99.837 E7.7309
G1 X140.939 Y126.36 E8.61306
G1 X140.929 Y127.087 E8.63724
G1 X140.876 Y128.006 E8.66786
G1 X140.744 Y128.917 E8.69847
G1 X140.533 Y129.813 E8.72909
G1 X140.246 Y130.688 E8.75972
G1 X139.883 Y131.534 E8.79034
G1 X139.449 Y132.346 E8.82096
G1 X138.945 Y133.117 E8.85159
G1 X138.377 Y133.841 E8.8822
G1 X137.748 Y134.513 E8.91282
G1 X137.063 Y135.128 E8.94343
G1 X136.327 Y135.681 E8.97405
G1 X135.864 Y135.982 E8.99242
G1 X135.405 Y136.259 E9.01025
G1 X133.52 Y137.349 E9.08267
G1 X131.361 Y138.681 E9.16705
G1 X129.275 Y140.051 E9.25006
G1 X127.183 Y141.511 E9.3349
G1 X125.169 Y143.003 E9.41827
G1 X123.17 Y144.573 E9.50281
G1 X121.219 Y146.199 E9.58728
G1 X119.313 Y147.878 E9.67177
G1 X117.482 Y149.585 E9.75503
G1 X115.687 Y151.359 E9.83896
G1 X113.886 Y153.241 E9.9256
G1 X113.046 Y154.143 E9.9666
G1 X112.39 Y154.789 E9.99722
G1 X111.68 Y155.375 E10.02784
G1 X110.923 Y155.898 E10.05844
G1 X110.122 Y156.353 E10.08908
G1 X109.285 Y156.737 E10.11971
G1 X108.418 Y157.047 E10.15033
G1 X107.528 Y157.28 E10.18093
G1 X106.62 Y157.435 E10.21157
G1 X105.646 Y157.513 E10.24407
G1 X105.32 Y157.524 E10.25492
G1 X104.963 Y157.53 E10.26679
G1 X100.868 Y157.529 E10.40299
G1 X100.17 Y157.52 E10.42621
G1 X99.251 Y157.468 E10.45683
G1 X98.34 Y157.337 E10.48744
G1 X97.444 Y157.127 E10.51805
G1 X96.569 Y156.84 E10.54868
G1 X95.722 Y156.478 E10.57931
G1 X94.91 Y156.044 E10.60993
G1 X94.139 Y155.542 E10.64054
G1 X93.414 Y154.974 E10.67117
G1 X92.741 Y154.345 E10.70181
G1 X92.126 Y153.661 E10.7324
G1 X91.572 Y152.926 E10.76301
G1 X91.084 Y152.145 E10.79364
G1 X90.665 Y151.325 E10.82427
G1 X90.319 Y150.472 E10.85489
G1 X90.049 Y149.592 E10.8855
G1 X89.856 Y148.691 E10.91615
G1 X89.742 Y147.778 E10.94675
G1 X89.711 Y147.207 E10.96577
G1 X89.698 Y146.588 E10.98636
G1 X89.699 Y113.294 E12.09373
G1 X89.737 Y110.96 E12.17137
G1 X89.751 Y108.767 E12.24431
G1 X89.736 Y106.379 E12.32373
G1 X89.746 Y105.238 E12.36168
G1 X89.747 Y99.49 E12.55286
G1 X89.757 Y98.792 E12.57608
G1 X89.798 Y98.004 E12.60233
G1 X89.846 Y97.465 E12.62032
G1 X89.967 Y96.552 E12.65096
G1 X90.105 Y95.896 E12.67325
G1 X90.181 Y95.584 E12.68393
G1 X90.438 Y94.7 E12.71455
G1 X90.735 Y93.923 E12.74222
G1 X90.904 Y93.528 E12.75651
G1 X91.124 Y93.046 E12.77413
G1 X91.292 Y92.702 E12.78686
G1 X91.732 Y91.893 E12.81749
G1 X92.229 Y91.14 E12.8475
G1 X92.407 Y90.894 E12.8576
G1 X92.722 Y90.481 E12.87488
G1 X92.891 Y90.27 E12.88387
G1 X93.764 Y89.307 E12.9271
G1 X93.964 Y89.112 E12.93639
G1 X94.651 Y88.499 E12.96701
G1 X95.109 Y88.144 E12.98629
G1 X95.488 Y87.867 E13.0019
G1 X96.254 Y87.357 E13.03251
G1 X96.812 Y87.042 E13.05382
G1 X97.086 Y86.898 E13.06412
G1 X97.643 Y86.625 E13.08475
G1 X98.047 Y86.442 E13.0995
G1 X98.902 Y86.099 E13.13014
G1 X99.708 Y85.851 E13.15819
G1 X100.063 Y85.757 E13.1704
G1 X100.962 Y85.56 E13.20101
G1 X102.292 Y85.415 E13.24551
G1 X102.883 Y85.388 E13.26519
G1 X103.22 Y85.378 E13.2764
G1 X104.09 Y85.367 E13.30534
G1 X126.847 Y85.368 E14.06224
G1 X127.704 Y85.384 E14.09075
G0 F6000 X127.719 Y84.984
G1 F1200 X128.221 Y85.003 E14.10746
G1 X129.156 Y85.078 E14.13866
G1 X129.74 Y85.167 E14.1583
G1 X130.031 Y85.219 E14.16814
G1 X130.946 Y85.423 E14.19932
G1 X131.635 Y85.632 E14.22326
G1 X131.944 Y85.737 E14.23412
G1 X132.883 Y86.105 E14.26766
G1 X133.423 Y86.35 E14.28739
G1 X133.648 Y86.458 E14.29569
G1 X134.475 Y86.9 E14.32687
G1 X135.613 Y87.67 E14.37257
G1 X136.11 Y88.054 E14.39346
G1 X136.827 Y88.659 E14.42467
G1 X137.247 Y89.065 E14.4441
G1 X137.43 Y89.252 E14.4528
G1 X138.057 Y89.95 E14.48401
G1 X138.376 Y90.356 E14.50118
G1 X138.679 Y90.761 E14.518
G1 X139.208 Y91.536 E14.54921
G1 X139.717 Y92.446 E14.58389
G1 X139.996 Y93.006 E14.6047
G1 X140.378 Y93.862 E14.63588
G1 X140.644 Y94.612 E14.66234
G1 X140.716 Y94.841 E14.67033
G1 X140.891 Y95.46 E14.69172
G1 X140.943 Y95.667 E14.69882
G1 X141.163 Y96.791 E14.73692
G1 X141.206 Y97.092 E14.74703
G1 X141.315 Y98.435 E14.79184
G1 X141.34 Y99.837 E14.83848
G1 X141.339 Y126.365 E15.72081
G1 X141.329 Y127.092 E15.74499
G1 X141.276 Y128.029 E15.7762
G1 X141.144 Y128.957 E15.80738
G1 X140.933 Y129.871 E15.83858
G1 X140.644 Y130.763 E15.86977
G1 X140.281 Y131.628 E15.90097
G1 X139.846 Y132.459 E15.93216
G1 X139.341 Y133.249 E15.96335
G1 X138.771 Y133.994 E15.99455
G1 X138.14 Y134.688 E16.02575
G1 X137.451 Y135.325 E16.05695
G1 X136.711 Y135.901 E16.08814
G1 X136.072 Y136.323 E16.11361
G1 X135.605 Y136.605 E16.13176
G1 X133.751 Y137.678 E16.20301
G1 X131.585 Y139.014 E16.28765
G1 X129.478 Y140.397 E16.37148
G1 X127.428 Y141.828 E16.45463
G1 X125.387 Y143.341 E16.53913
G1 X123.428 Y144.879 E16.62197
G1 X121.476 Y146.505 E16.70647
G1 X119.604 Y148.154 E16.78944
G1 X117.754 Y149.88 E16.87359
G1 X115.975 Y151.638 E16.95678
G1 X114.185 Y153.507 E17.04285
G1 X113.339 Y154.416 E17.08415
G1 X112.671 Y155.074 E17.11534
G1 X111.95 Y155.673 E17.14652
G1 X111.18 Y156.209 E17.17772
G1 X110.367 Y156.677 E17.20892
G1 X109.517 Y157.074 E17.24013
G1 X108.637 Y157.397 E17.2713
G1 X107.732 Y157.644 E17.3025
G1 X106.81 Y157.813 E17.33368
G1 X105.66 Y157.913 E17.37207
G1 X105.334 Y157.924 E17.38292
G1 X104.963 Y157.93 E17.39526
G1 X100.863 Y157.929 E17.53163
G1 X100.165 Y157.92 E17.55485
G1 X99.229 Y157.868 E17.58603
G1 X98.3 Y157.736 E17.61724
G1 X97.386 Y157.526 E17.64843
G1 X96.493 Y157.239 E17.67963
G1 X95.628 Y156.876 E17.71083
G1 X94.797 Y156.442 E17.74201
G1 X94.006 Y155.938 E17.7732
G1 X93.261 Y155.368 E17.8044
G1 X92.567 Y154.737 E17.8356
G1 X91.93 Y154.05 E17.86676
G1 X91.353 Y153.31 E17.89797
G1 X90.841 Y152.524 E17.92917
G1 X90.398 Y151.697 E17.96038
G1 X90.027 Y150.836 E17.99156
G1 X89.731 Y149.946 E18.02275
G1 X89.512 Y149.034 E18.05395
G1 X89.371 Y148.107 E18.08514
G1 X89.311 Y147.218 E18.11477
G1 X89.298 Y146.588 E18.13573
G1 X89.299 Y113.289 E19.24326
G1 X89.337 Y110.945 E19.32123
G1 X89.351 Y108.767 E19.39367
G1 X89.336 Y106.376 E19.4732
G1 X89.346 Y105.235 E19.51115
G1 X89.347 Y99.484 E19.70243
G1 X89.357 Y98.786 E19.72565
G1 X89.399 Y97.968 E19.75289
G1 X89.447 Y97.429 E19.77089
G1 X89.57 Y96.499 E19.80209
G1 X89.717 Y95.802 E19.82578
G1 X89.793 Y95.49 E19.83646
G1 X90.053 Y94.589 E19.86765
G1 X90.367 Y93.766 E19.89695
G1 X90.536 Y93.371 E19.91124
G1 X90.765 Y92.871 E19.92953
G1 X90.933 Y92.527 E19.94226
G1 X91.38 Y91.702 E19.97347
G1 X91.905 Y90.906 E20.00519
G1 X92.083 Y90.66 E20.01529
G1 X92.409 Y90.231 E20.03321
G1 X92.578 Y90.02 E20.0422
G1 X93.485 Y89.021 E20.08708
G1 X93.685 Y88.826 E20.09637
G1 X94.384 Y88.2 E20.12758
G1 X94.873 Y87.821 E20.14816
G1 X95.252 Y87.544 E20.16377
G1 X96.032 Y87.024 E20.19495
G1 X96.626 Y86.688 E20.21765
G1 X96.9 Y86.544 E20.22794
G1 X97.478 Y86.261 E20.24935
G1 X97.882 Y86.078 E20.2641
G1 X98.752 Y85.728 E20.29529
G1 X99.605 Y85.464 E20.32499
G1 X99.96 Y85.37 E20.3372
G1 X100.876 Y85.169 E20.36839
G1 X102.274 Y85.015 E20.41517
G1 X102.865 Y84.988 E20.43485
G1 X103.215 Y84.978 E20.44649
G1 X104.09 Y84.967 E20.4756
G1 X126.853 Y84.968 E21.2327
G1 X127.719 Y84.984 E21.26151
G1 F2700 E16.26151
;MESH:Object 3
G0 F6000 X127.371 Y95.302
G0 X127.371 Y96.387
G0 X102.885 Y96.763
G0 X102.195 Y97.038
G0 X101.694 Y97.446
G0 X101.411 Y97.851
G0 X101.166 Y98.481
G0 X101.117 Y98.977
G0 X101.128 Y104.958
G0 X123.36 Y105.336
G0 X123.36 Y107.374
G0 X101.67 Y107.751
G0 X101.309 Y107.952
G0 X101.143 Y108.373
G0 X101.077 Y113.345
G0 X101.08 Y146.148
G0 X104.693 Y146.33
;TYPE:WALL-INNER
G1 F2700 E21.26151
G1 F1200 X100.898 Y146.33 E21.38773
G1 X100.898 Y113.205 E22.48947
G1 X100.946 Y113.193 E22.49112
G1 X100.946 Y108.58 E22.64455
G1 X100.968 Y108.534 E22.64624
G1 X100.972 Y108.354 E22.65223
G1 X101.001 Y108.207 E22.65721
G1 X101.043 Y108.077 E22.66176
G1 X101.093 Y107.977 E22.66548
G1 X101.17 Y107.853 E22.67033
G1 X101.201 Y107.814 E22.67199
G1 X101.383 Y107.676 E22.67959
G1 X101.537 Y107.626 E22.68497
G1 X101.622 Y107.583 E22.68814
G1 X101.88 Y107.563 E22.69675
G1 X101.935 Y107.546 E22.69866
G1 X123.532 Y107.546 E23.41698
G1 X123.532 Y105.164 E23.49621
G1 X118.825 Y105.164 E23.65276
G1 X115.553 Y105.139 E23.76159
G1 X101.145 Y105.14 E24.2408
G1 X100.946 Y105.14 E24.24742
G1 X100.946 Y104.941 E24.2517
G1 X100.946 Y98.969 E24.45033
G1 X100.993 Y98.598 E24.46277
G1 X100.995 Y98.459 E24.4674
G1 X101.053 Y98.236 E24.47506
G1 X101.111 Y98.123 E24.47928
G1 X101.253 Y97.786 E24.49145
G1 X101.294 Y97.706 E24.49444
G1 X101.484 Y97.452 E24.50499
G1 X101.562 Y97.336 E24.50964
G1 X101.739 Y97.16 E24.51794
G1 X101.856 Y97.08 E24.52265
G1 X102.106 Y96.892 E24.53306
G1 X102.194 Y96.848 E24.53633
G1 X102.527 Y96.706 E24.54837
G1 X102.636 Y96.651 E24.55243
G1 X102.862 Y96.592 E24.5602
G1 X102.979 Y96.59 E24.56409
G1 X103.383 Y96.567 E24.57755
G1 X127.374 Y96.567 E25.37549
G1 X127.728 Y96.59 E25.38729
G1 X127.841 Y96.592 E25.39105
G1 X128.066 Y96.654 E25.39881
G1 X128.509 Y96.845 E25.41486
G1 X128.602 Y96.891 E25.41831
G1 X128.831 Y97.062 E25.42782
G1 X128.931 Y97.143 E25.4321
G1 X129.146 Y97.358 E25.44221
G1 X129.235 Y97.464 E25.44681
G1 X129.474 Y97.825 E25.46121
G1 X129.584 Y98.084 E25.47057
G1 X129.621 Y98.19 E25.47431
G1 X129.701 Y98.492 E25.4847
G1 X129.719 Y98.616 E25.48886
G1 X129.74 Y98.933 E25.49943
G1 X129.74 Y126.35 E26.41132
G1 X104.693 Y126.35 E27.24439
G1 X104.693 Y146.33 E27.90893
G0 F6000 X105.093 Y146.73
;TYPE:WALL-OUTER
G1 F1200 X100.498 Y146.73 E28.06176
G1 X100.498 Y112.893 E29.18718
G1 X100.546 Y112.881 E29.18883
G1 X100.546 Y108.489 E29.33491
G1 X100.57 Y108.439 E29.33675
G1 X100.573 Y108.31 E29.34104
G1 X100.612 Y108.108 E29.34788
G1 X100.672 Y107.925 E29.35429
G1 X100.743 Y107.784 E29.35954
G1 X100.843 Y107.622 E29.36587
G1 X100.922 Y107.524 E29.37006
G1 X101.193 Y107.317 E29.3814
G1 X101.383 Y107.255 E29.38805
G1 X101.511 Y107.19 E29.39282
G1 X101.804 Y107.168 E29.4026
G1 X101.874 Y107.146 E29.40504
G1 X123.132 Y107.146 E30.11208
G1 X123.132 Y105.564 E30.1647
G1 X118.822 Y105.564 E30.30805
G1 X115.551 Y105.539 E30.41685
G1 X100.546 Y105.54 E30.91591
G1 X100.546 Y98.943 E31.13533
G1 X100.593 Y98.569 E31.14787
G1 X100.596 Y98.406 E31.15329
G1 X100.678 Y98.09 E31.16415
G1 X100.748 Y97.954 E31.16924
G1 X100.89 Y97.617 E31.1814
G1 X100.952 Y97.495 E31.18595
G1 X101.158 Y97.22 E31.19738
G1 X101.252 Y97.081 E31.20296
G1 X101.486 Y96.848 E31.21394
G1 X101.624 Y96.754 E31.2195
G1 X101.897 Y96.55 E31.23083
G1 X102.028 Y96.484 E31.23571
G1 X102.358 Y96.343 E31.24765
G1 X102.493 Y96.275 E31.25267
G1 X102.809 Y96.193 E31.26353
G1 X102.964 Y96.19 E31.26869
G1 X103.379 Y96.167 E31.28251
G1 X127.385 Y96.167 E32.08096
G1 X127.745 Y96.19 E32.09295
G1 X127.9 Y96.193 E32.09811
G1 X128.194 Y96.274 E32.10825
