;FLAVOR:Marlin
;TIME:10123
;Filament used: 7.25526m
;Layer height: 0.2
;MINX:50.114
;MINY:81.08
;MINZ:0.24
;MAXX:183.498
;MAXY:153.129
;MAXZ:31.09
;Generated with Cura_SteamEngine 4.6.1
M140 S55
M105
M190 S55
M104 S210
M105
M109 S210
M82 ;absolute extrusion mode
; Ender 3 Custom Start G-code
G92 E0 ; Reset Extruder
G28 ; Home all axes
G1 Z2.0 F3000 ; Move Z Axis up little to prevent scratching of Heat Bed
G1 X0.1 Y20 Z0.3 F5000.0 ; Move to start position
G1 X0.1 Y200.0 Z0.3 F1500.0 E15 ; Draw the first line
G1 X0.4 Y200.0 Z0.3 F5000.0 ; Move to side a little
G1 X0.4 Y20 Z0.3 F1500.0 E30 ; Draw the second line
G92 E0 ; Reset Extruder
G1 Z2.0 F3000 ; Move Z Axis up little to prevent scratching of Heat Bed
G1 X5 Y20 Z0.3 F5000.0 ; Move over to prevent blob squish
G92 E0
G92 E0
G1 F2700 E-5
;LAYER_COUNT:150
;LAYER:-6
M107
G0 F9000 X59.215 Y84.864 Z0.24
;TYPE:SUPPORT-INTERFACE
G1 F2700 E0
G1 F1125 X59.37 Y84.758 E0.01499
G1 X60.46 Y84.087 E0.11716
G1 X61.292 Y83.651 E0.19214
G1 X61.461 Y83.571 E0.20707
G1 X62.266 Y83.221 E0.27714
G1 X62.431 Y83.159 E0.29121
G1 X63.736 Y82.721 E0.40109
G1 X63.874 Y82.685 E0.41247
G1 X64.78 Y82.464 E0.48692
G1 X64.949 Y82.429 E0.50069
G1 X65.978 Y82.26 E0.58393
G1 X66.893 Y82.174 E0.65729
G1 X67.042 Y82.166 E0.6692
G1 X67.81 Y82.144 E0.73053
G1 X95.765 Y82.145 E2.96202
G1 X96.889 Y82.19 E3.05182
G1 X97.945 Y82.31 E3.13665
G1 X98.882 Y82.48 E3.21267
G1 X99.947 Y82.744 E3.30026
G1 X100.826 Y83.026 E3.37394
G1 X100.964 Y83.076 E3.38566
G1 X101.781 Y83.406 E3.456
G1 X101.978 Y83.495 E3.47325
G1 X103.275 Y84.157 E3.58949
G1 X103.342 Y84.198 E3.59576
G1 X104.141 Y84.693 E3.67079
G1 X104.304 Y84.803 E3.68649
G1 X105.02 Y85.323 E3.75712
G1 X105.146 Y85.422 E3.76991
G1 X105.845 Y86.011 E3.84288
G1 X105.947 Y86.104 E3.8539
G1 X106.699 Y86.845 E3.93817
G1 X107.303 Y87.529 E4.01101
G1 X107.438 Y87.695 E4.02809
G1 X108.193 Y88.708 E4.12894
G1 X108.294 Y88.858 E4.14338
G1 X108.819 Y89.695 E4.22224
G1 X108.889 Y89.817 E4.23347
G1 X109.322 Y90.635 E4.30735
G1 X109.389 Y90.773 E4.3196
G1 X109.748 Y91.589 E4.39076
G1 X109.818 Y91.768 E4.4061
G1 X110.11 Y92.591 E4.47581
G1 X110.165 Y92.766 E4.49045
G1 X110.467 Y93.891 E4.58343
G1 X110.493 Y94.017 E4.5937
G1 X110.657 Y94.893 E4.66485
G1 X110.689 Y95.108 E4.6822
G1 X110.785 Y95.95 E4.74984
G1 X110.8 Y96.15 E4.76585
G1 X110.84 Y97.224 E4.85164
G1 X110.84 Y103.179 E5.327
G1 X110.828 Y103.751 E5.37267
G1 X110.74 Y104.858 E5.46131
G1 X110.581 Y105.904 E5.54577
G1 X110.38 Y106.805 E5.61946
G1 X110.338 Y106.964 E5.63258
G1 X110.088 Y107.795 E5.70186
G1 X110.022 Y107.988 E5.71814
G1 X109.707 Y108.812 E5.78856
G1 X109.634 Y108.984 E5.80347
G1 X109.266 Y109.769 E5.87268
G1 X109.185 Y109.927 E5.88685
G1 X108.665 Y110.843 E5.97093
G1 X108.154 Y111.616 E6.0449
G1 X108.061 Y111.744 E6.05753
G1 X107.51 Y112.458 E6.12952
G1 X107.407 Y112.581 E6.14232
G1 X106.803 Y113.256 E6.21463
G1 X106.702 Y113.361 E6.22626
G1 X106.298 Y113.751 E6.27108
G1 X105.846 Y114.246 E6.32459
G1 X105.453 Y114.804 E6.37907
G1 X105.134 Y115.407 E6.43352
G1 X104.893 Y116.047 E6.48811
G1 X104.734 Y116.711 E6.54262
G1 X104.661 Y117.389 E6.59705
G1 X104.674 Y118.072 E6.65158
G1 X104.772 Y118.748 E6.70611
G1 X104.956 Y119.406 E6.76064
G1 X105.22 Y120.035 E6.8151
G1 X105.561 Y120.623 E6.86936
G1 X105.56 Y120.629 E6.86984
G1 X106.603 Y122.027 E7.00907
G1 X106.696 Y122.165 E7.02235
G1 X107.219 Y122.998 E7.10087
G1 X107.299 Y123.136 E7.1136
G1 X107.732 Y123.954 E7.18748
G1 X107.799 Y124.092 E7.19973
G1 X108.165 Y124.924 E7.27228
G1 X108.226 Y125.081 E7.28573
G1 X108.517 Y125.9 E7.35511
G1 X108.571 Y126.069 E7.36927
G1 X108.877 Y127.21 E7.46357
G1 X108.903 Y127.336 E7.47384
G1 X109.066 Y128.206 E7.54449
G1 X109.098 Y128.419 E7.56169
G1 X109.195 Y129.27 E7.63006
G1 X109.21 Y129.464 E7.64559
G1 X109.25 Y130.542 E7.7317
G1 X109.25 Y136.498 E8.20713
G1 X109.238 Y137.07 E8.2528
G1 X109.15 Y138.177 E8.34145
G1 X109.023 Y139.04 E8.41108
G1 X108.987 Y139.238 E8.42714
G1 X108.79 Y140.124 E8.49959
G1 X108.748 Y140.283 E8.51272
G1 X108.498 Y141.115 E8.58207
G1 X108.441 Y141.283 E8.59623
G1 X108.117 Y142.131 E8.66869
G1 X108.044 Y142.303 E8.68361
G1 X107.671 Y143.097 E8.75363
G1 X107.595 Y143.246 E8.76698
G1 X107.075 Y144.162 E8.85106
G1 X106.564 Y144.935 E8.92503
G1 X106.471 Y145.062 E8.9376
G1 X105.918 Y145.778 E9.00981
G1 X105.817 Y145.9 E9.02246
G1 X105.213 Y146.575 E9.09476
G1 X105.112 Y146.68 E9.10639
G1 X104.46 Y147.309 E9.17871
G1 X104.318 Y147.436 E9.19391
G1 X103.639 Y148 E9.26437
G1 X103.498 Y148.11 E9.27865
G1 X102.79 Y148.616 E9.34811
G1 X102.626 Y148.725 E9.36383
G1 X101.869 Y149.188 E9.43467
G1 X101.717 Y149.272 E9.44853
G1 X100.938 Y149.672 E9.51843
G1 X100.761 Y149.756 E9.53407
G1 X99.936 Y150.107 E9.60564
G1 X99.791 Y150.162 E9.61802
G1 X98.939 Y150.452 E9.68986
G1 X98.776 Y150.501 E9.70345
G1 X97.762 Y150.762 E9.78703
G1 X96.87 Y150.927 E9.85944
G1 X96.695 Y150.952 E9.87355
G1 X95.654 Y151.063 E9.95712
G1 X94.619 Y151.1 E10.03979
G1 X65.775 Y151.099 E12.34224
G1 X64.651 Y151.054 E12.43203
G1 X63.734 Y150.952 E12.50569
G1 X63.559 Y150.927 E12.5198
G1 X62.542 Y150.734 E12.60243
G1 X61.653 Y150.501 E12.67579
G1 X61.49 Y150.452 E12.68937
G1 X60.648 Y150.165 E12.76038
G1 X60.482 Y150.102 E12.77456
G1 X59.679 Y149.761 E12.84419
G1 X59.49 Y149.673 E12.86084
G1 X58.579 Y149.199 E12.94281
G1 X57.8 Y148.724 E13.01564
G1 X57.648 Y148.623 E13.03021
G1 X56.931 Y148.11 E13.10059
G1 X56.787 Y148 E13.11505
G1 X56.096 Y147.424 E13.18686
G1 X55.983 Y147.323 E13.19896
G1 X55.334 Y146.698 E13.27088
G1 X55.214 Y146.573 E13.28471
G1 X54.611 Y145.902 E13.35672
G1 X54.514 Y145.784 E13.36892
G1 X53.956 Y145.062 E13.44176
G1 X53.852 Y144.915 E13.45613
G1 X53.359 Y144.172 E13.52731
G1 X53.285 Y144.05 E13.5387
G1 X52.834 Y143.246 E13.61229
G1 X52.762 Y143.107 E13.62478
G1 X52.379 Y142.291 E13.69674
G1 X52.314 Y142.137 E13.71008
G1 X51.992 Y141.298 E13.78181
G1 X51.934 Y141.127 E13.79623
G1 X51.678 Y140.274 E13.86732
G1 X51.637 Y140.118 E13.88019
G1 X51.435 Y139.216 E13.95398
G1 X51.413 Y139.092 E13.96403
G1 X51.278 Y138.178 E14.03778
G1 X51.261 Y138.018 E14.05063
G1 X51.186 Y136.961 E14.13521
G1 X51.178 Y136.426 E14.17792
G1 X51.181 Y133.475 E14.41349
G1 X51.178 Y130.556 E14.64649
G1 X51.212 Y129.585 E14.72405
G1 X51.228 Y129.378 E14.74062
G1 X51.402 Y127.981 E14.853
G1 X51.591 Y127.044 E14.9293
G1 X51.629 Y126.884 E14.94243
G1 X51.865 Y126.041 E15.01231
G1 X51.933 Y125.83 E15.03
G1 X52.231 Y125 E15.1004
G1 X52.282 Y124.874 E15.11125
G1 X52.656 Y124.032 E15.18479
G1 X52.728 Y123.886 E15.19779
G1 X53.153 Y123.093 E15.26961
G1 X53.235 Y122.953 E15.28256
G1 X53.887 Y121.937 E15.37892
G1 X53.963 Y121.831 E15.38933
G1 X54.526 Y121.079 E15.46432
G1 X54.624 Y120.958 E15.47675
G1 X55.219 Y120.272 E15.54924
G1 X55.322 Y120.162 E15.56127
G1 X55.758 Y119.729 E15.61032
G1 X56.202 Y119.227 E15.66381
G1 X56.587 Y118.664 E15.71826
G1 X56.898 Y118.056 E15.77277
G1 X57.129 Y117.414 E15.82723
G1 X57.277 Y116.747 E15.88177
G1 X57.341 Y116.067 E15.93629
G1 X57.317 Y115.384 E15.99085
G1 X57.209 Y114.71 E16.04533
G1 X57.015 Y114.055 E16.09986
G1 X56.741 Y113.43 E16.15434
G1 X56.369 Y112.817 E16.21158
G1 X56.372 Y112.814 E16.21191
G1 X55.545 Y111.743 E16.31993
G1 X55.441 Y111.596 E16.3343
G1 X54.948 Y110.853 E16.40548
G1 X54.874 Y110.731 E16.41687
G1 X54.423 Y109.927 E16.49046
G1 X54.351 Y109.788 E16.50295
G1 X53.968 Y108.972 E16.57491
G1 X53.903 Y108.818 E16.58825
G1 X53.579 Y107.971 E16.66064
G1 X53.522 Y107.806 E16.67457
G1 X53.27 Y106.964 E16.74473
G1 X53.226 Y106.798 E16.75844
G1 X53.024 Y105.897 E16.83215
G1 X53.002 Y105.773 E16.8422
G1 X52.867 Y104.859 E16.91595
G1 X52.85 Y104.699 E16.92879
G1 X52.783 Y103.796 E17.00107
G1 X52.775 Y103.61 E17.01593
G1 X52.767 Y103.102 E17.05649
G1 X52.771 Y100.147 E17.29237
G1 X52.767 Y97.242 E17.52426
G1 X52.801 Y96.274 E17.60158
G1 X52.818 Y96.059 E17.6188
G1 X52.989 Y94.672 E17.73035
G1 X53.015 Y94.537 E17.74132
G1 X53.202 Y93.643 E17.81423
G1 X53.244 Y93.47 E17.82844
G1 X53.487 Y92.619 E17.89909
G1 X53.542 Y92.447 E17.9135
G1 X53.915 Y91.45 E17.99847
G1 X54.29 Y90.623 E18.07096
G1 X54.366 Y90.471 E18.08452
G1 X54.788 Y89.695 E18.15504
G1 X54.873 Y89.552 E18.16831
G1 X55.477 Y88.618 E18.2571
G1 X55.545 Y88.523 E18.26643
G1 X56.205 Y87.649 E18.35385
G1 X56.809 Y86.953 E18.42741
G1 X56.912 Y86.843 E18.43944
G1 X57.563 Y86.197 E18.51265
G1 X57.686 Y86.083 E18.52604
G1 X58.357 Y85.506 E18.59668
G1 X58.489 Y85.401 E18.61014
G1 X59.215 Y84.864 E18.68223
G1 F2700 E13.68223
G0 F9000 X58.781 Y83.872
G0 X59.948 Y83.153
G0 X61.866 Y82.234
G0 X63.616 Y81.652
G0 X65.665 Y81.229
G0 X67.79 Y81.08
G0 X96.819 Y81.118
G0 X99.033 Y81.424
G0 X126.086 Y88.656
G0 X127.073 Y89.097
G1 F2700 E18.68223
G1 F1125 X127.141 Y89.002 E18.69155
G1 X127.712 Y88.239 E18.76762
G1 X127.81 Y88.118 E18.78005
G1 X128.415 Y87.421 E18.85373
G1 X128.52 Y87.31 E18.86592
G1 X129.159 Y86.676 E18.93778
G1 X129.292 Y86.553 E18.95224
G1 X129.958 Y85.981 E19.02232
G1 X130.085 Y85.88 E19.03527
G1 X130.813 Y85.342 E19.10753
G1 X130.966 Y85.237 E19.12234
G1 X132.049 Y84.57 E19.22387
G1 X132.884 Y84.133 E19.2991
G1 X133.048 Y84.054 E19.31363
G1 X133.855 Y83.704 E19.38385
G1 X134.031 Y83.635 E19.39894
G1 X135.255 Y83.222 E19.50206
G1 X135.373 Y83.19 E19.51182
G1 X136.258 Y82.967 E19.58467
G1 X136.444 Y82.927 E19.59986
G1 X137.31 Y82.774 E19.67005
G1 X137.472 Y82.752 E19.6831
G1 X138.379 Y82.66 E19.75588
G1 X138.548 Y82.65 E19.76939
G1 X139.447 Y82.622 E19.84119
G1 X162.549 Y82.627 E21.68529
G1 X167.35 Y82.623 E22.06853
G1 X168.338 Y82.658 E22.14744
G1 X168.478 Y82.668 E22.15864
G1 X169.531 Y82.786 E22.24323
G1 X170.523 Y82.968 E22.32373
G1 X171.484 Y83.207 E22.40278
G1 X171.631 Y83.249 E22.41499
G1 X172.482 Y83.527 E22.48645
G1 X172.664 Y83.594 E22.50193
G1 X173.44 Y83.912 E22.56887
G1 X173.658 Y84.012 E22.58802
G1 X174.937 Y84.676 E22.70305
G1 X175.799 Y85.212 E22.78408
G1 X175.913 Y85.29 E22.7951
G1 X176.638 Y85.819 E22.86674
G1 X176.78 Y85.931 E22.88118
G1 X177.468 Y86.515 E22.95322
G1 X177.584 Y86.621 E22.96576
G1 X178.217 Y87.243 E23.0366
G1 X178.34 Y87.373 E23.05089
G1 X178.925 Y88.039 E23.12165
G1 X179.044 Y88.186 E23.13674
G1 X179.749 Y89.131 E23.23086
G1 X179.899 Y89.354 E23.25231
G1 X180.373 Y90.105 E23.3232
G1 X180.471 Y90.274 E23.3388
G1 X180.886 Y91.049 E23.40897
G1 X180.965 Y91.211 E23.42336
G1 X181.328 Y92.029 E23.49479
G1 X181.391 Y92.186 E23.5083
G1 X181.694 Y93.032 E23.58003
G1 X181.748 Y93.204 E23.59442
G1 X182.072 Y94.418 E23.69472
G1 X182.254 Y95.368 E23.77193
G1 X182.279 Y95.539 E23.78573
G1 X182.38 Y96.409 E23.85564
G1 X182.394 Y96.593 E23.87037
G1 X182.436 Y97.699 E23.95872
G1 X182.436 Y103.657 E24.43431
G1 X182.424 Y104.229 E24.47998
G1 X182.336 Y105.336 E24.56863
G1 X182.177 Y106.382 E24.65308
G1 X181.976 Y107.283 E24.72677
G1 X181.934 Y107.442 E24.7399
G1 X181.684 Y108.273 E24.80917
G1 X181.618 Y108.466 E24.82545
G1 X181.303 Y109.29 E24.89587
G1 X181.23 Y109.462 E24.91078
G1 X180.857 Y110.256 E24.98081
G1 X180.781 Y110.405 E24.99416
G1 X180.261 Y111.321 E25.07824
G1 X179.75 Y112.094 E25.15221
G1 X179.657 Y112.221 E25.16477
G1 X179.104 Y112.937 E25.23699
G1 X179.003 Y113.059 E25.24963
G1 X178.399 Y113.734 E25.32194
G1 X178.296 Y113.841 E25.33379
G1 X177.623 Y114.491 E25.40848
G1 X177.172 Y114.985 E25.46187
G1 X176.778 Y115.544 E25.51647
G1 X176.46 Y116.148 E25.57095
G1 X176.219 Y116.787 E25.62547
G1 X176.061 Y117.451 E25.67995
G1 X175.988 Y118.129 E25.73439
G1 X176.001 Y118.812 E25.78892
G1 X176.1 Y119.488 E25.84345
G1 X176.284 Y120.145 E25.89792
G1 X176.548 Y120.774 E25.95237
G1 X176.889 Y121.363 E26.0067
G1 X177.186 Y121.765 E26.04659
G1 X177.375 Y121.997 E26.07048
G1 X178.148 Y123.043 E26.1743
G1 X178.219 Y123.151 E26.18462
G1 X178.697 Y123.909 E26.25615
G1 X178.795 Y124.078 E26.27175
G1 X179.21 Y124.853 E26.34192
G1 X179.289 Y125.015 E26.35631
G1 X179.641 Y125.807 E26.42549
G1 X179.715 Y125.99 E26.44125
G1 X180.021 Y126.844 E26.51366
G1 X180.067 Y126.992 E26.52603
G1 X180.384 Y128.161 E26.62272
G1 X180.413 Y128.3 E26.63405
G1 X180.574 Y129.158 E26.70374
G1 X180.609 Y129.391 E26.72255
G1 X180.705 Y130.23 E26.78996
G1 X180.719 Y130.415 E26.80477
G1 X180.76 Y131.506 E26.89192
G1 X180.76 Y137.462 E27.36735
G1 X180.748 Y138.034 E27.41302
G1 X180.66 Y139.141 E27.50166
G1 X180.501 Y140.187 E27.58612
G1 X180.3 Y141.088 E27.65981
G1 X180.259 Y141.243 E27.67261
G1 X180.011 Y142.069 E27.74145
G1 X179.942 Y142.271 E27.75849
G1 X179.627 Y143.095 E27.82891
G1 X179.554 Y143.267 E27.84382
G1 X179.181 Y144.061 E27.91385
G1 X179.105 Y144.21 E27.9272
G1 X178.585 Y145.126 E28.01128
G1 X178.074 Y145.899 E28.08525
G1 X177.981 Y146.026 E28.09781
G1 X177.428 Y146.742 E28.17003
G1 X177.327 Y146.864 E28.18267
G1 X176.723 Y147.539 E28.25497
G1 X176.622 Y147.644 E28.2666
G1 X175.97 Y148.273 E28.33892
G1 X175.816 Y148.411 E28.35543
G1 X175.16 Y148.956 E28.42351
G1 X175.008 Y149.074 E28.43887
G1 X174.3 Y149.58 E28.50833
G1 X174.136 Y149.689 E28.52405
G1 X173.379 Y150.152 E28.59488
G1 X173.227 Y150.236 E28.60875
G1 X172.436 Y150.642 E28.67972
G1 X172.281 Y150.715 E28.6934
G1 X171.446 Y151.071 E28.76585
G1 X171.301 Y151.126 E28.77823
G1 X170.449 Y151.416 E28.85007
G1 X170.286 Y151.465 E28.86366
G1 X169.269 Y151.727 E28.94749
G1 X168.38 Y151.891 E29.01965
G1 X168.205 Y151.916 E29.03377
G1 X167.164 Y152.027 E29.11733
G1 X166.129 Y152.064 E29.2
G1 X137.284 Y152.063 E31.50254
G1 X136.16 Y152.018 E31.59233
G1 X135.243 Y151.916 E31.66598
G1 X135.068 Y151.891 E31.68009
G1 X134.179 Y151.727 E31.75225
G1 X134.056 Y151.699 E31.76232
G1 X133.162 Y151.465 E31.83609
G1 X132.999 Y151.416 E31.84968
G1 X132.157 Y151.129 E31.92069
G1 X131.986 Y151.064 E31.93529
G1 X131.188 Y150.725 E32.0045
G1 X130.999 Y150.637 E32.02114
G1 X130.088 Y150.163 E32.10312
G1 X129.309 Y149.688 E32.17595
G1 X129.157 Y149.587 E32.19051
G1 X128.44 Y149.074 E32.26089
G1 X128.296 Y148.964 E32.27535
G1 X127.605 Y148.388 E32.34716
G1 X127.492 Y148.287 E32.35926
G1 X126.843 Y147.662 E32.43118
G1 X126.723 Y147.537 E32.44502
G1 X126.12 Y146.866 E32.51703
G1 X126.023 Y146.748 E32.52922
G1 X125.465 Y146.026 E32.60206
G1 X125.361 Y145.879 E32.61643
G1 X124.868 Y145.136 E32.68761
G1 X124.794 Y145.014 E32.699
G1 X124.343 Y144.21 E32.77259
G1 X124.271 Y144.071 E32.78508
G1 X123.888 Y143.255 E32.85704
G1 X123.823 Y143.101 E32.87038
G1 X123.499 Y142.254 E32.94277
G1 X123.442 Y142.089 E32.95671
G1 X123.19 Y141.247 E33.02686
G1 X123.145 Y141.078 E33.04082
G1 X122.946 Y140.187 E33.1137
G1 X122.919 Y140.036 E33.12594
G1 X122.787 Y139.142 E33.19808
G1 X122.77 Y138.982 E33.21093
G1 X122.695 Y137.925 E33.29551
G1 X122.687 Y137.39 E33.33822
G1 X122.69 Y134.439 E33.57378
G1 X122.687 Y131.52 E33.80679
G1 X122.722 Y130.529 E33.88595
G1 X122.737 Y130.343 E33.90084
G1 X122.909 Y128.952 E34.01272
G1 X122.931 Y128.839 E34.02191
G1 X123.122 Y127.926 E34.09637
G1 X123.164 Y127.753 E34.11058
G1 X123.407 Y126.902 E34.18123
G1 X123.462 Y126.73 E34.19564
G1 X123.835 Y125.733 E34.28061
G1 X124.204 Y124.919 E34.35196
G1 X124.286 Y124.754 E34.36666
G1 X124.708 Y123.978 E34.43717
G1 X124.793 Y123.835 E34.45045
G1 X125.397 Y122.901 E34.53924
G1 X125.465 Y122.806 E34.54857
G1 X126.036 Y122.043 E34.62464
G1 X126.134 Y121.922 E34.63707
G1 X126.739 Y121.225 E34.71074
G1 X126.832 Y121.127 E34.72153
G1 X127.536 Y120.427 E34.80077
G1 X127.98 Y119.925 E34.85427
G1 X128.366 Y119.362 E34.90876
G1 X128.676 Y118.754 E34.96324
G1 X128.908 Y118.112 E35.01773
G1 X129.056 Y117.445 E35.07227
G1 X129.12 Y116.765 E35.12679
G1 X129.097 Y116.082 E35.18134
G1 X128.988 Y115.408 E35.23584
G1 X128.794 Y114.753 E35.29037
G1 X128.52 Y114.128 E35.34484
G1 X128.17 Y113.544 E35.39919
G1 X128.114 Y113.472 E35.40647
G1 X128.13 Y113.46 E35.40807
G1 X127.7 Y112.945 E35.46162
G1 X127.141 Y112.221 E35.53464
G1 X127.037 Y112.074 E35.54901
G1 X126.544 Y111.331 E35.62019
G1 X126.47 Y111.209 E35.63158
G1 X126.019 Y110.405 E35.70517
G1 X125.947 Y110.266 E35.71766
G1 X125.564 Y109.45 E35.78962
G1 X125.499 Y109.296 E35.80296
G1 X125.175 Y108.449 E35.87535
G1 X125.118 Y108.284 E35.88928
G1 X124.866 Y107.442 E35.95944
G1 X124.822 Y107.276 E35.97315
