;FLAVOR:Marlin
;TIME:8856
;Filament used: 6.2156m
;Layer height: 0.2
;MINX:38.263
;MINY:93.569
;MINZ:0.24
;MAXX:198.432
;MAXY:129.562
;MAXZ:30.89
;Generated with Cura_SteamEngine 4.6.1
M140 S55
M105
M190 S55
M104 S210
M105
M109 S210
M82 ;absolute extrusion mode
; Ender 3 Custom Start G-code
G92 E0 ; Reset Extruder
G28 ; Home all axes
G1 Z2.0 F3000 ; Move Z Axis up little to prevent scratching of Heat Bed
G1 X0.1 Y20 Z0.3 F5000.0 ; Move to start position
G1 X0.1 Y200.0 Z0.3 F1500.0 E15 ; Draw the first line
G1 X0.4 Y200.0 Z0.3 F5000.0 ; Move to side a little
G1 X0.4 Y20 Z0.3 F1500.0 E30 ; Draw the second line
G92 E0 ; Reset Extruder
G1 Z2.0 F3000 ; Move Z Axis up little to prevent scratching of Heat Bed
G1 X5 Y20 Z0.3 F5000.0 ; Move over to prevent blob squish
G92 E0
G92 E0
G1 F2700 E-5
;LAYER_COUNT:149
;LAYER:-6
M107
G0 F9000 X47.661 Y96.496 Z0.24
;TYPE:SUPPORT-INTERFACE
G1 F2700 E0
G1 F1125 X48.151 Y96.263 E0.04331
G1 X48.696 Y96.022 E0.09088
G1 X49.562 Y95.671 E0.16547
G1 X49.708 Y95.618 E0.17787
G1 X50.564 Y95.344 E0.24961
G1 X50.728 Y95.298 E0.26321
G1 X51.6 Y95.086 E0.33484
G1 X51.756 Y95.054 E0.34755
G1 X52.661 Y94.903 E0.42079
G1 X52.818 Y94.882 E0.43344
G1 X53.709 Y94.799 E0.50487
G1 X53.888 Y94.79 E0.51918
G1 X54.581 Y94.777 E0.5745
G1 X54.889 Y94.762 E0.59912
G1 X55.392 Y94.723 E0.63939
G1 X55.576 Y94.715 E0.65409
G1 X56.466 Y94.71 E0.72514
G1 X56.621 Y94.716 E0.73752
G1 X56.915 Y94.736 E0.76104
G1 X57.591 Y94.739 E0.815
G1 X57.873 Y94.722 E0.83756
G1 X58.808 Y94.696 E0.91222
G1 X59.222 Y94.679 E0.9453
G1 X59.705 Y94.645 E0.98395
G1 X60.34 Y94.634 E1.03464
G1 X73.909 Y94.68 E2.11778
G1 X82.063 Y94.655 E2.76868
G1 X88.88 Y94.675 E3.31284
G1 X95.703 Y94.675 E3.85748
G1 X109.1 Y94.654 E4.92689
G1 X111.899 Y94.675 E5.15032
G1 X114.093 Y94.676 E5.32546
G1 X115.007 Y94.685 E5.39842
G1 X121.7 Y94.686 E5.93269
G1 X122.73 Y94.675 E6.01491
G1 X124.04 Y94.675 E6.11948
G1 X127.673 Y94.655 E6.40949
G1 X131.177 Y94.654 E6.68919
G1 X140.971 Y94.675 E7.47099
G1 X147.787 Y94.675 E8.01507
G1 X154.693 Y94.655 E8.56634
G1 X162.843 Y94.68 E9.21691
G1 X176.441 Y94.635 E10.30237
G1 X177.415 Y94.667 E10.38016
G1 X178.061 Y94.709 E10.43184
G1 X178.061 Y94.698 E10.43272
G1 X179.1 Y94.738 E10.51571
G1 X179.729 Y94.739 E10.56592
G1 X180.311 Y94.709 E10.61244
G1 X181.228 Y94.722 E10.68565
G1 X182 Y94.768 E10.74738
G1 X182.85 Y94.785 E10.81525
G1 X183.744 Y94.864 E10.88689
G1 X183.929 Y94.887 E10.90177
G1 X184.784 Y95.025 E10.9709
G1 X184.99 Y95.065 E10.98765
G1 X185.856 Y95.271 E11.05871
G1 X186.001 Y95.311 E11.07072
G1 X186.842 Y95.578 E11.14115
G1 X187.031 Y95.645 E11.15716
G1 X187.959 Y96.016 E11.23694
G1 X188.476 Y96.246 E11.2821
G1 X189.322 Y96.654 E11.35708
G1 X189.445 Y96.719 E11.36818
G1 X190.369 Y97.258 E11.45357
G1 X191.116 Y97.765 E11.52564
G1 X191.271 Y97.879 E11.541
G1 X191.946 Y98.413 E11.6097
G1 X192.099 Y98.543 E11.62573
G1 X192.75 Y99.142 E11.69634
G1 X192.874 Y99.264 E11.71023
G1 X193.491 Y99.92 E11.78212
G1 X193.592 Y100.035 E11.79434
G1 X194.257 Y100.862 E11.87905
G1 X194.861 Y101.736 E11.96385
G1 X195.347 Y102.547 E12.03932
G1 X195.797 Y103.402 E12.11645
G1 X195.868 Y103.55 E12.12955
G1 X196.231 Y104.381 E12.20194
G1 X196.295 Y104.543 E12.21584
G1 X196.591 Y105.382 E12.28686
G1 X196.638 Y105.534 E12.29956
G1 X196.871 Y106.395 E12.37076
G1 X196.912 Y106.57 E12.38511
G1 X197.11 Y107.606 E12.4693
G1 X197.233 Y108.667 E12.55456
G1 X197.27 Y109.295 E12.60478
G1 X197.37 Y112.162 E12.83378
G1 X197.368 Y113.136 E12.91153
G1 X197.361 Y113.325 E12.92662
G1 X197.305 Y114.139 E12.99175
G1 X197.193 Y115.263 E13.08192
G1 X197.064 Y116.217 E13.15877
G1 X197.037 Y116.369 E13.17109
G1 X196.848 Y117.265 E13.24419
G1 X196.808 Y117.423 E13.2572
G1 X196.564 Y118.267 E13.32733
G1 X196.507 Y118.442 E13.34202
G1 X196.2 Y119.271 E13.41258
G1 X196.13 Y119.442 E13.42733
G1 X195.769 Y120.235 E13.49688
G1 X195.682 Y120.41 E13.51248
G1 X195.188 Y121.308 E13.5943
G1 X194.677 Y122.101 E13.6696
G1 X194.59 Y122.224 E13.68163
G1 X194.046 Y122.946 E13.75379
G1 X193.935 Y123.082 E13.7678
G1 X193.348 Y123.752 E13.83891
G1 X193.226 Y123.882 E13.85314
G1 X192.559 Y124.542 E13.92804
G1 X192.469 Y124.622 E13.93765
G1 X191.78 Y125.218 E14.01037
G1 X191.643 Y125.328 E14.0244
G1 X190.92 Y125.868 E14.09643
G1 X190.766 Y125.973 E14.11131
G1 X190.046 Y126.431 E14.17943
G1 X189.873 Y126.533 E14.19546
G1 X189.08 Y126.961 E14.26739
G1 X188.946 Y127.027 E14.27931
G1 X188.124 Y127.395 E14.3512
G1 X187.967 Y127.459 E14.36474
G1 X187.107 Y127.771 E14.43777
G1 X186.972 Y127.814 E14.44908
G1 X186.103 Y128.06 E14.52117
G1 X185.936 Y128.1 E14.53488
G1 X185.054 Y128.281 E14.60675
G1 X184.887 Y128.309 E14.62027
G1 X184.005 Y128.423 E14.69126
G1 X183.836 Y128.438 E14.7048
G1 X182.492 Y128.498 E14.81219
G1 X181.22 Y128.497 E14.91373
G1 X180.602 Y128.475 E14.96309
G1 X180.14 Y128.479 E14.99997
G1 X179.72 Y128.498 E15.03353
G1 X56.904 Y128.498 E24.83723
G1 X56.839 Y128.497 E24.84242
G1 X56.509 Y128.485 E24.86878
G1 X56.509 Y128.474 E24.86966
G1 X55.396 Y128.498 E24.95853
G1 X54.144 Y128.497 E25.05847
G1 X53.02 Y128.452 E25.14826
G1 X52.103 Y128.35 E25.22191
G1 X51.928 Y128.325 E25.23602
G1 X51.039 Y128.161 E25.30818
G1 X50.916 Y128.133 E25.31825
G1 X50.022 Y127.899 E25.39202
G1 X49.859 Y127.85 E25.40561
G1 X49.017 Y127.563 E25.47662
G1 X48.851 Y127.5 E25.49079
G1 X48.048 Y127.159 E25.56043
G1 X47.859 Y127.071 E25.57707
G1 X46.948 Y126.597 E25.65904
G1 X46.169 Y126.122 E25.73188
G1 X46.009 Y126.016 E25.7472
G1 X45.298 Y125.507 E25.817
G1 X45.163 Y125.402 E25.83065
G1 X44.118 Y124.507 E25.94048
G1 X43.441 Y123.836 E26.01656
G1 X43.322 Y123.709 E26.03046
G1 X42.634 Y122.911 E26.11456
G1 X42.098 Y122.196 E26.18589
G1 X41.985 Y122.033 E26.20173
G1 X41.506 Y121.286 E26.27256
G1 X41.425 Y121.15 E26.2852
G1 X40.996 Y120.363 E26.35675
G1 X40.923 Y120.212 E26.37013
G1 X40.49 Y119.242 E26.45493
G1 X40.177 Y118.386 E26.52768
G1 X40.115 Y118.193 E26.54386
G1 X39.882 Y117.377 E26.6116
G1 X39.836 Y117.187 E26.62721
G1 X39.658 Y116.332 E26.69692
G1 X39.628 Y116.15 E26.71165
G1 X39.476 Y114.923 E26.81034
G1 X39.408 Y114.21 E26.86751
G1 X39.323 Y112.58 E26.9978
G1 X39.328 Y112.206 E27.02766
G1 X39.393 Y109.624 E27.23383
G1 X39.406 Y109.43 E27.24935
G1 X39.428 Y108.807 E27.29911
G1 X39.438 Y108.673 E27.30984
G1 X39.54 Y107.756 E27.38349
G1 X39.565 Y107.581 E27.3976
G1 X39.727 Y106.703 E27.46887
G1 X39.757 Y106.569 E27.47983
G1 X39.988 Y105.684 E27.55284
G1 X40.04 Y105.512 E27.56719
G1 X40.327 Y104.67 E27.63819
G1 X40.39 Y104.504 E27.65237
G1 X40.731 Y103.7 E27.72208
G1 X40.809 Y103.534 E27.73672
G1 X41.48 Y102.273 E27.85074
G1 X42.071 Y101.34 E27.9389
G1 X42.611 Y100.601 E28.01196
G1 X42.714 Y100.472 E28.02514
G1 X43.288 Y99.797 E28.09587
G1 X43.412 Y99.662 E28.1105
G1 X44.037 Y99.029 E28.18151
G1 X44.151 Y98.921 E28.19405
G1 X44.845 Y98.313 E28.2677
G1 X44.97 Y98.211 E28.28058
G1 X45.681 Y97.675 E28.35165
G1 X45.813 Y97.582 E28.36454
G1 X46.698 Y97.016 E28.4484
G1 X47.513 Y96.571 E28.52252
G1 X47.661 Y96.496 E28.53576
G0 F9000 X48 Y96.334
G1 F1125 X48 Y127.136 E30.99451
G0 F9000 X49.6 Y127.761
G1 F1125 X49.6 Y95.657 E33.55719
G0 F9000 X51.2 Y95.183
G1 F1125 X51.2 Y128.19 E36.19195
G0 F9000 X52.8 Y128.427
G1 F1125 X52.8 Y94.884 E38.8695
G0 F9000 X54.4 Y94.78
G1 F1125 X54.4 Y128.497 E41.56094
G0 F9000 X56 Y128.485
G1 F1125 X56 Y94.712 E44.25685
G0 F9000 X57.6 Y94.738
G1 F1125 X57.6 Y128.498 E46.95171
G0 F9000 X59.2 Y128.498
G1 F1125 X59.2 Y94.679 E49.65129
G0 F9000 X60.8 Y94.636
G1 F1125 X60.8 Y128.498 E52.3543
G0 F9000 X62.4 Y128.498
G1 F1125 X62.4 Y94.641 E55.05692
G0 F9000 X64 Y94.647
G1 F1125 X64 Y128.498 E57.75905
G0 F9000 X65.6 Y128.498
G1 F1125 X65.6 Y94.652 E60.46078
G0 F9000 X67.2 Y94.658
G1 F1125 X67.2 Y128.498 E63.16204
G0 F9000 X68.8 Y128.498
G1 F1125 X68.8 Y94.663 E65.8629
G0 F9000 X70.4 Y94.669
G1 F1125 X70.4 Y128.498 E68.56327
G0 F9000 X72 Y128.498
G1 F1125 X72 Y94.674 E71.26325
G0 F9000 X73.6 Y94.679
G1 F1125 X73.6 Y128.498 E73.96283
G0 F9000 X75.2 Y128.498
G1 F1125 X75.2 Y94.676 E76.66265
G0 F9000 X76.8 Y94.671
G1 F1125 X76.8 Y128.498 E79.36286
G0 F9000 X78.4 Y128.498
G1 F1125 X78.4 Y94.666 E82.06348
G0 F9000 X80 Y94.661
G1 F1125 X80 Y128.498 E84.7645
G0 F9000 X81.6 Y128.498
G1 F1125 X81.6 Y94.656 E87.46591
G0 F9000 X83.2 Y94.659
G1 F1125 X83.2 Y128.498 E90.16709
G0 F9000 X84.8 Y128.498
G1 F1125 X84.8 Y94.664 E92.86786
G0 F9000 X86.4 Y94.668
G1 F1125 X86.4 Y128.498 E95.56832
G0 F9000 X88 Y128.498
G1 F1125 X88 Y94.673 E98.26838
G0 F9000 X89.6 Y94.675
G1 F1125 X89.6 Y128.498 E100.96828
G0 F9000 X91.2 Y128.498
G1 F1125 X91.2 Y94.675 E103.66817
G0 F9000 X92.8 Y94.675
G1 F1125 X92.8 Y128.498 E106.36807
G0 F9000 X94.4 Y128.498
G1 F1125 X94.4 Y94.675 E109.06797
G0 F9000 X96 Y94.674
G1 F1125 X96 Y128.498 E111.76795
G0 F9000 X97.6 Y128.498
G1 F1125 X97.6 Y94.672 E114.46809
G0 F9000 X99.2 Y94.669
G1 F1125 X99.2 Y128.498 E117.16846
G0 F9000 X100.8 Y128.498
G1 F1125 X100.8 Y94.667 E119.869
G0 F9000 X102.4 Y94.664
G1 F1125 X102.4 Y128.498 E122.56978
G0 F9000 X104 Y128.498
G1 F1125 X104 Y94.661 E125.27079
G0 F9000 X105.6 Y94.659
G1 F1125 X105.6 Y128.498 E127.97197
G0 F9000 X107.2 Y128.498
G1 F1125 X107.2 Y94.656 E130.67338
G0 F9000 X108.8 Y94.654
G1 F1125 X108.8 Y128.498 E133.37496
G0 F9000 X110.4 Y128.498
G1 F1125 X110.4 Y94.664 E136.07573
G0 F9000 X112 Y94.676
G1 F1125 X112 Y128.498 E138.77555
G0 F9000 X113.6 Y128.498
G1 F1125 X113.6 Y94.676 E141.47537
G0 F9000 X115.2 Y94.686
G1 F1125 X115.2 Y128.498 E144.17439
G0 F9000 X116.8 Y128.498
G1 F1125 X116.8 Y94.686 E146.87341
G0 F9000 X118.4 Y94.686
G1 F1125 X118.4 Y128.498 E149.57243
G0 F9000 X120 Y128.498
G1 F1125 X120 Y94.686 E152.27145
G0 F9000 X121.6 Y94.686
G1 F1125 X121.6 Y128.498 E154.97047
G0 F9000 X123.2 Y128.498
G1 F1125 X123.2 Y94.675 E157.67037
G0 F9000 X124.8 Y94.67
G1 F1125 X124.8 Y128.498 E160.37066
G0 F9000 X126.4 Y128.498
G1 F1125 X126.4 Y94.662 E163.0716
G0 F9000 X128 Y94.654
G1 F1125 X128 Y128.498 E165.77317
G0 F9000 X129.6 Y128.498
G1 F1125 X129.6 Y94.654 E168.47475
G0 F9000 X131.2 Y94.655
G1 F1125 X131.2 Y128.498 E171.17624
G0 F9000 X132.8 Y128.498
G1 F1125 X132.8 Y94.658 E173.8775
G0 F9000 X134.4 Y94.661
G1 F1125 X134.4 Y128.498 E176.57851
G0 F9000 X136 Y128.498
G1 F1125 X136 Y94.665 E179.27921
G0 F9000 X137.6 Y94.668
G1 F1125 X137.6 Y128.498 E181.97967
G0 F9000 X139.2 Y128.498
G1 F1125 X139.2 Y94.672 E184.67981
G0 F9000 X140.8 Y94.675
G1 F1125 X140.8 Y128.498 E187.3797
G0 F9000 X142.4 Y128.498
G1 F1125 X142.4 Y94.675 E190.0796
G0 F9000 X144 Y94.675
G1 F1125 X144 Y128.498 E192.7795
G0 F9000 X145.6 Y128.498
G1 F1125 X145.6 Y94.675 E195.4794
G0 F9000 X147.2 Y94.675
G1 F1125 X147.2 Y128.498 E198.1793
G0 F9000 X148.8 Y128.498
G1 F1125 X148.8 Y94.672 E200.87943
G0 F9000 X150.4 Y94.667
G1 F1125 X150.4 Y128.498 E203.57997
G0 F9000 X152 Y128.498
G1 F1125 X152 Y94.662 E206.28091
G0 F9000 X153.6 Y94.658
G1 F1125 X153.6 Y128.498 E208.98216
G0 F9000 X155.2 Y128.498
G1 F1125 X155.2 Y94.657 E211.6835
G0 F9000 X156.8 Y94.662
G1 F1125 X156.8 Y128.498 E214.38443
G0 F9000 X158.4 Y128.498
G1 F1125 X158.4 Y94.667 E217.08497
G0 F9000 X160 Y94.672
G1 F1125 X160 Y128.498 E219.78511
G0 F9000 X161.6 Y128.498
G1 F1125 X161.6 Y94.677 E222.48484
G0 F9000 X163.2 Y94.678
G1 F1125 X163.2 Y128.498 E225.1845
G0 F9000 X164.8 Y128.498
G1 F1125 X164.8 Y94.673 E227.88456
G0 F9000 X166.4 Y94.668
G1 F1125 X166.4 Y128.498 E230.58502
G0 F9000 X168 Y128.498
G1 F1125 X168 Y94.662 E233.28595
G0 F9000 X169.6 Y94.657
G1 F1125 X169.6 Y128.498 E235.98729
G0 F9000 X171.2 Y128.498
G1 F1125 X171.2 Y94.652 E238.68902
G0 F9000 X172.8 Y94.647
G1 F1125 X172.8 Y128.498 E241.39116
G0 F9000 X174.4 Y128.498
G1 F1125 X174.4 Y94.641 E244.09377
G0 F9000 X176 Y94.636
G1 F1125 X176 Y128.498 E246.79678
G0 F9000 X177.6 Y128.498
G1 F1125 X177.6 Y94.68 E249.49628
G0 F9000 X179.2 Y94.739
G1 F1125 X179.2 Y128.498 E252.19107
G0 F9000 X180.8 Y128.482
G1 F1125 X180.8 Y94.716 E254.88642
G0 F9000 X182.4 Y94.776
G1 F1125 X182.4 Y128.497 E257.57817
G0 F9000 X184 Y128.424
G1 F1125 X184 Y94.899 E260.25428
G0 F9000 X185.6 Y95.211
G1 F1125 X185.6 Y128.169 E262.88513
G0 F9000 X187.2 Y127.738
G1 F1125 X187.2 Y95.713 E265.44151
G0 F9000 X188.8 Y96.403
G1 F1125 X188.8 Y127.093 E267.89132
G0 F9000 X190.4 Y126.206
G1 F1125 X190.4 Y97.28 E270.20031
G0 F9000 X192 Y98.459
G1 F1125 X192 Y125.028 E272.32117
G0 F9000 X193.6 Y123.465
G1 F1125 X193.6 Y100.045 E274.19065
G0 F9000 X195.2 Y102.302
G1 F1125 X195.2 Y121.287 E275.70612
G0 F9000 X196.8 Y117.451
G1 F1125 X196.8 Y106.133 E276.60957
G1 F2700 E271.60957
G0 F9000 X197.827 Y105.854
G0 X197.211 Y103.966
G0 X196.286 Y102.045
G0 X195.123 Y100.244
G0 X194.284 Y99.21
G0 X192.798 Y97.741
G0 X191.725 Y96.892
G0 X189.967 Y95.791
G0 X188.251 Y94.984
G0 X186.311 Y94.293
G0 X184.976 Y93.978
G0 X182.914 Y93.722
G0 X176.384 Y93.569
G0 X59.48 Y93.591
G0 X53.856 Y93.726
G0 X52.502 Y93.85
G0 X50.459 Y94.267
G0 X49.174 Y94.679
G0 X47.433 Y95.445
G0 X46.178 Y96.087
G0 X46.4 Y97.206
G1 F2700 E276.60957
G1 F1125 X46.4 Y126.262 E278.92894
G0 F9000 X44.8 Y125.091
G1 F1125 X44.8 Y98.352 E281.06337
G0 F9000 X43.2 Y99.9
G1 F1125 X43.2 Y123.567 E282.95257
G0 F9000 X41.6 Y121.432
G1 F1125 X41.6 Y102.083 E284.49709
G0 F9000 X40 Y105.644
G1 F1125 X40 Y117.79 E285.46664
G0 F300 X40 Y117.79 Z0.54
G0 F9000 X40.923 Y120.21
;TIME_ELAPSED:208.758585
;LAYER:-5
M140 S55
;TYPE:SUPPORT
G1 F1125 X40.996 Y120.362 E285.48346
G1 X41.424 Y121.149 E285.57285
G1 X41.506 Y121.285 E285.5887
G1 X41.985 Y122.032 E285.67724
G1 X42.098 Y122.195 E285.69703
G1 X42.633 Y122.91 E285.78613
G1 X43.321 Y123.708 E285.89127
G1 X43.441 Y123.834 E285.90863
G1 X44.117 Y124.505 E286.00367
G1 X45.162 Y125.401 E286.14102
G1 X45.297 Y125.506 E286.15808
G1 X46.009 Y126.015 E286.24541
G1 X46.169 Y126.121 E286.26456
G1 X46.947 Y126.596 E286.35552
G1 X47.859 Y127.07 E286.45807
G1 X47.887 Y127.083 E286.46115
G1 X40.848 Y120.044 E287.45443
G1 X40.489 Y119.241 E287.5422
G1 X40.176 Y118.385 E287.63314
G1 X40.114 Y118.192 E287.65337
G1 X39.996 Y117.777 E287.69642
G1 X50.15 Y127.931 E289.12926
G1 X50.915 Y128.131 E289.20816
G1 X51.038 Y128.16 E289.22077
G1 X51.928 Y128.324 E289.31107
G1 X51.961 Y128.328 E289.31438
G1 X39.605 Y115.973 E291.05788
G1 X39.475 Y114.922 E291.16354
G1 X39.423 Y114.376 E291.21827
G1 X53.517 Y128.47 E293.20709
G1 X54.143 Y128.496 E293.2696
G1 X54.957 Y128.496 E293.35082
G1 X39.337 Y112.876 E295.55498
G1 X39.322 Y112.579 E295.58465
G1 X39.327 Y112.205 E295.62197
G1 X39.346 Y111.471 E295.69523
G1 X56.35 Y128.475 E298.09468
G1 X56.509 Y128.472 E298.11055
G1 X56.509 Y128.484 E298.11175
G1 X56.839 Y128.496 E298.1447
G1 X56.904 Y128.497 E298.15118
G1 X57.786 Y128.497 E298.23919
G1 X39.38 Y110.091 E300.83647
G1 X39.392 Y109.622 E300.88329
G1 X39.405 Y109.429 E300.90259
G1 X39.427 Y108.806 E300.96479
G1 X39.433 Y108.729 E300.9725
G1 X59.201 Y128.497 E303.76197
G1 X60.615 Y128.497 E303.90306
G1 X39.585 Y107.467 E306.87062
G1 X39.726 Y106.702 E306.94824
G1 X39.757 Y106.568 E306.96196
G1 X39.827 Y106.295 E306.99009
G1 X62.029 Y128.497 E310.12303
G1 X63.443 Y128.497 E310.26412
G1 X40.145 Y105.199 E313.55172
G1 X40.327 Y104.669 E313.60763
G1 X40.389 Y104.503 E313.62531
G1 X40.53 Y104.17 E313.6614
G1 X64.857 Y128.497 E317.0942
G1 X66.272 Y128.497 E317.23539
G1 X40.981 Y103.207 E320.80415
G1 X41.472 Y102.283 E320.90856
G1 X67.686 Y128.497 E324.60763
G1 X69.1 Y128.497 E324.74872
G1 X42.02 Y101.417 E328.57
G1 X42.07 Y101.339 E328.57925
G1 X42.61 Y100.6 E328.67058
G1 X42.613 Y100.596 E328.67107
G1 X70.514 Y128.497 E332.60821
G1 X71.929 Y128.497 E332.7494
G1 X43.26 Y99.828 E336.7949
G1 X43.288 Y99.796 E336.79914
G1 X43.412 Y99.661 E336.81743
G1 X43.955 Y99.109 E336.8947
G1 X73.343 Y128.497 E341.04166
G1 X74.757 Y128.497 E341.18275
G1 X44.699 Y98.439 E345.42426
G1 X44.844 Y98.311 E345.44356
G1 X44.969 Y98.21 E345.45959
G1 X45.491 Y97.817 E345.52479
G1 X76.171 Y128.497 E349.85407
G1 X77.585 Y128.497 E349.99516
G1 X46.336 Y97.247 E354.4048
G1 X46.698 Y97.015 E354.4477
G1 X47.228 Y96.725 E354.50798
G1 X79 Y128.497 E358.99136
G1 X80.414 Y128.497 E359.13245
G1 X48.17 Y96.254 E363.68235
G1 X48.696 Y96.021 E363.73975
