;FLAVOR:Marlin
;TIME:13462
;Filament used: 7.22264m
;Layer height: 0.2
;MINX:85.099
;MINY:95.134
;MINZ:0.24
;MAXX:144.384
;MAXY:130.775
;MAXZ:191.89
;Generated with Cura_SteamEngine 4.6.1
M140 S55
M105
M190 S55
M104 S210
M105
M109 S210
M82 ;absolute extrusion mode
; Ender 3 Custom Start G-code
G92 E0 ; Reset Extruder
G28 ; Home all axes
G1 Z2.0 F3000 ; Move Z Axis up little to prevent scratching of Heat Bed
G1 X0.1 Y20 Z0.3 F5000.0 ; Move to start position
G1 X0.1 Y200.0 Z0.3 F1500.0 E15 ; Draw the first line
G1 X0.4 Y200.0 Z0.3 F5000.0 ; Move to side a little
G1 X0.4 Y20 Z0.3 F1500.0 E30 ; Draw the second line
G92 E0 ; Reset Extruder
G1 Z2.0 F3000 ; Move Z Axis up little to prevent scratching of Heat Bed
G1 X5 Y20 Z0.3 F5000.0 ; Move over to prevent blob squish
G92 E0
G92 E0
G1 F2700 E-5
;LAYER_COUNT:954
;LAYER:-6
M107
G0 F9000 X90.743 Y100.623 Z0.24
;TYPE:SUPPORT-INTERFACE
G1 F2700 E0
G1 F1125 X91.439 Y99.992 E0.07499
G1 X91.583 Y99.87 E0.09006
G1 X92.413 Y99.228 E0.17382
G1 X93.297 Y98.642 E0.25848
G1 X94.094 Y98.191 E0.33158
G1 X94.257 Y98.105 E0.34629
G1 X95.054 Y97.727 E0.4167
G1 X95.206 Y97.662 E0.4299
G1 X96.043 Y97.336 E0.5016
G1 X96.221 Y97.274 E0.51665
G1 X97.047 Y97.02 E0.58563
G1 X97.254 Y96.966 E0.6027
G1 X98.087 Y96.776 E0.67091
G1 X98.286 Y96.738 E0.68708
G1 X99.136 Y96.608 E0.75572
G1 X99.344 Y96.586 E0.77241
G1 X100.771 Y96.497 E0.88654
G1 X108.181 Y96.381 E1.47812
G1 X112.468 Y96.349 E1.82033
G1 X113.344 Y96.268 E1.89056
G1 X113.433 Y96.252 E1.89777
G1 X113.589 Y96.23 E1.91035
G1 X114.644 Y96.123 E1.995
G1 X115.235 Y96.096 E2.04222
G1 X115.72 Y96.085 E2.08095
G1 X116.244 Y96.082 E2.12278
G1 X122.125 Y96.165 E2.59227
G1 X122.912 Y96.197 E2.65514
G1 X125.095 Y96.337 E2.82976
G1 X126.035 Y96.431 E2.90517
G1 X126.208 Y96.454 E2.9191
G1 X127.099 Y96.61 E2.9913
G1 X127.25 Y96.642 E3.00362
G1 X128.121 Y96.861 E3.07532
G1 X128.289 Y96.91 E3.08928
G1 X129.133 Y97.188 E3.16022
G1 X129.304 Y97.252 E3.17479
G1 X130.205 Y97.624 E3.2526
G1 X130.834 Y97.84 E3.30569
G1 X131.254 Y97.936 E3.34008
G1 X131.779 Y98.034 E3.38271
G1 X131.945 Y98.072 E3.39631
G1 X132.793 Y98.298 E3.46636
G1 X132.993 Y98.359 E3.48305
G1 X133.809 Y98.641 E3.55197
G1 X133.996 Y98.713 E3.56796
G1 X134.942 Y99.126 E3.65036
G1 X135.74 Y99.54 E3.72212
G1 X135.92 Y99.642 E3.73864
G1 X136.66 Y100.099 E3.80806
G1 X136.79 Y100.186 E3.82055
G1 X137.527 Y100.717 E3.89306
G1 X137.675 Y100.831 E3.90797
G1 X138.341 Y101.391 E3.97743
G1 X138.471 Y101.508 E3.99139
G1 X139.107 Y102.126 E4.06218
G1 X139.235 Y102.26 E4.07697
G1 X139.997 Y103.126 E4.16905
G1 X140.074 Y103.226 E4.17913
G1 X140.634 Y103.965 E4.25314
G1 X140.729 Y104.102 E4.26645
G1 X141.21 Y104.845 E4.3371
G1 X141.3 Y104.994 E4.351
G1 X141.735 Y105.787 E4.42319
G1 X141.809 Y105.934 E4.43633
G1 X142.191 Y106.77 E4.5097
G1 X142.243 Y106.897 E4.52066
G1 X142.559 Y107.748 E4.59312
G1 X142.616 Y107.922 E4.60773
G1 X142.858 Y108.756 E4.67705
G1 X142.908 Y108.955 E4.69343
G1 X143.088 Y109.805 E4.76279
G1 X143.12 Y109.985 E4.77738
G1 X143.241 Y110.866 E4.84837
G1 X143.258 Y111.034 E4.86185
G1 X143.315 Y111.929 E4.93343
G1 X143.319 Y112.086 E4.94597
G1 X143.308 Y113.107 E5.02748
G1 X143.184 Y115.688 E5.23374
G1 X143.081 Y116.838 E5.3259
G1 X142.941 Y117.718 E5.39703
G1 X142.903 Y117.913 E5.41289
G1 X142.702 Y118.77 E5.48316
G1 X142.662 Y118.917 E5.49532
G1 X142.386 Y119.798 E5.56901
G1 X142.335 Y119.943 E5.58128
G1 X142.004 Y120.78 E5.65313
G1 X141.931 Y120.945 E5.66753
G1 X141.549 Y121.738 E5.7378
G1 X141.473 Y121.882 E5.75079
G1 X140.935 Y122.806 E5.83614
G1 X140.425 Y123.558 E5.90867
G1 X140.324 Y123.695 E5.92226
G1 X139.791 Y124.37 E5.99091
G1 X139.634 Y124.553 E6.01016
G1 X138.683 Y125.555 E6.12043
G1 X138.479 Y125.749 E6.14291
G1 X137.807 Y126.341 E6.2144
G1 X137.664 Y126.458 E6.22914
G1 X136.944 Y127.005 E6.30132
G1 X136.815 Y127.096 E6.31392
G1 X135.931 Y127.666 E6.39789
G1 X135.123 Y128.109 E6.47144
G1 X134.983 Y128.18 E6.48397
G1 X134.012 Y128.62 E6.56907
G1 X133.147 Y128.942 E6.64275
G1 X133.016 Y128.985 E6.65375
G1 X132.129 Y129.245 E6.72753
G1 X131.987 Y129.28 E6.73921
G1 X131.124 Y129.465 E6.80966
G1 X130.913 Y129.503 E6.82678
G1 X130.068 Y129.621 E6.89488
G1 X129.867 Y129.64 E6.911
G1 X128.544 Y129.707 E7.01674
G1 X128.399 Y129.71 E7.02832
G1 X100.858 Y129.709 E9.22676
G1 X99.734 Y129.664 E9.31655
G1 X98.817 Y129.562 E9.3902
G1 X98.642 Y129.537 E9.40432
G1 X97.753 Y129.373 E9.47648
G1 X97.63 Y129.345 E9.48655
G1 X96.736 Y129.111 E9.56031
G1 X96.573 Y129.062 E9.5739
G1 X95.731 Y128.775 E9.64491
G1 X95.565 Y128.712 E9.65908
G1 X94.762 Y128.371 E9.72872
G1 X94.573 Y128.283 E9.74536
G1 X93.662 Y127.809 E9.82734
G1 X92.883 Y127.334 E9.90017
G1 X92.732 Y127.234 E9.91463
G1 X92.018 Y126.723 E9.98471
G1 X91.87 Y126.61 E9.99958
G1 X91.07 Y125.937 E10.08303
G1 X90.398 Y125.294 E10.15727
G1 X89.754 Y124.6 E10.23285
G1 X89.637 Y124.463 E10.24723
G1 X89.083 Y123.772 E10.31792
G1 X88.979 Y123.633 E10.33178
G1 X88.486 Y122.918 E10.40111
G1 X88.37 Y122.734 E10.41847
G1 X87.927 Y121.978 E10.48842
G1 X87.85 Y121.836 E10.50131
G1 X87.441 Y121.004 E10.57532
G1 X87.384 Y120.875 E10.58657
G1 X87.042 Y120.027 E10.65956
G1 X86.986 Y119.869 E10.67294
G1 X86.717 Y119.03 E10.74327
G1 X86.666 Y118.851 E10.75813
G1 X86.456 Y117.981 E10.82957
G1 X86.422 Y117.814 E10.84318
G1 X86.276 Y116.926 E10.91501
G1 X86.255 Y116.762 E10.92821
G1 X86.172 Y115.863 E11.00028
G1 X86.164 Y115.711 E11.01243
G1 X86.144 Y114.993 E11.06976
G1 X86.144 Y114.565 E11.10393
G1 X86.179 Y113.598 E11.18117
G1 X86.158 Y112.794 E11.24537
G1 X86.164 Y111.668 E11.33525
G1 X86.215 Y110.53 E11.42618
G1 X86.294 Y109.574 E11.50276
G1 X86.312 Y109.419 E11.51521
G1 X86.452 Y108.513 E11.58839
G1 X86.481 Y108.364 E11.60051
G1 X86.725 Y107.333 E11.68508
G1 X86.992 Y106.472 E11.75704
G1 X87.056 Y106.288 E11.77259
G1 X87.37 Y105.487 E11.84127
G1 X87.443 Y105.318 E11.85596
G1 X87.833 Y104.503 E11.92808
G1 X87.91 Y104.355 E11.9414
G1 X88.354 Y103.58 E12.0127
G1 X88.452 Y103.422 E12.02754
G1 X88.944 Y102.69 E12.09794
G1 X89.038 Y102.561 E12.11068
G1 X89.585 Y101.864 E12.18141
G1 X89.726 Y101.699 E12.19873
G1 X90.59 Y100.773 E12.29983
G1 X90.743 Y100.623 E12.31693
G0 F9000 X91.2 Y100.208
G1 F1125 X91.2 Y126.046 E14.37943
G0 F9000 X92.8 Y127.279
G1 F1125 X92.8 Y98.971 E16.6391
G0 F9000 X94.4 Y98.037
G1 F1125 X94.4 Y128.192 E19.0462
G0 F9000 X96 Y128.866
G1 F1125 X96 Y97.352 E21.56179
G0 F9000 X97.6 Y96.887
G1 F1125 X97.6 Y129.337 E24.15209
G0 F9000 X99.2 Y129.604
G1 F1125 X99.2 Y96.601 E26.78653
G0 F9000 X100.8 Y96.496
G1 F1125 X100.8 Y129.706 E29.43749
G0 F9000 X102.4 Y129.709
G1 F1125 X102.4 Y96.471 E32.0907
G0 F9000 X104 Y96.446
G1 F1125 X104 Y129.709 E34.74589
G0 F9000 X105.6 Y129.709
G1 F1125 X105.6 Y96.421 E37.40308
G0 F9000 X107.2 Y96.396
G1 F1125 X107.2 Y129.709 E40.06227
G0 F9000 X108.8 Y129.709
G1 F1125 X108.8 Y96.376 E42.72306
G0 F9000 X110.4 Y96.364
G1 F1125 X110.4 Y129.709 E45.3848
G0 F9000 X112 Y129.709
G1 F1125 X112 Y96.352 E48.0475
G0 F9000 X113.6 Y96.228
G1 F1125 X113.6 Y129.709 E50.7201
G0 F9000 X115.2 Y129.709
G1 F1125 X115.2 Y96.097 E53.40315
G0 F9000 X116.8 Y96.09
G1 F1125 X116.8 Y129.709 E56.08677
G0 F9000 X118.4 Y129.709
G1 F1125 X118.4 Y96.113 E58.76854
G0 F9000 X120 Y96.136
G1 F1125 X120 Y129.709 E61.44849
G0 F9000 X121.6 Y129.709
G1 F1125 X121.6 Y96.158 E64.12667
G0 F9000 X123.2 Y96.216
G1 F1125 X123.2 Y129.709 E66.80023
G0 F9000 X124.8 Y129.709
G1 F1125 X124.8 Y96.319 E69.46556
G0 F9000 X126.4 Y96.488
G1 F1125 X126.4 Y129.709 E72.11741
G0 F9000 X128 Y129.709
G1 F1125 X128 Y96.831 E74.74187
G0 F9000 X129.6 Y97.375
G1 F1125 X129.6 Y129.654 E77.31852
G0 F9000 X131.2 Y129.449
G1 F1125 X131.2 Y97.924 E79.83498
G0 F9000 X132.8 Y98.301
G1 F1125 X132.8 Y129.049 E82.28942
G0 F9000 X134.4 Y128.445
G1 F1125 X134.4 Y98.89 E84.64863
G0 F9000 X136 Y99.692
G1 F1125 X136 Y127.622 E86.87812
G0 F9000 X137.6 Y126.507
G1 F1125 X137.6 Y100.774 E88.93224
G0 F9000 X139.2 Y102.224
G1 F1125 X139.2 Y125.011 E90.7512
G0 F9000 X140.8 Y123.006
G1 F1125 X140.8 Y104.212 E92.25141
G0 F9000 X142.4 Y107.32
G1 F1125 X142.4 Y119.754 E93.24395
G1 F2700 E88.24395
G0 F9000 X143.329 Y120.323
G0 X142.496 Y122.225
G0 X141.823 Y123.393
G0 X140.615 Y125.044
G0 X139.194 Y126.536
G0 X137.567 Y127.868
G0 X136.454 Y128.592
G0 X134.582 Y129.535
G0 X133.332 Y130.002
G0 X131.323 Y130.511
G0 X129.948 Y130.701
G0 X128.413 Y130.775
G0 X99.804 Y130.736
G0 X98.478 Y130.589
G0 X96.451 Y130.137
G0 X95.161 Y129.697
G0 X93.281 Y128.815
G0 X92.122 Y128.106
G0 X90.478 Y126.836
G0 X88.956 Y125.304
G0 X89.6 Y124.416
G1 F2700 E93.24395
G1 F1125 X89.6 Y101.846 E95.04559
G0 F9000 X88 Y104.197
G1 F1125 X88 Y122.102 E96.47484
G1 F2700 E91.47484
G0 F9000 X86.908 Y122.332
G0 X86.05 Y120.413
G0 X85.934 Y120.05
G0 X85.418 Y118.219
G0 X86.4 Y117.68
G1 F2700 E96.47484
G1 F1125 X86.4 Y108.849 E97.17977
G1 F2700 E92.17977
G0 F300 X86.4 Y108.849 Z0.54
G0 F9000 X85.259 Y109.268
G0 X85.099 Y111.683
G0 X85.112 Y115.949
G0 X85.376 Y118.016
G0 X85.696 Y119.332
G0 X86.267 Y120.912
G0 X86.895 Y122.305
G0 X87.85 Y121.835
;TIME_ELAPSED:76.063515
;LAYER:-5
M140 S55
;TYPE:SUPPORT
G1 F2700 E97.17977
G1 F1125 X87.927 Y121.977 E97.19589
G1 X88.369 Y122.733 E97.28327
G1 X88.485 Y122.917 E97.30497
G1 X88.978 Y123.632 E97.39163
G1 X89.083 Y123.771 E97.40901
G1 X89.637 Y124.462 E97.49738
G1 X89.754 Y124.599 E97.51536
G1 X90.397 Y125.293 E97.60976
G1 X91.07 Y125.936 E97.70263
G1 X91.87 Y126.608 E97.80688
G1 X92.017 Y126.722 E97.82545
G1 X92.732 Y127.233 E97.91314
G1 X92.882 Y127.332 E97.93107
G1 X93.661 Y127.808 E98.02216
G1 X94.089 Y128.03 E98.07027
G1 X87.807 Y121.748 E98.95673
G1 X87.44 Y121.002 E99.03968
G1 X87.384 Y120.874 E99.05362
G1 X87.042 Y120.025 E99.14495
G1 X86.986 Y119.868 E99.16159
G1 X86.818 Y119.345 E99.2164
G1 X96.514 Y129.041 E100.58461
G1 X96.573 Y129.061 E100.59082
G1 X96.735 Y129.109 E100.60768
G1 X97.63 Y129.343 E100.69999
G1 X97.753 Y129.372 E100.7126
G1 X98.374 Y129.486 E100.7756
G1 X86.366 Y117.479 E102.46998
G1 X86.276 Y116.925 E102.52599
G1 X86.255 Y116.761 E102.54248
G1 X86.172 Y115.871 E102.63167
G1 X99.973 Y129.672 E104.57914
G1 X100.858 Y129.708 E104.66752
G1 X101.423 Y129.708 E104.7239
G1 X86.148 Y114.432 E106.87944
G1 X86.178 Y113.597 E106.96281
G1 X86.163 Y113.033 E107.0191
G1 X102.838 Y129.708 E109.37213
G1 X104.252 Y129.708 E109.51322
G1 X86.165 Y111.621 E112.06549
G1 X86.214 Y110.529 E112.17456
G1 X86.235 Y110.276 E112.19989
G1 X105.666 Y129.708 E114.94188
G1 X107.08 Y129.708 E115.08297
G1 X86.375 Y109.003 E118.00467
G1 X86.452 Y108.512 E118.05426
G1 X86.481 Y108.363 E118.06941
G1 X86.608 Y107.821 E118.12495
G1 X108.494 Y129.708 E121.21338
G1 X109.909 Y129.708 E121.35457
G1 X86.915 Y106.714 E124.59927
G1 X86.991 Y106.471 E124.62467
G1 X87.055 Y106.287 E124.64411
G1 X87.293 Y105.678 E124.70935
G1 X111.323 Y129.708 E128.10024
G1 X112.737 Y129.708 E128.24133
G1 X87.735 Y104.706 E131.76939
G1 X87.833 Y104.502 E131.79197
G1 X87.909 Y104.354 E131.80857
G1 X88.232 Y103.789 E131.87351
G1 X114.151 Y129.708 E135.53096
G1 X115.566 Y129.708 E135.67215
G1 X88.784 Y102.926 E139.45138
G1 X88.944 Y102.688 E139.47999
G1 X89.037 Y102.56 E139.49578
G1 X89.386 Y102.114 E139.55229
G1 X116.98 Y129.708 E143.4461
G1 X118.395 Y129.708 E143.58729
G1 X90.043 Y101.357 E147.58799
G1 X90.59 Y100.772 E147.6679
G1 X90.733 Y100.632 E147.68787
G1 X119.809 Y129.708 E151.79081
G1 X121.223 Y129.708 E151.9319
G1 X91.475 Y99.96 E156.12966
G1 X91.583 Y99.868 E156.14382
G1 X92.268 Y99.339 E156.23018
G1 X122.637 Y129.708 E160.51557
G1 X124.051 Y129.708 E160.65666
G1 X93.109 Y98.766 E165.02291
G1 X93.297 Y98.641 E165.04544
G1 X94.001 Y98.244 E165.12608
G1 X125.466 Y129.708 E169.56606
G1 X126.88 Y129.708 E169.70715
G1 X94.948 Y97.776 E174.2131
G1 X95.053 Y97.726 E174.22471
G1 X95.206 Y97.661 E174.2413
G1 X95.955 Y97.37 E174.32147
G1 X128.294 Y129.708 E178.88479
G1 X128.398 Y129.709 E178.89516
G1 X128.544 Y129.706 E178.90973
G1 X129.65 Y129.65 E179.02023
G1 X97.026 Y97.026 E183.62383
G1 X97.046 Y97.02 E183.62591
G1 X97.253 Y96.966 E183.64726
G1 X98.086 Y96.775 E183.73253
G1 X98.173 Y96.759 E183.74136
G1 X130.915 Y129.501 E188.36161
G1 X131.123 Y129.464 E188.38269
G1 X131.986 Y129.279 E188.47076
G1 X132.084 Y129.255 E188.48083
G1 X99.41 Y96.582 E193.09141
G1 X100.741 Y96.498 E193.22448
G1 X133.173 Y128.931 E197.80106
G1 X134.01 Y128.619 E197.89019
G1 X134.193 Y128.536 E197.91024
G1 X102.133 Y96.476 E202.43425
G1 X103.525 Y96.454 E202.57316
G1 X135.159 Y128.088 E207.03706
G1 X135.93 Y127.666 E207.12476
G1 X136.064 Y127.579 E207.1407
G1 X104.917 Y96.432 E211.53588
G1 X106.31 Y96.411 E211.67489
G1 X136.92 Y127.021 E215.99429
G1 X136.943 Y127.005 E215.99709
G1 X137.663 Y126.458 E216.08731
G1 X137.722 Y126.408 E216.09503
G1 X107.702 Y96.389 E220.3311
G1 X108.18 Y96.381 E220.3788
G1 X109.103 Y96.375 E220.4709
G1 X138.476 Y125.749 E224.61582
G0 F9000 X138.478 Y125.749
G1 F1125 X138.682 Y125.555 E224.64391
G1 X139.176 Y125.034 E224.71555
G1 X110.506 Y96.364 E228.7612
G1 X111.909 Y96.353 E228.90119
G1 X139.85 Y124.294 E232.84397
G1 X140.323 Y123.694 E232.92021
G1 X140.424 Y123.558 E232.93711
G1 X140.466 Y123.496 E232.94458
G1 X113.248 Y96.277 E236.7854
G1 X113.343 Y96.268 E236.79493
G1 X113.431 Y96.252 E236.80385
G1 X113.588 Y96.23 E236.81967
G1 X114.52 Y96.135 E236.91315
G1 X141.029 Y122.644 E240.65385
G1 X141.472 Y121.882 E240.7418
G1 X141.545 Y121.746 E240.7572
G1 X115.883 Y96.084 E244.37839
G1 X116.243 Y96.082 E244.41431
G1 X117.311 Y96.097 E244.52089
G1 X142 Y120.787 E248.00484
G1 X142.003 Y120.78 E248.0056
G1 X142.334 Y119.942 E248.0955
G1 X142.385 Y119.798 E248.11075
G1 X142.395 Y119.768 E248.1139
G1 X118.745 Y96.117 E251.45124
G1 X120.179 Y96.138 E251.59434
G1 X142.722 Y118.68 E254.77533
G1 X142.902 Y117.912 E254.85404
G1 X142.94 Y117.717 E254.87386
G1 X142.972 Y117.516 E254.89417
G1 X121.613 Y96.158 E257.90809
G1 X122.124 Y96.165 E257.95908
G1 X122.911 Y96.196 E258.03767
G1 X123.078 Y96.208 E258.05437
G1 X143.132 Y116.262 E260.88421
G1 X143.183 Y115.688 E260.94171
G1 X143.22 Y114.935 E261.01694
G1 X124.589 Y96.305 E263.6459
G1 X125.094 Y96.337 E263.69639
G1 X126.034 Y96.43 E263.79064
G1 X126.144 Y96.445 E263.80172
G1 X143.284 Y113.586 E266.22043
G1 X143.307 Y113.106 E266.26838
G1 X143.317 Y112.205 E266.35829
G1 X127.924 Y96.812 E268.5304
G1 X128.12 Y96.86 E268.55054
G1 X128.288 Y96.909 E268.568
G1 X129.132 Y97.188 E268.6567
G1 X129.303 Y97.251 E268.67488
G1 X130.113 Y97.586 E268.76234
G1 X143.215 Y110.689 E270.61125
G1 X143.119 Y109.985 E270.68214
G1 X143.087 Y109.805 E270.70038
G1 X142.911 Y108.97 E270.78553
G1 X132.038 Y98.097 E272.31983
G1 X132.792 Y98.298 E272.39769
G1 X132.991 Y98.359 E272.41846
G1 X133.807 Y98.64 E272.50457
G1 X133.995 Y98.713 E272.5247
G1 X134.126 Y98.77 E272.53895
G1 X142.235 Y106.88 E273.68329
G1 X142.19 Y106.77 E273.69515
G1 X141.808 Y105.933 E273.78695
G1 X141.734 Y105.786 E273.80337
G1 X141.299 Y104.994 E273.89353
G1 X141.209 Y104.845 E273.9109
G1 X140.728 Y104.101 E273.9993
G1 X140.632 Y103.965 E274.01591
G1 X140.316 Y103.546 E274.06828
G1 X137.385 Y100.615 E274.48187
G1 X137.525 Y100.716 E274.4991
G1 X137.674 Y100.831 E274.51788
G1 X138.34 Y101.391 E274.6047
G1 X138.469 Y101.508 E274.62208
G1 X139.106 Y102.126 E274.71064
G1 X139.234 Y102.259 E274.72906
G1 X139.995 Y103.125 E274.84409
G1 X140.073 Y103.226 E274.85682
G1 F2700 E269.85682
G0 F300 X140.073 Y103.226 Z0.74
G0 F9000 X140.743 Y102.359
G0 X139.204 Y100.736
G0 X138.158 Y99.859
G0 X136.456 Y98.722
G0 X135.249 Y98.094
G0 X133.318 Y97.344
G0 X128.4 Y95.834
G0 X126.378 Y95.403
G0 X122.972 Y95.134
G0 X122.918 Y95.996
;TIME_ELAPSED:173.255681
;LAYER:-4
;TYPE:SUPPORT-INTERFACE
G1 F2700 E274.85682
G1 F1500 X122.133 Y95.964 E274.88295
G1 X116.246 Y95.882 E275.07877
G1 X115.717 Y95.885 E275.09637
G1 X115.226 Y95.896 E275.1127
G1 X114.635 Y95.922 E275.13238
G1 X113.872 Y96 E275.15789
G1 X122.981 Y96 E275.46086
G1 X125.115 Y96.137 E275.53198
G1 X126.055 Y96.231 E275.5634
G1 X126.243 Y96.256 E275.56971
G1 X127.064 Y96.4 E275.59743
G1 X99.201 Y96.4 E276.52416
G1 X99.124 Y96.408 E276.52673
G1 X98.241 Y96.543 E276.55644
