;FLAVOR:Marlin
;TIME:5554
;Filament used: 3.93087m
;Layer height: 0.2
;MINX:62.764
;MINY:89.763
;MINZ:0.24
;MAXX:169.237
;MAXY:125.689
;MAXZ:31.09
;Generated with Cura_SteamEngine 4.6.1
M140 S55
M105
M190 S55
M104 S210
M105
M109 S210
M82 ;absolute extrusion mode
; Ender 3 Custom Start G-code
G92 E0 ; Reset Extruder
G28 ; Home all axes
G1 Z2.0 F3000 ; Move Z Axis up little to prevent scratching of Heat Bed
G1 X0.1 Y20 Z0.3 F5000.0 ; Move to start position
G1 X0.1 Y200.0 Z0.3 F1500.0 E15 ; Draw the first line
G1 X0.4 Y200.0 Z0.3 F5000.0 ; Move to side a little
G1 X0.4 Y20 Z0.3 F1500.0 E30 ; Draw the second line
G92 E0 ; Reset Extruder
G1 Z2.0 F3000 ; Move Z Axis up little to prevent scratching of Heat Bed
G1 X5 Y20 Z0.3 F5000.0 ; Move over to prevent blob squish
G92 E0
G92 E0
G1 F2700 E-5
;LAYER_COUNT:150
;LAYER:-6
M107
G0 F9000 X69.813 Y93.946 Z0.24
;TYPE:SUPPORT-INTERFACE
G1 F2700 E0
G1 F1125 X69.958 Y93.84 E0.01434
G1 X70.701 Y93.334 E0.08609
G1 X70.85 Y93.24 E0.10016
G1 X71.61 Y92.8 E0.17026
G1 X71.778 Y92.711 E0.18543
G1 X72.567 Y92.33 E0.25537
G1 X72.727 Y92.259 E0.26935
G1 X73.558 Y91.928 E0.34075
G1 X73.728 Y91.868 E0.35514
G1 X74.82 Y91.53 E0.44639
G1 X75.289 Y91.406 E0.48511
G1 X76.207 Y91.195 E0.5603
G1 X76.372 Y91.163 E0.57372
G1 X77.589 Y90.985 E0.6719
G1 X78.099 Y90.931 E0.71284
G1 X78.902 Y90.871 E0.77711
G1 X79.459 Y90.845 E0.82162
G1 X80.151 Y90.828 E0.87688
G1 X129.831 Y90.827 E4.84255
G1 X130.167 Y90.833 E4.86938
G1 X152.375 Y90.835 E6.64211
G1 X153.113 Y90.853 E6.70104
G1 X153.605 Y90.88 E6.74038
G1 X154.412 Y90.944 E6.805
G1 X154.918 Y90.999 E6.84563
G1 X155.872 Y91.135 E6.92255
G1 X156.03 Y91.164 E6.93537
G1 X157.225 Y91.436 E7.0332
G1 X157.703 Y91.566 E7.07274
G1 X158.573 Y91.835 E7.14543
G1 X158.765 Y91.902 E7.16167
G1 X159.576 Y92.218 E7.23114
G1 X159.762 Y92.299 E7.24734
G1 X160.566 Y92.682 E7.31843
G1 X160.698 Y92.752 E7.33035
G1 X161.463 Y93.189 E7.40068
G1 X161.639 Y93.298 E7.41721
G1 X162.359 Y93.782 E7.48646
G1 X162.508 Y93.89 E7.50115
G1 X163.331 Y94.537 E7.58471
G1 X163.461 Y94.65 E7.59846
G1 X164.23 Y95.358 E7.6819
G1 X164.852 Y96.015 E7.75412
G1 X164.974 Y96.153 E7.76882
G1 X165.54 Y96.843 E7.84006
G1 X165.64 Y96.976 E7.85335
G1 X166.153 Y97.706 E7.92457
G1 X166.251 Y97.858 E7.939
G1 X166.712 Y98.626 E8.01051
G1 X166.784 Y98.756 E8.02237
G1 X167.201 Y99.585 E8.09644
G1 X167.265 Y99.726 E8.1088
G1 X167.599 Y100.531 E8.17837
G1 X167.67 Y100.718 E8.19434
G1 X167.994 Y101.71 E8.27764
G1 X168.22 Y102.607 E8.35148
G1 X168.251 Y102.753 E8.3634
G1 X168.406 Y103.63 E8.43449
G1 X168.432 Y103.813 E8.44924
G1 X168.533 Y104.845 E8.53201
G1 X168.561 Y105.57 E8.58993
G1 X168.574 Y106.849 E8.69203
G1 X168.571 Y107.843 E8.77138
G1 X168.578 Y109.218 E8.88114
G1 X168.574 Y110.078 E8.94979
G1 X168.536 Y111.046 E9.02712
G1 X168.521 Y111.235 E9.04225
G1 X168.425 Y112.094 E9.11125
G1 X168.395 Y112.29 E9.12707
G1 X168.234 Y113.147 E9.19668
G1 X168.192 Y113.331 E9.21174
G1 X167.967 Y114.177 E9.28162
G1 X167.905 Y114.381 E9.29864
G1 X167.629 Y115.183 E9.36635
G1 X167.551 Y115.385 E9.38363
G1 X167.203 Y116.195 E9.454
G1 X167.14 Y116.328 E9.46575
G1 X166.719 Y117.142 E9.53891
G1 X166.65 Y117.264 E9.55009
G1 X166.171 Y118.044 E9.62316
G1 X166.067 Y118.2 E9.63813
G1 X165.568 Y118.89 E9.7061
G1 X165.437 Y119.059 E9.72317
G1 X164.87 Y119.736 E9.79366
G1 X164.766 Y119.853 E9.80615
G1 X164.129 Y120.509 E9.87914
G1 X164.012 Y120.621 E9.89207
G1 X163.344 Y121.216 E9.96348
G1 X163.205 Y121.331 E9.97788
G1 X162.507 Y121.867 E10.04813
G1 X162.371 Y121.964 E10.06147
G1 X161.633 Y122.448 E10.13192
G1 X161.444 Y122.563 E10.14958
G1 X160.699 Y122.978 E10.21765
G1 X160.521 Y123.068 E10.23357
G1 X159.723 Y123.44 E10.30385
G1 X159.573 Y123.504 E10.31687
G1 X158.713 Y123.83 E10.39029
G1 X158.575 Y123.876 E10.4019
G1 X157.701 Y124.137 E10.47471
G1 X157.556 Y124.174 E10.48665
G1 X156.653 Y124.373 E10.56046
G1 X156.502 Y124.4 E10.57271
G1 X155.636 Y124.524 E10.64254
G1 X155.416 Y124.546 E10.66019
G1 X153.909 Y124.623 E10.78064
G1 X101.481 Y124.626 E14.96567
G1 X78.425 Y124.623 E16.8061
G1 X77.301 Y124.578 E16.8959
G1 X76.383 Y124.476 E16.96963
G1 X76.208 Y124.451 E16.98374
G1 X75.328 Y124.288 E17.05518
G1 X75.176 Y124.254 E17.06761
G1 X74.316 Y124.029 E17.13857
G1 X74.149 Y123.979 E17.15249
G1 X73.298 Y123.688 E17.22428
G1 X73.121 Y123.621 E17.23939
G1 X72.329 Y123.284 E17.30809
G1 X72.14 Y123.196 E17.32473
G1 X71.229 Y122.722 E17.40671
G1 X70.45 Y122.247 E17.47954
G1 X70.299 Y122.147 E17.494
G1 X69.585 Y121.636 E17.56408
G1 X69.437 Y121.523 E17.57895
G1 X68.748 Y120.949 E17.65053
G1 X68.631 Y120.843 E17.66313
G1 X67.974 Y120.21 E17.73596
G1 X67.865 Y120.096 E17.74855
G1 X67.265 Y119.427 E17.82028
G1 X67.153 Y119.293 E17.83422
G1 X66.515 Y118.459 E17.91804
G1 X66.004 Y117.686 E17.99201
G1 X65.936 Y117.574 E18.00247
G1 X65.484 Y116.77 E18.0761
G1 X65.408 Y116.622 E18.08938
G1 X65.031 Y115.816 E18.16041
G1 X64.964 Y115.66 E18.17396
G1 X64.638 Y114.808 E18.24678
G1 X64.588 Y114.66 E18.25925
G1 X64.328 Y113.798 E18.33112
G1 X64.289 Y113.651 E18.34326
G1 X64.062 Y112.603 E18.42885
G1 X63.929 Y111.701 E18.50163
G1 X63.912 Y111.541 E18.51448
G1 X63.844 Y110.631 E18.58732
G1 X63.838 Y110.477 E18.59962
G1 X63.829 Y109.901 E18.64561
G1 X63.837 Y107.794 E18.8138
G1 X63.833 Y105.754 E18.97664
G1 X63.866 Y104.794 E19.05332
G1 X63.878 Y104.62 E19.06724
G1 X63.975 Y103.723 E19.13926
G1 X63.996 Y103.581 E19.15072
G1 X64.159 Y102.683 E19.22357
G1 X64.198 Y102.507 E19.23796
G1 X64.419 Y101.65 E19.30861
G1 X64.469 Y101.483 E19.32252
G1 X64.806 Y100.5 E19.40547
G1 X65.233 Y99.504 E19.49198
G1 X65.639 Y98.711 E19.56309
G1 X65.732 Y98.543 E19.57842
G1 X66.184 Y97.798 E19.64798
G1 X66.295 Y97.63 E19.66405
G1 X66.805 Y96.912 E19.73435
G1 X66.906 Y96.781 E19.74756
G1 X67.472 Y96.097 E19.81843
G1 X67.589 Y95.966 E19.83245
G1 X68.318 Y95.212 E19.91616
G1 X69.077 Y94.53 E19.99762
G1 X69.813 Y93.946 E20.07262
G0 F9000 X70.4 Y93.538
G1 F1125 X70.4 Y122.213 E22.36158
G0 F9000 X72 Y123.123
G1 F1125 X72 Y92.603 E24.79782
G0 F9000 X73.6 Y91.913
G1 F1125 X73.6 Y123.791 E27.34246
G0 F9000 X75.2 Y124.259
G1 F1125 X75.2 Y91.429 E29.96309
G0 F9000 X76.8 Y91.1
G1 F1125 X76.8 Y124.522 E32.63098
G0 F9000 X78.4 Y124.621
G1 F1125 X78.4 Y90.908 E35.32209
G0 F9000 X80 Y90.831
G1 F1125 X80 Y124.623 E38.01952
G0 F9000 X81.6 Y124.623
G1 F1125 X81.6 Y90.827 E40.71726
G0 F9000 X83.2 Y90.827
G1 F1125 X83.2 Y124.623 E43.415
G0 F9000 X84.8 Y124.623
G1 F1125 X84.8 Y90.827 E46.11275
G0 F9000 X86.4 Y90.827
G1 F1125 X86.4 Y124.624 E48.81057
G0 F9000 X88 Y124.624
G1 F1125 X88 Y90.827 E51.50839
G0 F9000 X89.6 Y90.827
G1 F1125 X89.6 Y124.624 E54.20621
G0 F9000 X91.2 Y124.624
G1 F1125 X91.2 Y90.827 E56.90404
G0 F9000 X92.8 Y90.827
G1 F1125 X92.8 Y124.624 E59.60186
G0 F9000 X94.4 Y124.625
G1 F1125 X94.4 Y90.827 E62.29976
G0 F9000 X96 Y90.827
G1 F1125 X96 Y124.625 E64.99767
G0 F9000 X97.6 Y124.625
G1 F1125 X97.6 Y90.827 E67.69557
G0 F9000 X99.2 Y90.827
G1 F1125 X99.2 Y124.625 E70.39347
G0 F9000 X100.8 Y124.625
G1 F1125 X100.8 Y90.827 E73.09137
G0 F9000 X102.4 Y90.827
G1 F1125 X102.4 Y124.626 E75.78936
G0 F9000 X104 Y124.626
G1 F1125 X104 Y90.827 E78.48734
G0 F9000 X105.6 Y90.827
G1 F1125 X105.6 Y124.626 E81.18532
G0 F9000 X107.2 Y124.626
G1 F1125 X107.2 Y90.827 E83.8833
G0 F9000 X108.8 Y90.827
G1 F1125 X108.8 Y124.626 E86.58128
G0 F9000 X110.4 Y124.626
G1 F1125 X110.4 Y90.827 E89.27927
G0 F9000 X112 Y90.827
G1 F1125 X112 Y124.626 E91.97725
G0 F9000 X113.6 Y124.626
G1 F1125 X113.6 Y90.827 E94.67523
G0 F9000 X115.2 Y90.827
G1 F1125 X115.2 Y124.626 E97.37321
G0 F9000 X116.8 Y124.626
G1 F1125 X116.8 Y90.827 E100.0712
G0 F9000 X118.4 Y90.827
G1 F1125 X118.4 Y124.626 E102.76918
G0 F9000 X120 Y124.625
G1 F1125 X120 Y90.827 E105.46708
G0 F9000 X121.6 Y90.827
G1 F1125 X121.6 Y124.625 E108.16498
G0 F9000 X123.2 Y124.625
G1 F1125 X123.2 Y90.827 E110.86289
G0 F9000 X124.8 Y90.827
G1 F1125 X124.8 Y124.625 E113.56079
G0 F9000 X126.4 Y124.625
G1 F1125 X126.4 Y90.827 E116.25869
G0 F9000 X128 Y90.827
G1 F1125 X128 Y124.625 E118.95659
G0 F9000 X129.6 Y124.625
G1 F1125 X129.6 Y90.827 E121.6545
G0 F9000 X131.2 Y90.834
G1 F1125 X131.2 Y124.625 E124.35184
G0 F9000 X132.8 Y124.625
G1 F1125 X132.8 Y90.834 E127.04918
G0 F9000 X134.4 Y90.834
G1 F1125 X134.4 Y124.625 E129.74653
G0 F9000 X136 Y124.625
G1 F1125 X136 Y90.834 E132.44387
G0 F9000 X137.6 Y90.834
G1 F1125 X137.6 Y124.624 E135.14113
G0 F9000 X139.2 Y124.624
G1 F1125 X139.2 Y90.834 E137.8384
G0 F9000 X140.8 Y90.834
G1 F1125 X140.8 Y124.624 E140.53566
G0 F9000 X142.4 Y124.624
G1 F1125 X142.4 Y90.835 E143.23285
G0 F9000 X144 Y90.835
G1 F1125 X144 Y124.624 E145.93003
G0 F9000 X145.6 Y124.624
G1 F1125 X145.6 Y90.835 E148.62721
G0 F9000 X147.2 Y90.835
G1 F1125 X147.2 Y124.624 E151.3244
G0 F9000 X148.8 Y124.624
G1 F1125 X148.8 Y90.835 E154.02158
G0 F9000 X150.4 Y90.835
G1 F1125 X150.4 Y124.624 E156.71877
G0 F9000 X152 Y124.624
G1 F1125 X152 Y90.835 E159.41595
G0 F9000 X153.6 Y90.88
G1 F1125 X153.6 Y124.624 E162.10954
G0 F9000 X155.2 Y124.558
G1 F1125 X155.2 Y91.04 E164.78509
G0 F9000 X156.8 Y91.34
G1 F1125 X156.8 Y124.341 E167.41938
G0 F9000 X158.4 Y123.929
G1 F1125 X158.4 Y91.782 E169.98549
G0 F9000 X160 Y92.413
G1 F1125 X160 Y123.311 E172.4519
G0 F9000 X161.6 Y122.469
G1 F1125 X161.6 Y93.274 E174.78237
G0 F9000 X163.2 Y94.435
G1 F1125 X163.2 Y121.335 E176.92965
G0 F9000 X164.8 Y119.815
G1 F1125 X164.8 Y95.961 E178.83378
G0 F9000 X166.4 Y98.107
G1 F1125 X166.4 Y117.672 E180.39554
G0 F9000 X168 Y114.053
G1 F1125 X168 Y101.734 E181.3789
G1 F2700 E176.3789
G0 F9000 X168.97 Y101.255
G0 X168.243 Y99.309
G0 X167.631 Y98.089
G0 X166.496 Y96.342
G0 X165.642 Y95.301
G0 X164.172 Y93.86
G0 X162.974 Y92.914
G0 X161.203 Y91.815
G0 X159.989 Y91.237
G0 X157.891 Y90.514
G0 X156.035 Y90.083
G0 X153.579 Y89.812
G0 X152.348 Y89.769
G0 X79.335 Y89.785
G0 X77.323 Y89.946
G0 X75.988 Y90.152
G0 X74.372 Y90.552
G0 X72.322 Y91.275
G0 X71.1 Y91.866
G0 X69.683 Y92.757
G0 X68.412 Y93.699
G0 X68.8 Y94.778
G1 F2700 E181.3789
G1 F1125 X68.8 Y120.992 E183.47141
G0 F9000 X67.2 Y119.349
G1 F1125 X67.2 Y96.425 E185.3013
G0 F9000 X65.6 Y98.787
G1 F1125 X65.6 Y116.976 E186.75323
G1 F2700 E181.75323
G0 F9000 X64.456 Y117.096
G0 X63.639 Y115.176
G0 X63.424 Y114.46
G0 X63.01 Y112.769
G0 X64 Y112.182
G1 F2700 E186.75323
G1 F1125 X64 Y103.558 E187.44163
G1 F2700 E182.44163
G0 F300 X64 Y103.558 Z0.54
G0 F9000 X62.951 Y103.368
G0 X63.396 Y101.355
G0 X63.821 Y100.098
G0 X64.702 Y98.205
G0 X65.412 Y97.034
G0 X66.67 Y95.396
G0 X68.227 Y93.855
G0 X69.075 Y94.53
;TIME_ELAPSED:140.105976
;LAYER:-5
M140 S55
;TYPE:SUPPORT
G1 F2700 E187.44163
G1 F1125 X99.168 Y124.624 E191.68815
G1 X97.753 Y124.624 E191.82934
G1 X68.33 Y95.2 E195.98131
G1 X68.318 Y95.211 E195.98294
G1 X67.633 Y95.917 E196.08109
G1 X96.339 Y124.624 E200.13189
G1 X94.924 Y124.623 E200.27308
G1 X66.985 Y96.684 E204.21557
G1 X66.906 Y96.78 E204.22798
G1 X66.805 Y96.911 E204.24448
G1 X66.386 Y97.499 E204.31653
G1 X93.51 Y124.623 E208.14402
G1 X92.096 Y124.623 E208.28511
G1 X65.838 Y98.365 E211.99039
G1 X65.731 Y98.541 E212.01094
G1 X65.638 Y98.709 E212.03011
G1 X65.343 Y99.284 E212.09459
G1 X90.682 Y124.623 E215.6702
G1 X89.267 Y124.622 E215.81138
G1 X64.906 Y100.262 E219.24891
G1 X64.805 Y100.498 E219.27453
G1 X64.53 Y101.3 E219.35913
G1 X87.853 Y124.622 E222.65018
G1 X86.438 Y124.622 E222.79137
G1 X64.223 Y102.407 E225.92615
G1 X64.198 Y102.506 E225.93634
G1 X64.159 Y102.682 E225.95432
G1 X63.995 Y103.579 E226.04531
G1 X63.993 Y103.591 E226.04652
G1 X85.024 Y124.622 E229.01423
G1 X83.609 Y124.621 E229.15542
G1 X63.863 Y104.875 E231.94179
G1 X63.833 Y105.753 E232.02945
G1 X63.834 Y106.26 E232.08004
G1 X82.195 Y124.621 E234.67097
G1 X80.781 Y124.621 E234.81206
G1 X63.836 Y107.676 E237.20318
G1 X63.836 Y107.793 E237.21486
G1 X63.831 Y109.086 E237.34388
G1 X79.367 Y124.621 E239.5361
G1 X78.425 Y124.621 E239.6301
G1 X77.933 Y124.602 E239.67922
G1 X63.839 Y110.508 E241.66804
G1 X63.843 Y110.63 E241.68022
G1 X63.912 Y111.54 E241.77128
G1 X63.929 Y111.7 E241.78733
G1 X63.983 Y112.066 E241.82425
G1 X76.392 Y124.475 E243.57529
G1 X76.383 Y124.474 E243.5762
G1 X76.208 Y124.45 E243.59382
G1 X75.328 Y124.286 E243.68314
G1 X75.176 Y124.253 E243.69866
G1 X74.606 Y124.104 E243.75745
G1 X64.34 Y113.837 E245.20616
G1 X64.587 Y114.659 E245.2918
G1 X64.638 Y114.807 E245.30742
G1 X64.964 Y115.659 E245.39845
G1 X65.031 Y115.815 E245.41539
G1 X65.142 Y116.054 E245.44168
G1 X72.402 Y123.314 E246.46615
G1 X72.329 Y123.283 E246.47406
G1 X72.139 Y123.195 E246.49495
G1 X71.228 Y122.721 E246.59742
G1 X70.449 Y122.246 E246.68846
G1 X70.298 Y122.146 E246.70653
G1 X69.584 Y121.635 E246.79414
G1 X69.437 Y121.522 E246.81264
G1 X68.748 Y120.948 E246.90212
G1 X68.631 Y120.842 E246.91787
G1 X67.974 Y120.209 E247.00891
G1 X67.865 Y120.095 E247.02464
G1 X67.264 Y119.426 E247.11438
G1 X67.153 Y119.292 E247.13174
G1 X66.515 Y118.458 E247.23651
G1 X66.004 Y117.685 E247.32897
G1 X65.936 Y117.573 E247.34205
G1 X65.484 Y116.769 E247.43408
G1 X65.408 Y116.621 E247.45068
G1 F2700 E242.45068
G0 F9000 X64.445 Y117.072
G0 X63.639 Y115.176
G0 X63.257 Y113.911
G0 X62.874 Y111.843
G0 X62.764 Y109.901
G0 X62.818 Y104.519
G0 X63.116 Y102.465
G0 X63.457 Y101.152
G0 X64.197 Y99.208
G0 X64.807 Y98.016
G0 X65.954 Y96.273
G0 X66.726 Y95.341
G0 X68.227 Y93.855
G0 X69.077 Y94.528
G1 F2700 E247.45068
G1 F1125 X69.813 Y93.945 E247.54437
G1 X69.865 Y93.907 E247.55079
G1 X100.582 Y124.624 E251.88529
G1 X101.481 Y124.624 E251.975
G1 X101.996 Y124.624 E252.02638
G1 X70.704 Y93.331 E256.44209
G1 X70.849 Y93.239 E256.45923
G1 X71.595 Y92.808 E256.54519
G1 X103.41 Y124.624 E261.0347
G1 X104.825 Y124.624 E261.17589
G1 X72.542 Y92.341 E265.73137
G1 X72.566 Y92.329 E265.73405
G1 X72.726 Y92.258 E265.75152
G1 X73.547 Y91.932 E265.83966
G1 X106.239 Y124.624 E270.45285
G1 X107.653 Y124.624 E270.59394
G1 X74.62 Y91.591 E275.25526
G1 X74.82 Y91.529 E275.27615
G1 X75.289 Y91.405 E275.32455
G1 X75.745 Y91.301 E275.37122
G1 X109.067 Y124.624 E280.07339
G1 X110.481 Y124.624 E280.21448
G1 X76.937 Y91.079 E284.94797
G1 X77.588 Y90.984 E285.01361
G1 X78.099 Y90.93 E285.06488
G1 X78.195 Y90.923 E285.07449
G1 X111.896 Y124.624 E289.83006
G1 X113.31 Y124.624 E289.97115
G1 X79.529 Y90.843 E294.73802
G1 X80.151 Y90.827 E294.8001
G1 X80.927 Y90.827 E294.87753
G1 X114.724 Y124.624 E299.64665
G1 X116.138 Y124.624 E299.78774
G1 X82.341 Y90.827 E304.55686
G1 X83.756 Y90.827 E304.69805
G1 X117.552 Y124.624 E309.4671
G1 X118.966 Y124.623 E309.60819
G1 X85.17 Y90.827 E314.37717
G1 X86.584 Y90.827 E314.51826
G1 X120.38 Y124.623 E319.28724
G1 X121.794 Y124.623 E319.42833
G1 X87.998 Y90.827 E324.19731
G1 X89.412 Y90.827 E324.3384
G1 X123.209 Y124.623 E329.10746
G1 X124.623 Y124.623 E329.24854
G1 X90.827 Y90.827 E334.01753
G1 X92.241 Y90.827 E334.15861
G1 X126.037 Y124.623 E338.9276
G1 X127.451 Y124.623 E339.06869
G1 X93.655 Y90.827 E343.83767
G1 X95.069 Y90.827 E343.97876
G1 X128.865 Y124.623 E348.74774
G1 X130.28 Y124.623 E348.88893
G1 X96.484 Y90.827 E353.65791
G1 X97.898 Y90.827 E353.799
G1 X131.694 Y124.623 E358.56798
G1 X133.108 Y124.623 E358.70907
G1 X99.312 Y90.827 E363.47805
G1 X100.726 Y90.827 E363.61914
G1 X134.522 Y124.623 E368.38812
G1 X135.937 Y124.623 E368.52931
G1 X102.14 Y90.827 E373.29836
G1 X103.555 Y90.827 E373.43955
G1 X137.35 Y124.622 E378.20839
G1 X138.764 Y124.622 E378.34948
G1 X104.969 Y90.827 E383.11831
G1 X106.383 Y90.827 E383.2594
G1 X140.178 Y124.622 E388.02824
G1 X141.593 Y124.622 E388.16943
G1 X107.797 Y90.827 E392.93834
G1 X109.211 Y90.827 E393.07943
G1 X143.007 Y124.622 E397.84834
G1 X144.421 Y124.622 E397.98943
G1 X110.626 Y90.827 E402.75827
G1 X112.04 Y90.827 E402.89936
G1 X145.835 Y124.622 E407.6682
G1 X147.25 Y124.622 E407.80939
G1 X113.454 Y90.827 E412.5783
G1 X114.868 Y90.827 E412.71939
G1 X148.664 Y124.622 E417.4883
G1 X150.078 Y124.622 E417.62939
G1 X116.283 Y90.827 E422.39823
G1 X117.697 Y90.827 E422.53932
G1 X151.492 Y124.622 E427.30816
G1 X152.906 Y124.622 E427.44925
G1 X119.111 Y90.827 E432.21809
G1 X120.525 Y90.827 E432.35918
G1 X154.3 Y124.602 E437.12519
G1 X155.415 Y124.546 E437.23659
