;FLAVOR:Marlin
;TIME:3766
;Filament used: 2.91116m
;Layer height: 0.2
;MINX:76.665
;MINY:95.933
;MINZ:0.24
;MAXX:158.477
;MAXY:134.137
;MAXZ:31.09
;Generated with Cura_SteamEngine 4.6.1
M140 S55
M105
M190 S55
M104 S210
M105
M109 S210
M82 ;absolute extrusion mode
; Ender 3 Custom Start G-code
G92 E0 ; Reset Extruder
G28 ; Home all axes
G1 Z2.0 F3000 ; Move Z Axis up little to prevent scratching of Heat Bed
G1 X0.1 Y20 Z0.3 F5000.0 ; Move to start position
G1 X0.1 Y200.0 Z0.3 F1500.0 E15 ; Draw the first line
G1 X0.4 Y200.0 Z0.3 F5000.0 ; Move to side a little
G1 X0.4 Y20 Z0.3 F1500.0 E30 ; Draw the second line
G92 E0 ; Reset Extruder
G1 Z2.0 F3000 ; Move Z Axis up little to prevent scratching of Heat Bed
G1 X5 Y20 Z0.3 F5000.0 ; Move over to prevent blob squish
G92 E0
G92 E0
G1 F2700 E-5
;LAYER_COUNT:150
;LAYER:-6
M107
G0 F9000 X83.242 Y100.852 Z0.24
;TYPE:SUPPORT-INTERFACE
G1 F2700 E0
G1 F1125 X83.366 Y100.752 E0.01272
G1 X84.084 Y100.215 E0.08429
G1 X84.226 Y100.118 E0.09801
G1 X85.483 Y99.343 E0.21589
G1 X86.33 Y98.907 E0.29193
G1 X86.519 Y98.819 E0.30858
G1 X87.302 Y98.486 E0.3765
G1 X87.488 Y98.415 E0.39239
G1 X88.699 Y98.017 E0.49414
G1 X88.817 Y97.985 E0.5039
G1 X89.723 Y97.765 E0.57832
G1 X89.892 Y97.73 E0.5921
G1 X90.921 Y97.561 E0.67534
G1 X91.984 Y97.467 E0.76053
G1 X92.753 Y97.445 E0.82194
G1 X109.044 Y97.447 E2.12235
G1 X109.709 Y97.405 E2.17554
G1 X110.187 Y97.322 E2.21427
G1 X110.901 Y97.165 E2.27263
G1 X111.087 Y97.131 E2.28772
G1 X112.26 Y96.97 E2.38223
G1 X112.383 Y96.96 E2.39208
G1 X113.892 Y96.886 E2.51268
G1 X141.873 Y96.888 E4.74625
G1 X143.375 Y96.968 E4.86631
G1 X143.546 Y96.987 E4.88005
G1 X144.479 Y97.117 E4.95524
G1 X144.638 Y97.145 E4.96813
G1 X145.539 Y97.338 E5.04168
G1 X145.682 Y97.375 E5.05347
G1 X146.626 Y97.65 E5.13196
G1 X146.836 Y97.721 E5.14965
G1 X147.751 Y98.061 E5.22757
G1 X147.899 Y98.123 E5.24038
G1 X148.721 Y98.497 E5.31247
G1 X148.875 Y98.576 E5.32629
G1 X150.115 Y99.279 E5.44007
G1 X150.191 Y99.329 E5.44733
G1 X150.974 Y99.859 E5.5228
G1 X151.105 Y99.954 E5.53572
G1 X151.827 Y100.524 E5.60915
G1 X151.943 Y100.622 E5.62127
G1 X152.731 Y101.347 E5.70675
G1 X152.81 Y101.427 E5.71572
G1 X153.441 Y102.087 E5.78861
G1 X153.556 Y102.217 E5.80246
G1 X154.222 Y103.033 E5.88654
G1 X154.929 Y104.049 E5.98535
G1 X155.422 Y104.865 E6.06145
G1 X155.513 Y105.029 E6.07642
G1 X155.911 Y105.814 E6.14668
G1 X155.986 Y105.974 E6.16078
G1 X156.355 Y106.851 E6.23673
G1 X156.444 Y107.09 E6.25709
G1 X156.791 Y108.131 E6.34468
G1 X157.014 Y108.993 E6.41576
G1 X157.055 Y109.183 E6.43127
G1 X157.286 Y110.56 E6.54273
G1 X157.301 Y110.69 E6.55317
G1 X157.384 Y111.623 E6.62794
G1 X157.393 Y111.786 E6.64097
G1 X157.412 Y112.475 E6.69599
G1 X157.413 Y118.464 E7.17406
G1 X157.377 Y119.456 E7.2533
G1 X157.364 Y119.627 E7.26699
G1 X157.268 Y120.51 E7.33789
G1 X157.242 Y120.691 E7.35249
G1 X157.079 Y121.576 E7.42432
G1 X157.049 Y121.71 E7.43528
G1 X156.816 Y122.602 E7.50887
G1 X156.771 Y122.752 E7.52137
G1 X156.424 Y123.757 E7.60624
G1 X156.071 Y124.589 E7.67839
G1 X155.999 Y124.742 E7.69189
G1 X155.583 Y125.55 E7.76443
G1 X155.5 Y125.7 E7.77811
G1 X155.047 Y126.444 E7.84765
G1 X154.938 Y126.608 E7.86336
G1 X154.434 Y127.314 E7.93261
G1 X154.315 Y127.467 E7.94808
G1 X153.742 Y128.157 E8.01967
G1 X153.638 Y128.274 E8.03217
G1 X153.013 Y128.923 E8.10409
G1 X152.888 Y129.043 E8.11792
G1 X152.219 Y129.643 E8.18966
G1 X152.085 Y129.755 E8.2036
G1 X151.253 Y130.391 E8.28719
G1 X150.478 Y130.904 E8.36138
G1 X150.366 Y130.972 E8.37184
G1 X149.436 Y131.489 E8.45678
G1 X148.597 Y131.884 E8.5308
G1 X148.461 Y131.941 E8.54257
G1 X147.623 Y132.262 E8.61421
G1 X147.43 Y132.328 E8.63049
G1 X146.605 Y132.576 E8.69925
G1 X146.432 Y132.622 E8.71354
G1 X145.554 Y132.819 E8.78537
G1 X145.394 Y132.848 E8.79835
G1 X144.522 Y132.977 E8.86872
G1 X144.311 Y133 E8.88566
G1 X143.261 Y133.073 E8.96968
G1 X142.753 Y133.081 E9.01023
G1 X92.308 Y133.08 E13.03697
G1 X91.184 Y133.035 E13.12677
G1 X90.267 Y132.933 E13.20042
G1 X90.092 Y132.908 E13.21453
G1 X89.203 Y132.744 E13.28669
G1 X89.08 Y132.716 E13.29676
G1 X88.186 Y132.482 E13.37052
G1 X88.023 Y132.433 E13.38411
G1 X87.181 Y132.146 E13.45512
G1 X87.015 Y132.083 E13.46929
G1 X86.212 Y131.742 E13.53893
G1 X86.023 Y131.654 E13.55557
G1 X85.112 Y131.18 E13.63755
G1 X84.333 Y130.705 E13.71038
G1 X84.182 Y130.605 E13.72484
G1 X83.468 Y130.094 E13.79492
G1 X83.32 Y129.981 E13.80979
G1 X82.629 Y129.405 E13.8816
G1 X82.516 Y129.304 E13.8937
G1 X81.867 Y128.679 E13.96562
G1 X81.747 Y128.554 E13.97945
G1 X81.144 Y127.883 E14.05146
G1 X81.047 Y127.765 E14.06366
G1 X80.489 Y127.043 E14.1365
G1 X80.385 Y126.896 E14.15087
G1 X79.892 Y126.153 E14.22205
G1 X79.819 Y126.032 E14.23333
G1 X79.367 Y125.227 E14.30702
G1 X79.295 Y125.088 E14.31952
G1 X78.898 Y124.242 E14.39412
G1 X78.852 Y124.13 E14.40378
G1 X78.523 Y123.271 E14.47721
G1 X78.466 Y123.106 E14.49114
G1 X78.216 Y122.271 E14.56072
G1 X78.17 Y122.098 E14.57501
G1 X77.968 Y121.197 E14.64872
G1 X77.946 Y121.073 E14.65877
G1 X77.811 Y120.159 E14.73252
G1 X77.794 Y119.999 E14.74536
G1 X77.719 Y118.926 E14.83122
G1 X77.711 Y118.429 E14.8709
G1 X77.71 Y112.525 E15.34218
G1 X77.745 Y111.546 E15.42038
G1 X77.761 Y111.347 E15.43632
G1 X77.94 Y109.931 E15.55025
G1 X77.957 Y109.837 E15.55787
G1 X78.147 Y108.932 E15.63169
G1 X78.191 Y108.757 E15.64609
G1 X78.443 Y107.878 E15.71909
G1 X78.493 Y107.726 E15.73186
G1 X78.8 Y106.894 E15.80265
G1 X78.866 Y106.733 E15.81654
G1 X79.24 Y105.91 E15.8887
G1 X79.315 Y105.76 E15.90209
G1 X79.744 Y104.972 E15.97371
G1 X79.825 Y104.837 E15.98627
G1 X80.39 Y103.961 E16.06948
G1 X80.453 Y103.874 E16.07806
G1 X80.994 Y103.143 E16.15065
G1 X81.116 Y102.988 E16.1664
G1 X81.688 Y102.323 E16.23641
G1 X81.812 Y102.188 E16.25105
G1 X82.436 Y101.56 E16.32172
G1 X82.566 Y101.439 E16.33589
G1 X83.242 Y100.852 E16.40736
G0 F9000 X83.2 Y100.888
G1 F1125 X83.2 Y129.88 E18.72163
G0 F9000 X84.8 Y130.989
G1 F1125 X84.8 Y99.764 E21.21414
G0 F9000 X86.4 Y98.874
G1 F1125 X86.4 Y131.821 E23.84411
G0 F9000 X88 Y132.425
G1 F1125 X88 Y98.246 E26.57243
G0 F9000 X89.6 Y97.794
G1 F1125 X89.6 Y132.817 E29.36811
G0 F9000 X91.2 Y133.035
G1 F1125 X91.2 Y97.536 E32.2018
G0 F9000 X92.8 Y97.446
G1 F1125 X92.8 Y133.08 E35.04626
G0 F9000 X94.4 Y133.08
G1 F1125 X94.4 Y97.446 E37.89072
G0 F9000 X96 Y97.446
G1 F1125 X96 Y133.08 E40.73518
G0 F9000 X97.6 Y133.08
G1 F1125 X97.6 Y97.446 E43.57964
G0 F9000 X99.2 Y97.446
G1 F1125 X99.2 Y133.08 E46.4241
G0 F9000 X100.8 Y133.08
G1 F1125 X100.8 Y97.446 E49.26856
G0 F9000 X102.4 Y97.447
G1 F1125 X102.4 Y133.08 E52.11294
G0 F9000 X104 Y133.08
G1 F1125 X104 Y97.447 E54.95732
G0 F9000 X105.6 Y97.447
G1 F1125 X105.6 Y133.08 E57.8017
G0 F9000 X107.2 Y133.08
G1 F1125 X107.2 Y97.447 E60.64608
G0 F9000 X108.8 Y97.447
G1 F1125 X108.8 Y133.08 E63.49046
G0 F9000 X110.4 Y133.08
G1 F1125 X110.4 Y97.275 E66.34857
G0 F9000 X112 Y97.005
G1 F1125 X112 Y133.08 E69.22823
G0 F9000 X113.6 Y133.08
G1 F1125 X113.6 Y96.9 E72.11628
G0 F9000 X115.2 Y96.887
G1 F1125 X115.2 Y133.08 E75.00536
G0 F9000 X116.8 Y133.08
G1 F1125 X116.8 Y96.887 E77.89444
G0 F9000 X118.4 Y96.887
G1 F1125 X118.4 Y133.08 E80.78352
G0 F9000 X120 Y133.08
G1 F1125 X120 Y96.887 E83.6726
G0 F9000 X121.6 Y96.887
G1 F1125 X121.6 Y133.08 E86.56168
G0 F9000 X123.2 Y133.08
G1 F1125 X123.2 Y96.887 E89.45077
G0 F9000 X124.8 Y96.887
G1 F1125 X124.8 Y133.08 E92.33985
G0 F9000 X126.4 Y133.08
G1 F1125 X126.4 Y96.887 E95.22893
G0 F9000 X128 Y96.888
G1 F1125 X128 Y133.08 E98.11793
G0 F9000 X129.6 Y133.08
G1 F1125 X129.6 Y96.888 E101.00693
G0 F9000 X131.2 Y96.888
G1 F1125 X131.2 Y133.08 E103.89594
G0 F9000 X132.8 Y133.08
G1 F1125 X132.8 Y96.888 E106.78494
G0 F9000 X134.4 Y96.888
G1 F1125 X134.4 Y133.08 E109.67394
G0 F9000 X136 Y133.08
G1 F1125 X136 Y96.888 E112.56294
G0 F9000 X137.6 Y96.888
G1 F1125 X137.6 Y133.08 E115.45194
G0 F9000 X139.2 Y133.08
G1 F1125 X139.2 Y96.888 E118.34094
G0 F9000 X140.8 Y96.888
G1 F1125 X140.8 Y133.08 E121.22995
G0 F9000 X142.4 Y133.08
G1 F1125 X142.4 Y96.917 E124.11663
G0 F9000 X144 Y97.051
G1 F1125 X144 Y133.022 E126.98799
G0 F9000 X145.6 Y132.809
G1 F1125 X145.6 Y97.354 E129.81817
G0 F9000 X147.2 Y97.857
G1 F1125 X147.2 Y132.398 E132.57538
G0 F9000 X148.8 Y131.789
G1 F1125 X148.8 Y98.538 E135.22962
G0 F9000 X150.4 Y99.471
G1 F1125 X150.4 Y130.952 E137.74257
G0 F9000 X152 Y129.82
G1 F1125 X152 Y100.675 E140.06905
G0 F9000 X153.6 Y102.271
G1 F1125 X153.6 Y128.314 E142.14791
G0 F9000 X155.2 Y126.193
G1 F1125 X155.2 Y104.498 E143.8797
G0 F9000 X156.8 Y108.166
G1 F1125 X156.8 Y122.656 E145.03635
G1 F2700 E140.03635
G0 F9000 X157.783 Y123.083
G0 X157.04 Y125.029
G0 X156.424 Y126.23
G0 X155.284 Y127.955
G0 X154.413 Y129.004
G0 X152.921 Y130.444
G0 X151.852 Y131.271
G0 X150.073 Y132.358
G0 X148.851 Y132.932
G0 X146.888 Y133.602
G0 X145.562 Y133.9
G0 X143.302 Y134.137
G0 X91.254 Y134.107
G0 X89.928 Y133.96
G0 X87.901 Y133.508
G0 X86.611 Y133.068
G0 X84.731 Y132.186
G0 X83.572 Y131.477
G0 X82.241 Y130.449
G0 X80.971 Y129.283
G0 X81.6 Y128.39
G1 F2700 E145.03635
G1 F1125 X81.6 Y102.425 E147.10899
G0 F9000 X80 Y104.565
G1 F1125 X80 Y126.315 E148.84517
G0 F9000 X78.4 Y122.885
G1 F1125 X78.4 Y108.027 E150.0312
G1 F2700 E145.0312
G0 F300 X78.4 Y108.027 Z0.54
G0 F9000 X77.164 Y108.475
G0 X76.861 Y109.95
G0 X76.683 Y111.476
G0 X76.665 Y119.168
G0 X76.894 Y121.239
G0 X77.19 Y122.554
G0 X77.861 Y124.519
G0 X78.433 Y125.738
G0 X79.044 Y126.739
G0 X79.638 Y127.682
G0 X80.883 Y127.552
;TIME_ELAPSED:112.669047
;LAYER:-5
M140 S55
;TYPE:SUPPORT
G1 F2700 E150.0312
G1 F1125 X83.268 Y129.937 E150.36775
G1 X82.628 Y129.404 E150.45086
G1 X82.515 Y129.303 E150.46598
G1 X81.866 Y128.678 E150.55588
G1 X81.747 Y128.553 E150.5731
G1 X81.144 Y127.882 E150.66312
G1 X81.047 Y127.764 E150.67836
G0 F9000 X83.268 Y129.937
G1 F1125 X83.319 Y129.98 E150.68502
G1 X83.468 Y130.093 E150.70368
G1 X84.181 Y130.604 E150.7912
G1 X84.333 Y130.703 E150.8093
G1 X85.112 Y131.178 E150.90034
G1 X86.023 Y131.652 E151.00281
G1 X86.211 Y131.741 E151.02356
G1 X86.687 Y131.942 E151.07512
G1 X78.837 Y124.092 E152.18284
G1 X78.522 Y123.269 E152.27077
G1 X78.465 Y123.105 E152.28809
G1 X78.215 Y122.27 E152.37506
G1 X78.169 Y122.096 E152.39302
G1 X78.144 Y121.985 E152.40438
G1 X88.802 Y132.642 E153.90826
G1 X89.079 Y132.715 E153.93685
G1 X89.202 Y132.743 E153.94943
G1 X90.091 Y132.907 E154.03964
G1 X90.267 Y132.932 E154.05737
G1 X90.535 Y132.962 E154.08428
G1 X77.824 Y120.25 E155.87801
G1 X77.81 Y120.157 E155.8874
G1 X77.793 Y119.998 E155.90335
G1 X77.719 Y118.925 E156.01067
G1 X77.715 Y118.728 E156.03033
G1 X92.056 Y133.069 E158.054
G1 X92.307 Y133.079 E158.07907
G1 X93.481 Y133.079 E158.19621
G1 X77.71 Y117.308 E160.42167
G1 X77.71 Y115.894 E160.56276
G1 X94.895 Y133.079 E162.98774
G1 X96.31 Y133.079 E163.12893
G1 X77.71 Y114.479 E165.7536
G1 X77.71 Y113.065 E165.89468
G1 X97.724 Y133.079 E168.71888
G1 X99.138 Y133.079 E168.85997
G1 X77.74 Y111.681 E171.87945
G1 X77.744 Y111.544 E171.89313
G1 X77.761 Y111.345 E171.91306
G1 X77.879 Y110.406 E172.00749
G1 X100.552 Y133.079 E175.20689
G1 X101.966 Y133.079 E175.34798
G1 X78.089 Y109.202 E178.71729
G1 X78.146 Y108.931 E178.74492
G1 X78.191 Y108.756 E178.76295
G1 X78.383 Y108.081 E178.83297
G1 X103.381 Y133.079 E182.36046
G1 X104.795 Y133.079 E182.50155
G1 X78.748 Y107.032 E186.17706
G1 X78.799 Y106.893 E186.19184
G1 X78.866 Y106.732 E186.20924
G1 X79.176 Y106.046 E186.28435
G1 X106.209 Y133.079 E190.099
G1 X107.623 Y133.079 E190.24009
G1 X79.662 Y105.118 E194.18569
G1 X79.743 Y104.97 E194.20252
G1 X79.824 Y104.836 E194.21815
G1 X80.204 Y104.245 E194.28825
G1 X109.037 Y133.079 E198.35697
G1 X110.452 Y133.079 E198.49816
G1 X80.789 Y103.417 E202.68386
G1 X80.994 Y103.142 E202.71808
G1 X81.116 Y102.987 E202.73777
G1 X81.419 Y102.633 E202.78426
G1 X111.866 Y133.079 E207.08059
G1 X113.28 Y133.079 E207.22168
G1 X82.098 Y101.897 E211.6218
G1 X82.435 Y101.558 E211.66949
G1 X82.566 Y101.438 E211.68722
G1 X82.827 Y101.212 E211.72167
G1 X114.694 Y133.079 E216.21845
G1 X116.109 Y133.079 E216.35964
G1 X83.604 Y100.574 E220.94644
G1 X84.084 Y100.214 E221.00631
G1 X84.225 Y100.117 E221.02339
G1 X84.433 Y99.989 E221.04776
G1 X117.523 Y133.079 E225.71711
G1 X118.938 Y133.08 E225.8583
G1 X85.308 Y99.45 E230.60386
G1 X85.482 Y99.342 E230.62429
G1 X86.23 Y98.958 E230.70819
G1 X120.352 Y133.08 E235.52317
G1 X121.766 Y133.08 E235.66426
G1 X87.21 Y98.524 E240.54049
G1 X87.301 Y98.485 E240.55037
G1 X87.488 Y98.414 E240.57032
G1 X88.261 Y98.16 E240.65151
G1 X123.18 Y133.08 E245.57903
G1 X124.595 Y133.08 E245.72022
G1 X89.366 Y97.851 E250.69141
G1 X89.723 Y97.764 E250.72808
G1 X89.891 Y97.729 E250.7452
G1 X90.55 Y97.621 E250.81183
G1 X126.009 Y133.08 E255.81548
G1 X127.423 Y133.08 E255.95657
G1 X91.824 Y97.481 E260.97997
G1 X91.983 Y97.466 E260.99591
G1 X92.753 Y97.444 E261.07277
G1 X93.202 Y97.444 E261.11757
G1 X128.837 Y133.08 E266.14613
G1 X130.251 Y133.08 E266.28722
G1 X94.616 Y97.444 E271.31577
G1 X96.03 Y97.444 E271.45686
G1 X131.666 Y133.08 E276.48548
G1 X133.08 Y133.08 E276.62657
G1 X97.445 Y97.445 E281.65506
G1 X98.859 Y97.445 E281.79615
G1 X134.494 Y133.08 E286.82463
G1 X135.908 Y133.08 E286.96572
G1 X100.274 Y97.445 E291.99413
G1 X101.689 Y97.446 E292.13532
G1 X137.322 Y133.08 E297.16359
G1 X138.737 Y133.08 E297.30478
G1 X103.103 Y97.446 E302.33312
G1 X104.517 Y97.446 E302.47421
G1 X140.151 Y133.08 E307.50256
G1 X141.565 Y133.08 E307.64365
G1 X105.932 Y97.447 E312.67185
G1 X107.346 Y97.447 E312.81294
G1 X142.976 Y133.076 E317.84064
G1 X143.26 Y133.072 E317.86898
G1 X144.31 Y132.999 E317.97401
G0 F9000 X144.312 Y132.999
G1 F1125 X108.76 Y97.447 E322.99078
G1 X109.043 Y97.447 E323.01902
G1 X109.708 Y97.404 E323.08551
G1 X110.071 Y97.343 E323.12224
G1 X145.547 Y132.819 E328.12828
G1 X145.553 Y132.818 E328.12889
G1 X146.431 Y132.621 E328.21868
G1 X146.604 Y132.575 E328.23654
G1 X146.691 Y132.549 E328.2456
G1 X111.251 Y97.109 E333.24656
G1 X112.258 Y96.969 E333.34801
G1 X112.381 Y96.959 E333.36032
G1 X112.51 Y96.954 E333.3732
G1 X147.764 Y132.207 E338.34785
G1 X148.46 Y131.941 E338.4222
G1 X148.596 Y131.884 E338.43691
G1 X148.771 Y131.801 E338.45624
G1 X113.858 Y96.887 E343.38291
G1 X113.891 Y96.885 E343.38621
G1 X115.271 Y96.886 E343.52391
G1 X149.716 Y131.331 E348.38447
G1 X150.365 Y130.972 E348.45847
G1 X150.477 Y130.904 E348.47155
G1 X150.613 Y130.814 E348.48782
G1 X116.685 Y96.886 E353.27543
G1 X118.099 Y96.886 E353.41652
G1 X151.451 Y130.238 E358.12284
G1 X152.083 Y129.754 E358.20227
G1 X152.218 Y129.643 E358.21971
G1 X152.245 Y129.618 E358.22338
G1 X119.513 Y96.886 E362.84222
G1 X120.927 Y96.886 E362.98331
G1 X152.987 Y128.945 E367.50725
G1 X153.012 Y128.922 E367.51064
G1 X153.637 Y128.273 E367.60055
G1 X153.681 Y128.225 E367.60704
G1 X122.342 Y96.886 E372.02932
G1 X123.757 Y96.887 E372.17051
G1 X154.323 Y127.453 E376.4837
G1 X154.432 Y127.313 E376.5014
G1 X154.919 Y126.635 E376.5847
G1 X125.171 Y96.887 E380.78246
G1 X126.585 Y96.887 E380.92355
G1 X155.461 Y125.763 E384.99827
G1 X155.499 Y125.7 E385.00561
G1 X155.582 Y125.55 E385.02271
G1 X155.949 Y124.836 E385.10282
G1 X127.999 Y96.887 E389.04679
G1 X129.413 Y96.887 E389.18788
G1 X156.382 Y123.855 E392.99343
G1 X156.423 Y123.756 E393.00412
G1 X156.75 Y122.809 E393.10409
G1 X130.828 Y96.887 E396.76196
G1 X132.242 Y96.887 E396.90305
G1 X157.051 Y121.696 E400.40387
G1 X157.078 Y121.575 E400.41624
G1 X157.241 Y120.691 E400.50593
G1 X157.266 Y120.51 E400.52416
G1 X157.268 Y120.498 E400.52538
G1 X133.657 Y96.887 E403.85714
G1 X135.071 Y96.887 E403.99823
G1 X157.386 Y119.202 E407.14712
G1 X157.412 Y118.463 E407.22091
G1 X157.412 Y117.814 E407.28566
G1 X136.485 Y96.887 E410.23869
G1 X137.899 Y96.887 E410.37978
G1 X157.412 Y116.4 E413.13327
G1 X157.411 Y114.985 E413.27446
G1 X139.314 Y96.887 E415.82821
G1 X140.728 Y96.887 E415.9693
G1 X157.411 Y113.571 E418.32353
G1 X157.411 Y112.474 E418.43299
G1 X157.402 Y112.147 E418.46563
G1 X142.158 Y96.903 E420.61672
G1 X143.374 Y96.968 E420.73823
G1 X143.545 Y96.986 E420.75538
G1 X143.674 Y97.005 E420.76839
G1 X157.293 Y110.624 E422.69018
G1 X157.285 Y110.559 E422.69672
