;FLAVOR:Marlin
;TIME:8404
;Filament used: 6.62784m
;Layer height: 0.2
;MINX:90.212
;MINY:81.656
;MINZ:0.2
;MAXX:152.967
;MAXY:154.594
;MAXZ:60.2
;Generated with Cura_SteamEngine 4.6.1
M140 S55
M105
M190 S55
M104 S205
M105
M109 S205
M82 ;absolute extrusion mode
; Ender 3 Custom Start G-code
G92 E0 ; Reset Extruder
G28 ; Home all axes
G1 Z2.0 F3000 ; Move Z Axis up little to prevent scratching of Heat Bed
G1 X0.1 Y20 Z0.3 F5000.0 ; Move to start position
G1 X0.1 Y200.0 Z0.3 F1500.0 E15 ; Draw the first line
G1 X0.4 Y200.0 Z0.3 F5000.0 ; Move to side a little
G1 X0.4 Y20 Z0.3 F1500.0 E30 ; Draw the second line
G92 E0 ; Reset Extruder
G1 Z2.0 F3000 ; Move Z Axis up little to prevent scratching of Heat Bed
G1 X5 Y20 Z0.3 F5000.0 ; Move over to prevent blob squish
G92 E0
G92 E0
G1 F2700 E-5
;LAYER_COUNT:301
;LAYER:0
M107
G0 F6000 X117.067 Y82.467 Z0.2
;TYPE:SKIRT
G1 F2700 E0
G1 F1200 X117.969 Y82.52 E0.03005
G1 X118.862 Y82.652 E0.06008
G1 X119.74 Y82.863 E0.09011
G1 X120.596 Y83.151 E0.12015
G1 X121.423 Y83.513 E0.15018
G1 X122.215 Y83.948 E0.18023
G1 X122.966 Y84.45 E0.21027
G1 X123.669 Y85.017 E0.24031
G1 X124.368 Y85.696 E0.27272
G1 X126.063 Y87.507 E0.35523
G1 X127.865 Y89.334 E0.44058
G1 X129.689 Y91.082 E0.5246
G1 X131.599 Y92.812 E0.61031
G1 X133.504 Y94.441 E0.69368
G1 X135.493 Y96.048 E0.77873
G1 X137.5 Y97.576 E0.86263
G1 X139.545 Y99.044 E0.94636
G1 X141.682 Y100.489 E1.03216
G1 X143.836 Y101.858 E1.11704
G1 X146.083 Y103.197 E1.20404
G1 X147.042 Y103.75 E1.24086
G1 X147.804 Y104.235 E1.2709
G1 X148.52 Y104.786 E1.30095
G1 X149.184 Y105.398 E1.33099
G1 X149.791 Y106.066 E1.36101
G1 X150.337 Y106.785 E1.39104
G1 X150.818 Y107.55 E1.42109
G1 X151.228 Y108.355 E1.45114
G1 X151.566 Y109.192 E1.48116
G1 X151.829 Y110.056 E1.5112
G1 X152.014 Y110.94 E1.54124
G1 X152.131 Y112.001 E1.57674
G1 X152.15 Y112.331 E1.58774
G1 X152.167 Y112.917 E1.60724
G1 X152.166 Y140.624 E2.52877
G1 X152.156 Y141.333 E2.55236
G1 X152.103 Y142.234 E2.58238
G1 X151.971 Y143.128 E2.61243
G1 X151.81 Y143.828 E2.63632
G1 X151.686 Y144.291 E2.65227
G1 X151.414 Y145.152 E2.6823
G1 X151.056 Y146.007 E2.71313
G1 X150.886 Y146.367 E2.72637
G1 X150.465 Y147.166 E2.75641
G1 X149.917 Y148.005 E2.78974
G1 X149.697 Y148.308 E2.80219
G1 X149.394 Y148.704 E2.81878
G1 X149.026 Y149.162 E2.83832
G1 X148.43 Y149.84 E2.86834
G1 X147.833 Y150.413 E2.89586
G1 X147.547 Y150.666 E2.90856
G1 X146.845 Y151.234 E2.9386
G1 X146.426 Y151.527 E2.9556
G1 X146.239 Y151.651 E2.96307
G1 X145.465 Y152.116 E2.9931
G1 X144.899 Y152.4 E3.01416
G1 X144.519 Y152.576 E3.02809
G1 X144.124 Y152.753 E3.04249
G1 X142.862 Y153.221 E3.08725
G1 X142.489 Y153.332 E3.1002
G1 X141.613 Y153.551 E3.13023
G1 X140.721 Y153.692 E3.16027
G1 X139.836 Y153.753 E3.18977
G1 X138.066 Y153.794 E3.24866
G1 X115.221 Y153.793 E4.00849
G1 X114.306 Y153.775 E4.03892
G1 X113.266 Y153.728 E4.07355
G1 X111.624 Y153.628 E4.12826
G1 X110.723 Y153.565 E4.1583
G1 X109.78 Y153.489 E4.18977
G1 X108.339 Y153.345 E4.23794
G1 X107.061 Y153.187 E4.28077
G1 X105.592 Y152.982 E4.3301
G1 X104.619 Y152.824 E4.36289
G1 X103.693 Y152.657 E4.39418
G1 X103.086 Y152.529 E4.41481
G1 X102.374 Y152.354 E4.4392
G1 X101.305 Y152.077 E4.47593
G1 X100.13 Y151.695 E4.51702
G1 X98.541 Y151.07 E4.57382
G1 X97.716 Y150.703 E4.60385
G1 X96.568 Y150.032 E4.64807
G1 X96.168 Y149.762 E4.66413
G1 X95.233 Y149.049 E4.70323
G1 X95.071 Y148.91 E4.71033
G1 X94.412 Y148.292 E4.74038
G1 X93.811 Y147.619 E4.77039
G1 X93.271 Y146.894 E4.80046
G1 X92.798 Y146.125 E4.83049
G1 X92.548 Y145.646 E4.84846
G1 X92.288 Y145.111 E4.86824
G1 X91.931 Y144.281 E4.89829
G1 X91.65 Y143.423 E4.92832
G1 X91.446 Y142.543 E4.95837
G1 X91.32 Y141.648 E4.98843
G1 X91.276 Y140.88 E5.01402
G1 X91.253 Y139.624 E5.0558
G1 X91.249 Y132.766 E5.2839
G1 X91.184 Y130.17 E5.37027
G1 X91.105 Y128.546 E5.42434
G1 X91.06 Y127.774 E5.45006
G1 X91.045 Y127.375 E5.46334
G1 X91.012 Y125.557 E5.52382
G1 X91.013 Y93.177 E6.60078
G1 X91.023 Y92.512 E6.6229
G1 X91.077 Y91.61 E6.65296
G1 X91.21 Y90.717 E6.68299
G1 X91.421 Y89.839 E6.71302
G1 X91.71 Y88.983 E6.74307
G1 X92.073 Y88.156 E6.77311
G1 X92.507 Y87.365 E6.80312
G1 X93.01 Y86.614 E6.83318
G1 X93.578 Y85.912 E6.86322
G1 X94.205 Y85.262 E6.89325
G1 X94.887 Y84.67 E6.92329
G1 X95.619 Y84.141 E6.95333
G1 X96.395 Y83.679 E6.98337
G1 X97.209 Y83.288 E7.0134
G1 X98.054 Y82.969 E7.04344
G1 X98.924 Y82.727 E7.07348
G1 X99.812 Y82.563 E7.10351
G1 X100.935 Y82.469 E7.141
G1 X101.542 Y82.456 E7.16119
G1 X116.369 Y82.457 E7.65434
G1 X117.067 Y82.467 E7.67756
G0 F6000 X117.073 Y82.067
G1 F1200 X117.992 Y82.12 E7.70817
G1 X118.903 Y82.253 E7.73879
G1 X119.799 Y82.464 E7.76941
G1 X120.673 Y82.752 E7.80002
G1 X121.52 Y83.115 E7.83067
G1 X122.331 Y83.55 E7.86128
G1 X123.101 Y84.054 E7.89188
G1 X123.825 Y84.623 E7.92251
G1 X124.661 Y85.423 E7.961
G1 X126.358 Y87.236 E8.04359
G1 X128.161 Y89.065 E8.12901
G1 X129.969 Y90.798 E8.21231
G1 X131.843 Y92.495 E8.2964
G1 X133.752 Y94.128 E8.37995
G1 X135.742 Y95.734 E8.46501
G1 X137.747 Y97.262 E8.54885
G1 X139.78 Y98.721 E8.63208
G1 X141.899 Y100.153 E8.71714
G1 X144.025 Y101.505 E8.80094
G1 X146.333 Y102.88 E8.89029
G1 X147.242 Y103.404 E8.92519
G1 X148.019 Y103.898 E8.95582
G1 X148.75 Y104.457 E8.98642
G1 X149.43 Y105.078 E9.01705
G1 X150.053 Y105.756 E9.04768
G1 X150.615 Y106.485 E9.07829
G1 X151.112 Y107.26 E9.10891
G1 X151.54 Y108.075 E9.13953
G1 X151.895 Y108.924 E9.17014
G1 X152.175 Y109.801 E9.20076
G1 X152.379 Y110.699 E9.23139
G1 X152.53 Y111.978 E9.27422
G1 X152.549 Y112.308 E9.28522
G1 X152.567 Y112.917 E9.30548
G1 X152.566 Y140.629 E10.22718
G1 X152.556 Y141.338 E10.25077
G1 X152.503 Y142.258 E10.28142
G1 X152.37 Y143.169 E10.31204
G1 X152.196 Y143.931 E10.33804
G1 X152.072 Y144.394 E10.35398
G1 X151.796 Y145.272 E10.38459
G1 X151.418 Y146.178 E10.41724
G1 X151.248 Y146.538 E10.43048
G1 X150.819 Y147.353 E10.46112
G1 X150.24 Y148.24 E10.49635
G1 X150.02 Y148.543 E10.5088
G1 X149.706 Y148.954 E10.526
G1 X149.338 Y149.412 E10.54554
G1 X148.731 Y150.104 E10.57616
G1 X148.098 Y150.712 E10.60535
G1 X147.812 Y150.965 E10.61805
G1 X147.097 Y151.545 E10.64867
G1 X146.647 Y151.86 E10.66694
G1 X146.46 Y151.984 E10.67441
G1 X145.671 Y152.459 E10.70504
G1 X145.068 Y152.763 E10.7275
G1 X144.683 Y152.941 E10.74161
G1 X144.288 Y153.118 E10.756
G1 X143.432 Y153.458 E10.78664
G1 X142.976 Y153.605 E10.80257
G1 X142.603 Y153.716 E10.81552
G1 X141.71 Y153.94 E10.84614
G1 X140.801 Y154.085 E10.87675
G1 X139.846 Y154.153 E10.9086
G1 X138.066 Y154.194 E10.96782
G1 X115.216 Y154.193 E11.72781
G1 X114.288 Y154.175 E11.75868
G1 X113.242 Y154.128 E11.79351
G1 X111.596 Y154.027 E11.84835
G1 X110.692 Y153.964 E11.87849
G1 X109.742 Y153.887 E11.9102
G1 X108.29 Y153.742 E11.95873
G1 X107.007 Y153.583 E12.00173
G1 X105.529 Y153.377 E12.05136
G1 X104.548 Y153.218 E12.08442
G1 X103.622 Y153.051 E12.11571
G1 X102.992 Y152.917 E12.13713
G1 X102.274 Y152.741 E12.16172
G1 X101.205 Y152.464 E12.19845
G1 X99.984 Y152.067 E12.24116
G1 X98.395 Y151.442 E12.29795
G1 X97.554 Y151.069 E12.32855
G1 X96.748 Y150.623 E12.35918
G1 X96.345 Y150.364 E12.37512
G1 X95.945 Y150.094 E12.39117
G1 X94.973 Y149.353 E12.43182
G1 X94.811 Y149.214 E12.43892
G1 X94.139 Y148.584 E12.46956
G1 X93.524 Y147.899 E12.50018
G1 X92.971 Y147.163 E12.5308
G1 X92.483 Y146.382 E12.56143
G1 X92.189 Y145.822 E12.58246
G1 X91.927 Y145.284 E12.60236
G1 X91.564 Y144.439 E12.63295
G1 X91.275 Y143.565 E12.66357
G1 X91.063 Y142.669 E12.69419
G1 X90.929 Y141.758 E12.72482
G1 X90.876 Y140.888 E12.75381
G1 X90.853 Y139.624 E12.79586
G1 X90.849 Y132.776 E13.02362
G1 X90.783 Y130.157 E13.11076
G1 X90.706 Y128.569 E13.16364
G1 X90.661 Y127.797 E13.18936
G1 X90.645 Y127.382 E13.20317
G1 X90.612 Y125.557 E13.26388
G1 X90.613 Y93.171 E14.34104
G1 X90.623 Y92.506 E14.36317
G1 X90.677 Y91.587 E14.39378
G1 X90.81 Y90.676 E14.42441
G1 X91.022 Y89.78 E14.45503
G1 X91.311 Y88.905 E14.48568
G1 X91.675 Y88.06 E14.51628
G1 X92.11 Y87.249 E14.54689
G1 X92.615 Y86.478 E14.57754
G1 X93.184 Y85.755 E14.60814
G1 X93.814 Y85.083 E14.63878
G1 X94.5 Y84.469 E14.6694
G1 X95.236 Y83.917 E14.7
G1 X96.018 Y83.43 E14.73064
G1 X96.839 Y83.014 E14.76125
G1 X97.693 Y82.67 E14.79188
G1 X98.573 Y82.401 E14.82248
G1 X99.474 Y82.21 E14.85312
G1 X100.388 Y82.098 E14.88374
G1 X100.924 Y82.069 E14.9016
G1 X101.542 Y82.056 E14.92216
G1 X116.375 Y82.057 E15.4155
G1 X117.073 Y82.067 E15.43872
G0 F6000 X117.079 Y81.667
G1 F1200 X118.015 Y81.721 E15.4699
G1 X118.943 Y81.853 E15.50108
G1 X119.857 Y82.065 E15.53229
G1 X120.749 Y82.354 E15.56347
G1 X121.614 Y82.717 E15.59467
G1 X122.444 Y83.153 E15.62586
G1 X123.235 Y83.658 E15.65707
G1 X123.979 Y84.229 E15.68826
G1 X124.953 Y85.15 E15.73285
G1 X126.652 Y86.965 E15.81554
G1 X128.422 Y88.76 E15.89938
G1 X130.232 Y90.495 E15.98277
G1 X132.126 Y92.211 E16.06778
G1 X134.018 Y93.829 E16.15058
G1 X135.968 Y95.403 E16.23393
G1 X138 Y96.951 E16.31889
G1 X140.015 Y98.397 E16.40138
G1 X142.107 Y99.812 E16.48538
G1 X144.248 Y101.173 E16.56976
G1 X146.481 Y102.503 E16.65621
G1 X147.442 Y103.057 E16.6931
G1 X148.233 Y103.56 E16.72428
G1 X148.98 Y104.128 E16.75549
G1 X149.675 Y104.758 E16.78669
G1 X150.313 Y105.444 E16.81785
G1 X150.891 Y106.183 E16.84906
G1 X151.405 Y106.968 E16.88026
G1 X151.849 Y107.794 E16.91145
G1 X152.221 Y108.655 E16.94265
G1 X152.519 Y109.544 E16.97383
G1 X152.74 Y110.456 E17.00505
G1 X152.882 Y111.383 E17.03624
G1 X152.93 Y111.955 E17.05533
G1 X152.949 Y112.285 E17.06632
G1 X152.967 Y112.917 E17.08735
G1 X152.966 Y140.635 E18.00926
G1 X152.956 Y141.344 E18.03284
G1 X152.903 Y142.28 E18.06402
G1 X152.77 Y143.209 E18.09524
G1 X152.583 Y144.035 E18.1234
G1 X152.459 Y144.498 E18.13935
G1 X152.178 Y145.392 E18.17051
G1 X151.78 Y146.349 E18.20499
G1 X151.61 Y146.709 E18.21823
G1 X151.173 Y147.539 E18.24943
G1 X150.564 Y148.475 E18.28657
G1 X150.344 Y148.778 E18.29902
G1 X150.018 Y149.205 E18.31689
G1 X149.65 Y149.663 E18.33643
G1 X149.032 Y150.368 E18.36761
G1 X148.363 Y151.012 E18.3985
G1 X148.077 Y151.265 E18.4112
G1 X147.349 Y151.856 E18.44239
G1 X146.868 Y152.194 E18.46194
G1 X146.681 Y152.318 E18.4694
G1 X145.878 Y152.802 E18.50059
G1 X145.237 Y153.126 E18.52448
G1 X144.451 Y153.483 E18.55319
G1 X143.58 Y153.83 E18.58437
G1 X143.09 Y153.988 E18.6015
G1 X142.717 Y154.099 E18.61444
G1 X141.808 Y154.328 E18.64562
G1 X140.882 Y154.479 E18.67682
G1 X139.856 Y154.553 E18.71104
G1 X138.066 Y154.594 E18.77059
G1 X115.21 Y154.593 E19.53078
G1 X114.592 Y154.584 E19.55134
G1 X114.271 Y154.574 E19.56202
G1 X113.217 Y154.527 E19.59711
G1 X111.569 Y154.426 E19.65203
G1 X110.661 Y154.362 E19.6823
G1 X109.703 Y154.285 E19.71427
G1 X108.241 Y154.139 E19.76314
G1 X106.952 Y153.979 E19.80634
G1 X105.466 Y153.772 E19.85624
G1 X104.477 Y153.611 E19.88957
G1 X103.551 Y153.444 E19.92086
G1 X102.897 Y153.306 E19.94309
G1 X102.174 Y153.128 E19.96786
G1 X101.105 Y152.851 E20.00459
G1 X99.838 Y152.44 E20.04889
G1 X98.249 Y151.815 E20.10568
G1 X97.391 Y151.434 E20.13691
G1 X96.569 Y150.983 E20.16809
G1 X96.121 Y150.695 E20.1858
G1 X95.721 Y150.425 E20.20186
G1 X94.712 Y149.656 E20.24405
G1 X94.55 Y149.517 E20.25115
G1 X93.865 Y148.877 E20.28233
G1 X93.237 Y148.18 E20.31353
G1 X92.67 Y147.433 E20.34473
G1 X92.17 Y146.64 E20.37591
G1 X91.829 Y145.997 E20.40011
G1 X91.567 Y145.458 E20.42005
G1 X91.196 Y144.597 E20.45123
G1 X90.899 Y143.707 E20.48244
G1 X90.68 Y142.795 E20.51363
G1 X90.539 Y141.868 E20.54482
G1 X90.476 Y140.896 E20.57722
G1 X90.453 Y139.624 E20.61953
G1 X90.449 Y132.786 E20.84696
G1 X90.384 Y130.187 E20.93343
G1 X90.301 Y128.488 E20.99001
G1 X90.262 Y127.82 E21.01226
G1 X90.245 Y127.39 E21.02658
G1 X90.212 Y125.557 E21.08755
G1 X90.213 Y93.165 E22.16491
G1 X90.223 Y92.5 E22.18704
G1 X90.277 Y91.563 E22.21825
G1 X90.411 Y90.635 E22.24944
G1 X90.623 Y89.721 E22.28064
G1 X90.912 Y88.829 E22.31183
G1 X91.277 Y87.965 E22.34303
G1 X91.713 Y87.135 E22.37421
G1 X92.219 Y86.345 E22.40541
G1 X92.79 Y85.601 E22.43661
G1 X93.422 Y84.908 E22.4678
G1 X94.111 Y84.272 E22.49899
G1 X94.852 Y83.697 E22.53018
G1 X95.639 Y83.187 E22.56137
G1 X96.467 Y82.746 E22.59258
G1 X97.329 Y82.377 E22.62376
G1 X98.22 Y82.083 E22.65497
G1 X99.132 Y81.865 E22.68616
G1 X100.059 Y81.727 E22.71733
G1 X100.913 Y81.669 E22.7458
G1 X101.542 Y81.656 E22.76672
G1 X116.381 Y81.657 E23.26027
G1 X117.079 Y81.667 E23.28349
G1 F2700 E18.28349
;MESH:Object 3
G0 F6000 X116.524 Y91.991
G0 X116.524 Y93.076
G0 X101.994 Y93.438
G0 X101.995 Y126.066
G0 X102.243 Y130.596
G0 X102.317 Y130.881
G0 X102.869 Y131.158
G0 X103.922 Y131.444
G0 X106.739 Y131.752
G0 X135.012 Y132.169
G0 X135.012 Y134.25
G0 X102.235 Y134.627
G0 X102.225 Y140.413
G0 X102.601 Y140.888
G0 X104.029 Y141.461
G0 X105.697 Y141.881
G0 X107.821 Y142.219
G0 X114.683 Y142.994
;TYPE:WALL-INNER
G1 F2700 E23.28349
G1 F1200 X111.975 Y142.829 E23.37372
G1 X110.135 Y142.685 E23.43511
G1 X107.818 Y142.4 E23.51275
G1 X107.051 Y142.283 E23.53856
G1 X105.656 Y142.047 E23.58562
G1 X105.146 Y141.908 E23.6032
G1 X103.975 Y141.623 E23.64328
G1 X103.647 Y141.5 E23.65493
G1 X102.837 Y141.157 E23.68419
G1 X102.52 Y141.04 E23.69543
G1 X102.322 Y140.899 E23.70351
G1 X102.322 Y140.854 E23.70501
G1 X102.053 Y140.467 E23.72069
G1 X102.053 Y134.445 E23.92098
G1 X127.402 Y134.444 E24.76409
G1 X131.07 Y134.422 E24.88609
G1 X135.184 Y134.422 E25.02292
G1 X135.184 Y131.998 E25.10355
G1 X130.772 Y131.991 E25.25029
G1 X108.792 Y131.991 E25.98135
G1 X107.48 Y131.967 E26.02499
G1 X106.729 Y131.923 E26.05001
G1 X105.579 Y131.826 E26.0884
G1 X104.949 Y131.734 E26.10957
G1 X103.898 Y131.613 E26.14476
G1 X103.45 Y131.507 E26.16007
G1 X102.812 Y131.318 E26.18221
G1 X102.507 Y131.211 E26.19296
G1 X102.219 Y131.021 E26.20443
G1 X102.142 Y130.957 E26.20776
G1 X102.091 Y130.725 E26.21566
G1 X102.054 Y130.711 E26.21698
G1 X102.053 Y130.431 E26.22629
G1 X102.053 Y126.837 E26.34583
G1 X102.007 Y126.248 E26.36548
G1 X101.813 Y126.248 E26.37193
G1 X101.812 Y125.416 E26.3996
G1 X101.812 Y93.256 E27.46925
G1 X116.344 Y93.256 E27.95258
G1 X116.344 Y113.187 E28.61549
G1 X141.367 Y113.187 E29.44776
G1 X141.367 Y141.086 E30.37569
G1 X141.226 Y141.452 E30.38873
G1 X141.226 Y141.564 E30.39246
G1 X141.151 Y141.716 E30.39809
G1 X141.064 Y141.819 E30.40258
G1 X140.885 Y142.065 E30.4127
G1 X140.769 Y142.181 E30.41815
G1 X140.566 Y142.453 E30.42944
G1 X140.504 Y142.504 E30.43211
G1 X140.282 Y142.653 E30.441
G1 X140.17 Y142.701 E30.44506
G1 X139.83 Y142.833 E30.45719
G1 X139.686 Y142.914 E30.46268
G1 X139.497 Y142.968 E30.46922
G1 X139.395 Y142.968 E30.47261
G1 X139.002 Y142.994 E30.48571
G1 X114.683 Y142.994 E31.29457
G0 F6000 X114.675 Y143.394
;TYPE:WALL-OUTER
G1 F1200 X111.944 Y143.228 E31.38557
G1 X110.099 Y143.084 E31.44712
G1 X107.769 Y142.797 E31.5252
G1 X106.984 Y142.677 E31.55161
G1 X105.566 Y142.437 E31.59945
G1 X105.046 Y142.295 E31.61738
G1 X103.861 Y142.007 E31.65794
G1 X103.499 Y141.871 E31.6708
G1 X102.69 Y141.529 E31.70001
G1 X102.331 Y141.396 E31.71274
G1 X101.922 Y141.105 E31.72944
G1 X101.922 Y140.979 E31.73363
G1 X101.653 Y140.592 E31.74931
G1 X101.653 Y134.046 E31.96703
G1 X102.131 Y134.045 E31.98293
G1 X127.4 Y134.044 E32.82338
G1 X131.068 Y134.022 E32.94538
G1 X134.784 Y134.022 E33.06897
G1 X134.784 Y132.397 E33.12302
G1 X130.771 Y132.391 E33.25649
G1 X108.785 Y132.391 E33.98775
G1 X107.473 Y132.367 E34.03139
G1 X106.696 Y132.321 E34.05728
G1 X105.536 Y132.224 E34.096
G1 X104.897 Y132.131 E34.11748
G1 X103.828 Y132.007 E34.15327
G1 X103.349 Y131.894 E34.16964
G1 X102.692 Y131.699 E34.19243
G1 X102.324 Y131.57 E34.2054
G1 X101.985 Y131.346 E34.21892
G1 X101.78 Y131.176 E34.22777
G1 X101.746 Y131.021 E34.23305
G1 X101.655 Y130.986 E34.23629
G1 X101.653 Y130.431 E34.25475
G1 X101.653 Y126.853 E34.37376
G1 X101.637 Y126.648 E34.3806
G1 X101.414 Y126.648 E34.38801
G1 X101.412 Y125.417 E34.42896
G1 X101.412 Y92.856 E35.51194
G1 X116.744 Y92.856 E36.02189
G1 X116.744 Y112.787 E36.68479
G1 X141.767 Y112.787 E37.51706
G1 X141.767 Y141.16 E38.46075
G1 X141.626 Y141.526 E38.4738
G1 X141.626 Y141.658 E38.47819
G1 X141.489 Y141.935 E38.48847
G1 X141.379 Y142.066 E38.49415
