;FLAVOR:Marlin
;TIME:8393
;Filament used: 6.62695m
;Layer height: 0.2
;MINX:91.846
;MINY:81.656
;MINZ:0.2
;MAXX:154.601
;MAXY:154.594
;MAXZ:60.2
;Generated with Cura_SteamEngine 4.6.1
M140 S55
M105
M190 S55
M104 S205
M105
M109 S205
M82 ;absolute extrusion mode
; Ender 3 Custom Start G-code
G92 E0 ; Reset Extruder
G28 ; Home all axes
G1 Z2.0 F3000 ; Move Z Axis up little to prevent scratching of Heat Bed
G1 X0.1 Y20 Z0.3 F5000.0 ; Move to start position
G1 X0.1 Y200.0 Z0.3 F1500.0 E15 ; Draw the first line
G1 X0.4 Y200.0 Z0.3 F5000.0 ; Move to side a little
G1 X0.4 Y20 Z0.3 F1500.0 E30 ; Draw the second line
G92 E0 ; Reset Extruder
G1 Z2.0 F3000 ; Move Z Axis up little to prevent scratching of Heat Bed
G1 X5 Y20 Z0.3 F5000.0 ; Move over to prevent blob squish
G92 E0
G92 E0
G1 F2700 E-5
;LAYER_COUNT:301
;LAYER:0
M107
G0 F6000 X143.738 Y82.467 Z0.2
;TYPE:SKIRT
G1 F2700 E0
G1 F1200 X144.64 Y82.52 E0.03005
G1 X145.533 Y82.652 E0.06008
G1 X146.411 Y82.863 E0.09011
G1 X147.267 Y83.151 E0.12015
G1 X148.094 Y83.513 E0.15018
G1 X148.886 Y83.948 E0.18023
G1 X149.637 Y84.45 E0.21027
G1 X150.34 Y85.017 E0.24031
G1 X150.99 Y85.644 E0.27035
G1 X151.582 Y86.326 E0.30039
G1 X152.112 Y87.057 E0.33042
G1 X152.574 Y87.833 E0.36046
G1 X152.967 Y88.646 E0.39049
G1 X153.285 Y89.491 E0.42052
G1 X153.528 Y90.361 E0.45056
G1 X153.693 Y91.249 E0.4806
G1 X153.788 Y92.364 E0.51782
G1 X153.801 Y92.97 E0.53798
G1 X153.8 Y126.286 E1.64608
G1 X153.781 Y127.299 E1.67978
G1 X153.765 Y127.642 E1.6912
G1 X153.64 Y129.871 E1.76545
G1 X153.568 Y132.431 E1.85063
G1 X153.561 Y133.898 E1.89942
G1 X153.559 Y140.075 E2.10487
G1 X153.549 Y140.788 E2.12859
G1 X153.496 Y141.69 E2.15864
G1 X153.364 Y142.583 E2.18867
G1 X153.154 Y143.461 E2.21869
G1 X152.866 Y144.317 E2.24873
G1 X152.619 Y144.904 E2.26991
G1 X152.398 Y145.374 E2.28719
G1 X152.234 Y145.707 E2.29953
G1 X151.8 Y146.498 E2.32954
G1 X151.297 Y147.248 E2.35958
G1 X150.73 Y147.951 E2.38962
G1 X150.103 Y148.601 E2.41965
G1 X149.421 Y149.193 E2.44969
G1 X149.013 Y149.5 E2.46667
G1 X148.516 Y149.855 E2.48699
G1 X147.758 Y150.347 E2.51704
G1 X146.96 Y150.77 E2.54708
G1 X146.37 Y151.028 E2.5685
G1 X144.825 Y151.645 E2.62383
G1 X143.636 Y152.037 E2.66547
G1 X142.452 Y152.347 E2.70618
G1 X141.876 Y152.492 E2.72594
G1 X141.435 Y152.593 E2.74099
G1 X140.996 Y152.683 E2.75589
G1 X140.645 Y152.749 E2.76777
G1 X139.085 Y153.002 E2.82033
G1 X137.612 Y153.204 E2.86978
G1 X136.535 Y153.336 E2.90587
G1 X135.261 Y153.471 E2.94848
G1 X133.961 Y153.574 E2.99186
G1 X132.533 Y153.67 E3.03946
G1 X131.338 Y153.74 E3.07927
G1 X130.435 Y153.778 E3.10933
G1 X129.454 Y153.793 E3.14197
G1 X128.747 Y153.794 E3.16548
G1 X106.374 Y153.793 E3.90961
G1 X105.443 Y153.777 E3.94058
G1 X105.038 Y153.762 E3.95406
G1 X103.833 Y153.645 E3.99433
G1 X103.483 Y153.59 E4.00611
G1 X102.597 Y153.411 E4.03617
G1 X101.526 Y153.08 E4.07346
G1 X101.118 Y152.929 E4.08793
G1 X100.365 Y152.615 E4.11506
G1 X99.962 Y152.428 E4.12984
G1 X99.16 Y152.012 E4.15989
G1 X98.671 Y151.712 E4.17897
G1 X98.379 Y151.521 E4.19058
G1 X97.646 Y150.994 E4.2206
G1 X97.214 Y150.633 E4.23933
G1 X97.044 Y150.483 E4.24687
G1 X96.394 Y149.856 E4.27691
G1 X95.896 Y149.29 E4.30198
G1 X95.529 Y148.841 E4.32127
G1 X95.299 Y148.55 E4.3336
G1 X95.051 Y148.223 E4.34725
G1 X94.538 Y147.48 E4.37728
G1 X94.107 Y146.723 E4.40626
G1 X93.961 Y146.439 E4.41688
G1 X93.584 Y145.618 E4.44693
G1 X93.302 Y144.835 E4.47461
G1 X93.135 Y144.304 E4.49312
G1 X92.902 Y143.431 E4.52317
G1 X92.748 Y142.542 E4.55318
G1 X92.667 Y141.438 E4.59
G1 X92.646 Y140.245 E4.62969
G1 X92.646 Y113.138 E5.53127
G1 X92.656 Y112.446 E5.55429
G1 X92.709 Y111.544 E5.58434
G1 X92.842 Y110.651 E5.61437
G1 X93.053 Y109.773 E5.6444
G1 X93.341 Y108.917 E5.67444
G1 X93.703 Y108.089 E5.7045
G1 X94.137 Y107.298 E5.73451
G1 X94.64 Y106.547 E5.76457
G1 X95.207 Y105.844 E5.79461
G1 X95.834 Y105.194 E5.82465
G1 X96.516 Y104.602 E5.85468
G1 X97.247 Y104.073 E5.88469
G1 X97.743 Y103.767 E5.90408
G1 X99.913 Y102.51 E5.98749
G1 X102.097 Y101.163 E6.07283
G1 X104.231 Y99.763 E6.15772
G1 X106.304 Y98.316 E6.2418
G1 X108.322 Y96.82 E6.32536
G1 X110.347 Y95.231 E6.41097
G1 X112.282 Y93.621 E6.49469
G1 X114.215 Y91.917 E6.5804
G1 X116.066 Y90.192 E6.66455
G1 X117.863 Y88.417 E6.74856
G1 X119.659 Y86.542 E6.83492
G1 X120.377 Y85.762 E6.87018
G1 X121.017 Y85.125 E6.90021
G1 X121.711 Y84.547 E6.93025
G1 X122.454 Y84.033 E6.9603
G1 X123.239 Y83.587 E6.99033
G1 X124.06 Y83.212 E7.02035
G1 X124.912 Y82.911 E7.0504
G1 X125.787 Y82.687 E7.08044
G1 X126.678 Y82.54 E7.11048
G1 X127.715 Y82.47 E7.14505
G1 X128.676 Y82.456 E7.17701
G1 X143.04 Y82.457 E7.65476
G1 X143.738 Y82.467 E7.67798
G0 F6000 X143.744 Y82.067
G1 F1200 X144.663 Y82.12 E7.7086
G1 X145.574 Y82.253 E7.73922
G1 X146.47 Y82.464 E7.76984
G1 X147.344 Y82.752 E7.80044
G1 X148.191 Y83.115 E7.83109
G1 X149.002 Y83.55 E7.8617
G1 X149.772 Y84.054 E7.89231
G1 X150.496 Y84.623 E7.92294
G1 X151.168 Y85.253 E7.95357
G1 X151.783 Y85.938 E7.98419
G1 X152.336 Y86.674 E8.01481
G1 X152.823 Y87.455 E8.04542
G1 X153.24 Y88.276 E8.07605
G1 X153.585 Y89.13 E8.10668
G1 X153.854 Y90.01 E8.13729
G1 X154.046 Y90.911 E8.16793
G1 X154.159 Y91.824 E8.19853
G1 X154.187 Y92.352 E8.21612
G1 X154.201 Y92.97 E8.23668
G1 X154.2 Y126.291 E9.34494
G1 X154.181 Y127.317 E9.37907
G1 X154.164 Y127.665 E9.39066
G1 X154.04 Y129.87 E9.46411
G1 X153.968 Y132.444 E9.54975
G1 X153.961 Y133.9 E9.59818
G1 X153.959 Y140.081 E9.80376
G1 X153.949 Y140.794 E9.82748
G1 X153.896 Y141.713 E9.8581
G1 X153.764 Y142.624 E9.88871
G1 X153.553 Y143.52 E9.91933
G1 X153.265 Y144.394 E9.94994
G1 X152.982 Y145.071 E9.97434
G1 X152.757 Y145.55 E9.99194
G1 X152.593 Y145.883 E10.00429
G1 X152.151 Y146.691 E10.03492
G1 X151.64 Y147.457 E10.06555
G1 X151.065 Y148.176 E10.09617
G1 X150.43 Y148.842 E10.12677
G1 X149.739 Y149.45 E10.15739
G1 X149.245 Y149.826 E10.17804
G1 X148.748 Y150.181 E10.19835
G1 X147.976 Y150.683 E10.22898
G1 X147.164 Y151.116 E10.25958
G1 X146.518 Y151.399 E10.28304
G1 X144.973 Y152.016 E10.33838
G1 X143.738 Y152.423 E10.38162
G1 X142.55 Y152.735 E10.42248
G1 X141.974 Y152.88 E10.44223
G1 X141.515 Y152.985 E10.45789
G1 X141.076 Y153.075 E10.4728
G1 X140.712 Y153.143 E10.48512
G1 X139.935 Y153.274 E10.51132
G1 X139.139 Y153.398 E10.53812
G1 X137.661 Y153.601 E10.58774
G1 X136.578 Y153.734 E10.62403
G1 X135.293 Y153.869 E10.667
G1 X133.988 Y153.973 E10.71055
G1 X132.556 Y154.069 E10.75828
G1 X131.356 Y154.14 E10.79826
G1 X130.749 Y154.168 E10.81847
G1 X130.442 Y154.177 E10.82869
G1 X129.455 Y154.193 E10.86152
G1 X128.748 Y154.194 E10.88504
G1 X106.368 Y154.193 E11.6294
G1 X105.429 Y154.177 E11.66063
G1 X105.024 Y154.162 E11.67411
G1 X103.77 Y154.04 E11.71602
G1 X103.42 Y153.985 E11.7278
G1 X102.518 Y153.803 E11.75841
G1 X101.387 Y153.455 E11.79776
G1 X100.979 Y153.304 E11.81223
G1 X100.196 Y152.978 E11.84044
G1 X99.793 Y152.791 E11.85522
G1 X98.976 Y152.368 E11.88582
G1 X98.453 Y152.047 E11.90623
G1 X98.161 Y151.856 E11.91784
G1 X97.413 Y151.319 E11.94846
G1 X96.95 Y150.933 E11.96851
G1 X96.78 Y150.783 E11.97605
G1 X96.117 Y150.145 E12.00665
G1 X95.586 Y149.543 E12.03335
G1 X95.219 Y149.094 E12.05264
G1 X94.98 Y148.791 E12.06548
G1 X94.732 Y148.464 E12.07913
G1 X94.208 Y147.707 E12.10975
G1 X93.751 Y146.905 E12.14045
G1 X93.605 Y146.621 E12.15107
G1 X93.22 Y145.785 E12.18168
G1 X92.92 Y144.955 E12.21104
G1 X92.753 Y144.424 E12.22955
G1 X92.515 Y143.535 E12.26016
G1 X92.356 Y142.628 E12.29079
G1 X92.267 Y141.446 E12.33021
G1 X92.246 Y140.245 E12.37016
G1 X92.246 Y113.132 E13.27194
G1 X92.256 Y112.44 E13.29496
G1 X92.309 Y111.521 E13.32558
G1 X92.442 Y110.61 E13.3562
G1 X92.654 Y109.714 E13.38683
G1 X92.942 Y108.839 E13.41746
G1 X93.305 Y107.993 E13.44808
G1 X93.74 Y107.182 E13.47869
G1 X94.244 Y106.411 E13.50933
G1 X94.813 Y105.688 E13.53993
G1 X95.442 Y105.016 E13.57054
G1 X96.128 Y104.401 E13.60119
G1 X96.864 Y103.848 E13.63181
G1 X97.542 Y103.421 E13.65846
G1 X99.724 Y102.157 E13.74233
G1 X101.873 Y100.832 E13.8263
G1 X104.004 Y99.433 E13.91108
G1 X106.042 Y98.011 E13.99374
G1 X108.122 Y96.47 E14.07984
G1 X110.086 Y94.928 E14.16289
G1 X112.028 Y93.311 E14.24694
G1 X113.942 Y91.625 E14.33177
G1 X115.778 Y89.914 E14.41524
G1 X117.576 Y88.138 E14.4993
G1 X119.358 Y86.278 E14.58498
G1 X120.082 Y85.491 E14.62054
G1 X120.734 Y84.841 E14.65116
G1 X121.441 Y84.251 E14.68179
G1 X122.195 Y83.723 E14.71241
G1 X122.993 Y83.264 E14.74303
G1 X123.828 Y82.875 E14.77366
G1 X124.693 Y82.56 E14.80428
G1 X125.582 Y82.322 E14.83489
G1 X126.489 Y82.161 E14.86553
G1 X127.708 Y82.07 E14.90619
G1 X128.676 Y82.056 E14.93839
G1 X143.046 Y82.057 E15.41633
G1 X143.744 Y82.067 E15.43955
G0 F6000 X143.75 Y81.667
G1 F1200 X144.686 Y81.721 E15.47074
G1 X145.614 Y81.853 E15.50191
G1 X146.528 Y82.065 E15.53312
G1 X147.42 Y82.354 E15.5643
G1 X148.285 Y82.717 E15.59551
G1 X149.115 Y83.153 E15.62669
G1 X149.906 Y83.658 E15.6579
G1 X150.65 Y84.229 E15.68909
G1 X151.343 Y84.861 E15.72029
G1 X151.98 Y85.549 E15.75147
G1 X152.555 Y86.29 E15.78267
G1 X153.066 Y87.076 E15.81385
G1 X153.508 Y87.904 E15.84507
G1 X153.877 Y88.766 E15.87626
G1 X154.172 Y89.656 E15.90744
G1 X154.39 Y90.568 E15.93863
G1 X154.53 Y91.496 E15.96984
G1 X154.587 Y92.34 E15.99798
G1 X154.601 Y92.97 E16.01894
G1 X154.6 Y126.297 E17.1274
G1 X154.59 Y127.002 E17.15085
G1 X154.564 Y127.687 E17.17365
G1 X154.44 Y129.903 E17.24747
G1 X154.368 Y132.457 E17.33245
G1 X154.361 Y133.902 E17.38051
G1 X154.359 Y140.086 E17.58619
G1 X154.349 Y140.799 E17.60991
G1 X154.296 Y141.736 E17.64112
G1 X154.163 Y142.664 E17.6723
G1 X153.952 Y143.578 E17.7035
G1 X153.663 Y144.47 E17.73469
G1 X153.345 Y145.238 E17.76234
G1 X153.116 Y145.727 E17.7803
G1 X152.952 Y146.06 E17.79264
G1 X152.502 Y146.883 E17.82384
G1 X151.984 Y147.665 E17.85504
G1 X151.401 Y148.399 E17.88621
G1 X150.757 Y149.081 E17.91741
G1 X150.058 Y149.706 E17.9486
G1 X149.478 Y150.151 E17.97291
G1 X148.981 Y150.506 E17.99323
G1 X148.195 Y151.018 E18.02443
G1 X147.368 Y151.461 E18.05563
G1 X146.667 Y151.771 E18.08112
G1 X145.122 Y152.388 E18.13646
G1 X143.839 Y152.81 E18.18138
G1 X142.647 Y153.123 E18.22237
G1 X142.071 Y153.268 E18.24213
G1 X141.595 Y153.377 E18.25837
G1 X141.156 Y153.467 E18.27327
G1 X140.779 Y153.537 E18.28603
G1 X139.998 Y153.669 E18.31237
G1 X139.194 Y153.795 E18.33944
G1 X137.71 Y153.998 E18.38926
G1 X136.621 Y154.131 E18.42574
G1 X135.324 Y154.268 E18.46912
G1 X134.015 Y154.372 E18.5128
G1 X132.58 Y154.469 E18.56063
G1 X131.375 Y154.539 E18.60078
G1 X130.449 Y154.577 E18.63161
G1 X129.456 Y154.593 E18.66464
G1 X128.749 Y154.594 E18.68815
G1 X106.363 Y154.593 E19.43271
G1 X105.414 Y154.576 E19.46428
G1 X105.009 Y154.561 E19.47776
G1 X103.708 Y154.436 E19.52123
G1 X103.358 Y154.381 E19.53302
G1 X102.439 Y154.196 E19.5642
G1 X101.248 Y153.83 E19.60564
G1 X100.84 Y153.679 E19.62011
G1 X100.028 Y153.341 E19.64936
G1 X99.625 Y153.154 E19.66414
G1 X98.792 Y152.723 E19.69533
G1 X98.234 Y152.382 E19.71708
G1 X97.942 Y152.191 E19.72869
G1 X97.179 Y151.644 E19.75991
G1 X96.685 Y151.233 E19.78129
G1 X96.515 Y151.083 E19.78883
G1 X95.839 Y150.433 E19.82002
G1 X95.276 Y149.796 E19.84829
G1 X94.909 Y149.347 E19.86758
G1 X94.662 Y149.033 E19.88087
G1 X94.414 Y148.706 E19.89452
G1 X93.879 Y147.935 E19.92573
G1 X93.395 Y147.088 E19.95818
G1 X93.249 Y146.804 E19.9688
G1 X92.856 Y145.953 E19.99998
G1 X92.539 Y145.075 E20.03102
G1 X92.372 Y144.544 E20.04954
G1 X92.129 Y143.638 E20.08074
G1 X91.964 Y142.715 E20.11192
G1 X91.867 Y141.453 E20.15402
G1 X91.846 Y140.245 E20.1942
G1 X91.846 Y113.126 E21.09619
G1 X91.856 Y112.434 E21.1192
G1 X91.91 Y111.498 E21.15039
G1 X92.043 Y110.569 E21.1816
G1 X92.254 Y109.656 E21.21277
G1 X92.543 Y108.763 E21.24399
G1 X92.907 Y107.899 E21.27517
G1 X93.343 Y107.069 E21.30635
G1 X93.848 Y106.278 E21.33757
G1 X94.419 Y105.534 E21.36876
G1 X95.051 Y104.841 E21.39995
G1 X95.739 Y104.204 E21.43114
G1 X96.48 Y103.629 E21.46233
G1 X97.342 Y103.074 E21.49643
G1 X99.52 Y101.813 E21.58014
G1 X101.666 Y100.489 E21.66401
G1 X103.786 Y99.098 E21.74834
G1 X105.821 Y97.677 E21.83089
G1 X107.86 Y96.167 E21.91528
G1 X109.85 Y94.604 E21.99944
G1 X111.771 Y93.005 E22.08258
G1 X113.651 Y91.349 E22.1659
G1 X115.506 Y89.619 E22.25027
G1 X117.289 Y87.859 E22.3336
G1 X119.082 Y85.987 E22.41981
G1 X119.788 Y85.22 E22.45448
G1 X120.452 Y84.558 E22.48567
G1 X121.17 Y83.954 E22.51688
G1 X121.937 Y83.414 E22.54807
G1 X122.746 Y82.941 E22.57924
G1 X123.594 Y82.539 E22.61046
G1 X124.472 Y82.211 E22.64163
G1 X125.376 Y81.958 E22.67285
G1 X126.297 Y81.784 E22.70403
G1 X127.23 Y81.688 E22.73522
G1 X127.702 Y81.67 E22.75093
G1 X128.676 Y81.656 E22.78333
G1 X143.052 Y81.657 E23.26148
G1 X143.75 Y81.667 E23.2847
G1 F2700 E18.2847
;MESH:Object 3
G0 F6000 X143.181 Y91.991
G0 X143.181 Y93.076
G0 X142.819 Y126.066
G0 X142.583 Y130.602
G0 X142.483 Y130.886
G0 X141.949 Y131.155
G0 X140.888 Y131.444
G0 X138.09 Y131.737
G0 X135.665 Y131.821
G0 X109.801 Y132.163
G0 X109.801 Y134.25
G0 X142.578 Y134.628
G0 X142.588 Y140.411
G0 X142.228 Y140.878
G0 X140.79 Y141.459
G0 X139.116 Y141.881
G0 X136.992 Y142.218
G0 X134.66 Y142.515
G0 X130.612 Y142.79
G0 X105.32 Y142.969
;TYPE:WALL-INNER
G1 F2700 E23.2847
G1 F1200 X105.133 Y142.917 E23.29115
G1 X104.982 Y142.832 E23.29692
G1 X104.642 Y142.703 E23.30901
G1 X104.531 Y142.653 E23.31306
G1 X104.32 Y142.513 E23.32148
G1 X104.246 Y142.452 E23.32467
G1 X104.052 Y142.194 E23.33541
G1 X103.933 Y142.072 E23.34108
G1 X103.755 Y141.828 E23.35112
G1 X103.663 Y141.717 E23.35592
G1 X103.588 Y141.565 E23.36156
G1 X103.583 Y141.439 E23.36575
G1 X103.446 Y141.093 E23.37813
G1 X103.445 Y113.386 E24.29967
G1 X103.445 Y113.187 E24.30628
G1 X103.644 Y113.187 E24.31057
G1 X128.468 Y113.187 E25.13622
G1 X128.468 Y93.256 E25.79912
G1 X143.001 Y93.256 E26.28249
G1 X143.001 Y126.248 E27.37981
G1 X142.777 Y126.248 E27.38726
G1 X142.76 Y126.926 E27.40982
G1 X142.76 Y130.72 E27.53601
G1 X142.667 Y130.759 E27.53936
G1 X142.651 Y130.973 E27.5465
G1 X142.59 Y131.025 E27.54917
G1 X142.325 Y131.202 E27.55977
G1 X142.006 Y131.315 E27.57102
G1 X141.374 Y131.502 E27.59294
G1 X140.914 Y131.613 E27.60868
G1 X139.905 Y131.727 E27.64245
G1 X139.233 Y131.826 E27.66505
G1 X138.13 Y131.918 E27.70186
G1 X137.331 Y131.967 E27.72848
G1 X135.668 Y131.991 E27.7838
G1 X109.629 Y131.991 E28.64986
G1 X109.629 Y134.422 E28.73072
G1 X114.34 Y134.422 E28.88741
G1 X117.609 Y134.446 E28.99614
G1 X142.76 Y134.446 E29.83266
G1 X142.76 Y140.467 E30.03292
G1 X142.508 Y140.831 E30.04765
G1 X142.505 Y140.888 E30.04955
G1 X142.309 Y141.029 E30.05758
G1 X141.973 Y141.158 E30.06955
G1 X141.192 Y141.489 E30.09776
G1 X140.837 Y141.623 E30.11038
G1 X139.697 Y141.9 E30.1494
G1 X139.157 Y142.047 E30.16801
G1 X137.795 Y142.277 E30.21396
G1 X136.995 Y142.399 E30.24087
G1 X134.677 Y142.685 E30.31855
G1 X132.88 Y142.826 E30.3785
G1 X132.081 Y142.877 E30.40513
G1 X130.174 Y142.992 E30.46868
G1 X128.732 Y142.994 E30.51664
G1 X105.829 Y142.994 E31.27839
G1 X105.32 Y142.969 E31.29534
G0 F6000 X105.261 Y143.368
;TYPE:WALL-OUTER
G1 F1200 X104.978 Y143.29 E31.30511
G1 X104.811 Y143.195 E31.3115
G1 X104.495 Y143.075 E31.32274
G1 X104.338 Y143.005 E31.32846
G1 X104.08 Y142.834 E31.33875
G1 X103.953 Y142.728 E31.34425
G1 X103.747 Y142.454 E31.35566
G1 X103.625 Y142.328 E31.36149
G1 X103.439 Y142.074 E31.37196
G1 X103.324 Y141.935 E31.37796
G1 X103.191 Y141.666 E31.38794
G1 X103.186 Y141.522 E31.39273
G1 X103.046 Y141.169 E31.40536
G1 X103.045 Y112.787 E32.34935
G1 X128.068 Y112.787 E33.18162
G1 X128.068 Y92.856 E33.84453
G1 X143.401 Y92.856 E34.35451
G1 X143.401 Y126.648 E35.47843
G1 X143.167 Y126.648 E35.48622
G1 X143.16 Y126.931 E35.49563
G1 X143.16 Y130.986 E35.6305
G1 X143.048 Y131.033 E35.63454
G1 X143.038 Y131.171 E35.63914
G1 X142.826 Y131.348 E35.64833
G1 X142.506 Y131.562 E35.66113
G1 X142.12 Y131.699 E35.67476
G1 X141.485 Y131.887 E35.69678
G1 X140.989 Y132.007 E35.71376
G1 X139.957 Y132.124 E35.7483
G1 X139.277 Y132.224 E35.77116
G1 X138.163 Y132.317 E35.80834
G1 X137.339 Y132.367 E35.8358
G1 X135.674 Y132.391 E35.89118
G1 X110.029 Y132.391 E36.74414
G1 X110.029 Y134.022 E36.79838
