;FLAVOR:Marlin
;TIME:12160
;Filament used: 7.45751m
;Layer height: 0.2
;MINX:46.647
;MINY:47.474
;MINZ:0.2
;MAXX:186.184
;MAXY:188.219
;MAXZ:20
;Generated with Cura_SteamEngine 4.6.1
M140 S50
M105
M190 S50
M104 S200
M105
M109 S200
M82 ;absolute extrusion mode
; Ender 3 Custom Start G-code
G92 E0 ; Reset Extruder
G28 ; Home all axes
G1 Z2.0 F3000 ; Move Z Axis up little to prevent scratching of Heat Bed
G1 X0.1 Y20 Z0.3 F5000.0 ; Move to start position
G1 X0.1 Y200.0 Z0.3 F1500.0 E15 ; Draw the first line
G1 X0.4 Y200.0 Z0.3 F5000.0 ; Move to side a little
G1 X0.4 Y20 Z0.3 F1500.0 E30 ; Draw the second line
G92 E0 ; Reset Extruder
G1 Z2.0 F3000 ; Move Z Axis up little to prevent scratching of Heat Bed
G1 X5 Y20 Z0.3 F5000.0 ; Move over to prevent blob squish
G92 E0
G92 E0
G1 F2700 E-5
;LAYER_COUNT:100
;LAYER:0
M107
G0 F6000 X101.901 Y51.623 Z0.2
;TYPE:SKIRT
G1 F2700 E0
G1 F1200 X102.382 Y51.156 E0.0223
G1 X103.057 Y50.556 E0.05234
G1 X103.783 Y50.018 E0.08239
G1 X104.553 Y49.547 E0.11241
G1 X105.362 Y49.145 E0.14246
G1 X106.203 Y48.817 E0.17248
G1 X107.07 Y48.564 E0.20252
G1 X107.956 Y48.39 E0.23255
G1 X108.854 Y48.294 E0.26259
G1 X109.757 Y48.278 E0.29263
G1 X110.658 Y48.341 E0.32267
G1 X111.55 Y48.485 E0.35272
G1 X112.733 Y48.804 E0.39347
G1 X113.367 Y49.02 E0.41575
G1 X115.066 Y49.633 E0.47583
G1 X117.468 Y50.422 E0.55992
G1 X119.901 Y51.146 E0.64434
G1 X122.374 Y51.807 E0.72948
G1 X124.829 Y52.389 E0.8134
G1 X127.352 Y52.912 E0.8991
G1 X129.816 Y53.35 E0.98234
G1 X132.961 Y53.808 E1.08804
G1 X134.287 Y53.978 E1.13251
G1 X135.176 Y54.133 E1.16252
G1 X136.049 Y54.365 E1.19257
G1 X136.898 Y54.674 E1.22262
G1 X137.716 Y55.057 E1.25266
G1 X138.497 Y55.51 E1.28269
G1 X139.234 Y56.031 E1.31271
G1 X139.923 Y56.615 E1.34275
G1 X140.557 Y57.258 E1.37278
G1 X141.133 Y57.954 E1.40283
G1 X141.798 Y58.955 E1.4428
G1 X143.161 Y61.291 E1.53275
G1 X144.525 Y63.502 E1.61916
G1 X145.904 Y65.601 E1.70269
G1 X147.368 Y67.697 E1.78773
G1 X148.87 Y69.725 E1.87166
G1 X150.453 Y71.74 E1.95689
G1 X152.054 Y73.662 E2.04009
G1 X153.745 Y75.58 E2.12514
G1 X155.49 Y77.451 E2.21023
G1 X157.254 Y79.237 E2.29372
G1 X159.107 Y81.011 E2.37904
G1 X160.993 Y82.716 E2.46361
G1 X162.908 Y84.351 E2.54736
G1 X164.911 Y85.968 E2.63298
G1 X166.905 Y87.483 E2.71627
G1 X168.985 Y88.975 E2.80141
G1 X171.077 Y90.387 E2.88535
G1 X173.241 Y91.759 E2.97057
G1 X175.385 Y93.037 E3.05359
G1 X177.651 Y94.3 E3.13987
G1 X180.156 Y95.614 E3.23396
G1 X180.923 Y96.089 E3.26396
G1 X181.646 Y96.631 E3.29402
G1 X182.318 Y97.234 E3.32405
G1 X182.934 Y97.894 E3.35408
G1 X183.489 Y98.606 E3.3841
G1 X183.979 Y99.365 E3.41415
G1 X184.4 Y100.164 E3.44419
G1 X184.749 Y100.997 E3.47423
G1 X185.023 Y101.858 E3.50428
G1 X185.219 Y102.739 E3.5343
G1 X185.337 Y103.635 E3.56436
G1 X185.371 Y104.232 E3.58424
G1 X185.384 Y104.838 E3.6044
G1 X185.384 Y123.44 E4.22311
G1 X185.374 Y124.144 E4.24653
G1 X185.321 Y125.045 E4.27655
G1 X185.189 Y125.939 E4.3066
G1 X184.978 Y126.817 E4.33664
G1 X184.69 Y127.673 E4.36668
G1 X184.328 Y128.5 E4.3967
G1 X183.894 Y129.292 E4.42674
G1 X183.392 Y130.043 E4.45678
G1 X182.742 Y130.839 E4.49097
G1 X182.601 Y130.995 E4.49796
G1 X182.144 Y131.473 E4.51995
G1 X173.771 Y139.845 E4.91377
G1 X173.29 Y140.312 E4.93607
G1 X172.661 Y140.875 E4.96415
G1 X171.988 Y141.428 E4.99312
G1 X170.043 Y143.069 E5.07776
G1 X168.14 Y144.769 E5.16263
G1 X166.303 Y146.505 E5.24669
G1 X164.499 Y148.312 E5.33162
G1 X162.754 Y150.158 E5.41611
G1 X161.064 Y152.053 E5.50056
G1 X159.442 Y153.978 E5.58428
G1 X157.848 Y155.981 E5.66942
G1 X156.332 Y158.003 E5.75348
G1 X154.855 Y160.092 E5.83857
G1 X153.462 Y162.184 E5.92217
G1 X152.1 Y164.364 E6.00766
G1 X150.827 Y166.535 E6.09137
G1 X149.606 Y168.757 E6.17569
G1 X148.415 Y171.079 E6.26249
G1 X147.71 Y172.54 E6.31644
G1 X147.282 Y173.335 E6.34647
G1 X146.642 Y174.282 E6.38449
G1 X146.445 Y174.541 E6.39531
G1 X145.618 Y175.499 E6.43741
G1 X145.437 Y175.684 E6.44602
G1 X137.088 Y184.033 E6.83873
G1 X136.605 Y184.504 E6.86117
G1 X135.931 Y185.105 E6.8912
G1 X135.207 Y185.644 E6.92122
G1 X134.438 Y186.117 E6.95125
G1 X133.63 Y186.521 E6.9813
G1 X132.789 Y186.851 E7.01134
G1 X131.923 Y187.105 E7.04136
G1 X131.037 Y187.282 E7.07141
G1 X129.808 Y187.396 E7.11246
G1 X129.241 Y187.414 E7.13133
G1 X128.917 Y187.419 E7.14211
G1 X110.54 Y187.418 E7.75333
G1 X109.842 Y187.408 E7.77655
G1 X108.94 Y187.355 E7.8066
G1 X108.047 Y187.223 E7.83662
G1 X107.169 Y187.012 E7.86666
G1 X106.313 Y186.724 E7.8967
G1 X105.486 Y186.362 E7.92672
G1 X104.694 Y185.927 E7.95678
G1 X103.943 Y185.425 E7.98682
G1 X103.24 Y184.858 E8.01686
G1 X102.59 Y184.231 E8.0469
G1 X101.998 Y183.549 E8.07694
G1 X101.468 Y182.818 E8.10697
G1 X101.158 Y182.315 E8.12662
G1 X99.715 Y179.821 E8.22245
G1 X98.372 Y177.642 E8.30759
G1 X96.982 Y175.524 E8.39185
G1 X95.534 Y173.451 E8.47595
G1 X94.012 Y171.397 E8.56098
G1 X92.45 Y169.409 E8.64507
G1 X90.832 Y167.464 E8.72922
G1 X89.144 Y165.549 E8.81412
G1 X87.387 Y163.665 E8.8998
G1 X85.647 Y161.904 E8.98214
G1 X83.789 Y160.124 E9.06772
G1 X81.919 Y158.433 E9.15158
G1 X79.939 Y156.741 E9.2382
G1 X78.009 Y155.187 E9.32062
G1 X75.996 Y153.655 E9.40476
G1 X73.903 Y152.154 E9.49042
G1 X71.809 Y150.74 E9.57446
G1 X69.654 Y149.373 E9.65934
G1 X67.503 Y148.091 E9.74262
G1 X65.263 Y146.841 E9.82794
G1 X62.988 Y145.655 E9.91327
G1 X60.761 Y144.573 E9.99562
G1 X59.719 Y144.101 E10.03367
G1 X58.948 Y143.74 E10.06198
G1 X58.148 Y143.321 E10.09202
G1 X57.388 Y142.833 E10.12206
G1 X56.674 Y142.28 E10.1521
G1 X56.012 Y141.665 E10.18215
G1 X55.407 Y140.995 E10.21218
G1 X54.863 Y140.274 E10.24222
G1 X54.386 Y139.507 E10.27226
G1 X53.978 Y138.702 E10.30228
G1 X53.643 Y137.863 E10.33232
G1 X53.383 Y136.998 E10.36237
G1 X53.157 Y135.806 E10.40272
G1 X52.808 Y133.102 E10.4934
G1 X52.406 Y130.556 E10.57913
G1 X51.94 Y128.073 E10.66316
G1 X51.409 Y125.622 E10.74657
G1 X50.8 Y123.15 E10.83124
G1 X50.116 Y120.677 E10.91659
G1 X49.366 Y118.24 E11.00139
G1 X48.551 Y115.831 E11.08598
G1 X48.152 Y114.741 E11.12458
G1 X48.016 Y114.351 E11.13832
G1 X47.756 Y113.485 E11.16839
G1 X47.575 Y112.601 E11.19841
G1 X47.472 Y111.704 E11.22844
G1 X47.449 Y110.801 E11.25848
G1 X47.506 Y109.9 E11.28851
G1 X47.642 Y109.007 E11.31855
G1 X47.857 Y108.13 E11.34858
G1 X48.148 Y107.275 E11.37862
G1 X48.514 Y106.449 E11.40867
G1 X48.952 Y105.659 E11.43872
G1 X49.458 Y104.911 E11.46875
G1 X50.327 Y103.888 E11.5134
G1 X50.963 Y103.235 E11.54371
G1 X52.465 Y101.735 E11.61432
G1 X53.262 Y100.963 E11.65122
G1 X54.788 Y99.523 E11.72101
G1 X56.603 Y97.71 E11.80633
G1 X57.6 Y96.67 E11.85425
G1 X58.674 Y95.531 E11.90632
G1 X58.882 Y95.318 E11.91622
G1 X60.649 Y93.551 E11.99933
G1 X61.129 Y93.084 E12.02161
G1 X61.804 Y92.484 E12.05165
G1 X62.448 Y92 E12.07844
G1 X62.8 Y91.759 E12.09263
G1 X64.657 Y90.522 E12.16684
G1 X66.73 Y89.055 E12.25131
G1 X68.749 Y87.539 E12.33528
G1 X70.733 Y85.959 E12.41964
G1 X72.696 Y84.302 E12.50508
G1 X74.585 Y82.615 E12.58932
G1 X76.42 Y80.881 E12.67329
G1 X78.224 Y79.076 E12.75817
G1 X79.968 Y77.231 E12.84261
G1 X81.658 Y75.336 E12.92706
G1 X83.288 Y73.402 E13.01118
G1 X84.855 Y71.433 E13.09488
G1 X86.397 Y69.377 E13.18036
G1 X87.88 Y67.28 E13.26578
G1 X89.269 Y65.194 E13.34914
G1 X89.949 Y64.108 E13.39176
G1 X90.319 Y63.537 E13.41439
G1 X90.843 Y62.802 E13.44441
G1 X91.541 Y61.999 E13.4798
G1 X92.176 Y61.344 E13.51014
G1 X93.689 Y59.835 E13.58121
G1 X94.48 Y59.067 E13.61788
G1 X96.103 Y57.532 E13.69218
G1 X97.86 Y55.775 E13.77482
G1 X98.835 Y54.756 E13.82173
G1 X100.088 Y53.435 E13.88229
G1 X101.901 Y51.623 E13.96754
G0 F6000 X111.437 Y48.055
G1 F1200 X112.334 Y48.264 E13.99818
G1 X112.861 Y48.425 E14.01651
G1 X113.503 Y48.644 E14.03907
G1 X115.19 Y49.252 E14.09871
G1 X117.601 Y50.045 E14.18313
G1 X120.013 Y50.763 E14.26683
G1 X122.456 Y51.415 E14.35093
G1 X124.905 Y51.995 E14.43463
G1 X127.431 Y52.52 E14.52044
G1 X129.878 Y52.954 E14.6031
G1 X133.02 Y53.412 E14.70871
G1 X134.337 Y53.581 E14.75287
G1 X135.245 Y53.738 E14.78352
G1 X136.135 Y53.973 E14.81414
G1 X137.001 Y54.284 E14.84474
G1 X137.837 Y54.669 E14.87535
G1 X138.637 Y55.126 E14.906
G1 X139.394 Y55.65 E14.93662
G1 X140.103 Y56.237 E14.96723
G1 X140.758 Y56.884 E14.99786
G1 X141.354 Y57.586 E15.02848
G1 X141.887 Y58.336 E15.05909
G1 X142.144 Y58.753 E15.07538
G1 X143.525 Y61.121 E15.16655
G1 X144.856 Y63.277 E15.25083
G1 X146.233 Y65.374 E15.33427
G1 X147.685 Y67.452 E15.41858
G1 X149.207 Y69.508 E15.50366
G1 X150.758 Y71.483 E15.58719
G1 X152.36 Y73.405 E15.67041
G1 X154.054 Y75.327 E15.75562
G1 X155.767 Y77.163 E15.83913
G1 X157.532 Y78.95 E15.92267
G1 X159.387 Y80.726 E16.00809
G1 X161.238 Y82.4 E16.0911
G1 X163.173 Y84.052 E16.17572
G1 X165.138 Y85.638 E16.25971
G1 X167.157 Y87.172 E16.34404
G1 X169.196 Y88.634 E16.42749
G1 X171.294 Y90.05 E16.51168
G1 X173.456 Y91.421 E16.59683
G1 X175.62 Y92.711 E16.68062
G1 X177.808 Y93.93 E16.76393
G1 X180.351 Y95.265 E16.85945
G1 X181.134 Y95.749 E16.89007
G1 X181.872 Y96.299 E16.92068
G1 X182.56 Y96.911 E16.95131
G1 X183.192 Y97.58 E16.98192
G1 X183.763 Y98.302 E17.01253
G1 X184.27 Y99.071 E17.04317
G1 X184.708 Y99.881 E17.0738
G1 X185.074 Y100.725 E17.10439
G1 X185.366 Y101.598 E17.13501
G1 X185.581 Y102.494 E17.16566
G1 X185.717 Y103.404 E17.19626
G1 X185.771 Y104.221 E17.22349
G1 X185.784 Y104.838 E17.24402
G1 X185.784 Y123.446 E17.86292
G1 X185.774 Y124.15 E17.88634
G1 X185.721 Y125.069 E17.91696
G1 X185.588 Y125.98 E17.94758
G1 X185.377 Y126.876 E17.9782
G1 X185.089 Y127.75 E18.0088
G1 X184.726 Y128.596 E18.03942
G1 X184.291 Y129.408 E18.07006
G1 X183.787 Y130.178 E18.10067
G1 X183.039 Y131.107 E18.14034
G1 X182.898 Y131.263 E18.14733
G1 X182.611 Y131.568 E18.16126
G1 X182.43 Y131.753 E18.16987
G1 X174.05 Y140.132 E18.56402
G1 X173.569 Y140.599 E18.58631
G1 X172.915 Y141.184 E18.6155
G1 X172.269 Y141.715 E18.64331
G1 X170.301 Y143.375 E18.72894
G1 X168.418 Y145.057 E18.81292
G1 X166.578 Y146.796 E18.89713
G1 X164.79 Y148.586 E18.98128
G1 X163.06 Y150.417 E19.06506
G1 X161.352 Y152.332 E19.1504
G1 X159.745 Y154.239 E19.23335
G1 X158.166 Y156.225 E19.31774
G1 X156.663 Y158.228 E19.40103
G1 X155.182 Y160.323 E19.48636
G1 X153.791 Y162.412 E19.56983
G1 X152.441 Y164.572 E19.65455
G1 X151.173 Y166.736 E19.73797
G1 X149.946 Y168.967 E19.82266
G1 X148.806 Y171.19 E19.90575
G1 X148.071 Y172.714 E19.96203
G1 X147.635 Y173.525 E19.99265
G1 X146.961 Y174.524 E20.03273
G1 X146.764 Y174.783 E20.04356
G1 X145.904 Y175.779 E20.08733
G1 X145.723 Y175.964 E20.09593
G1 X137.367 Y184.319 E20.48895
G1 X136.884 Y184.79 E20.51139
G1 X136.198 Y185.404 E20.54201
G1 X135.461 Y185.955 E20.57262
G1 X134.679 Y186.441 E20.60324
G1 X133.857 Y186.857 E20.63388
G1 X133.003 Y187.2 E20.66449
G1 X132.122 Y187.467 E20.69511
G1 X131.221 Y187.658 E20.72574
G1 X130.308 Y187.769 E20.75633
G1 X129.82 Y187.796 E20.77259
G1 X129.253 Y187.814 E20.79146
G1 X128.917 Y187.819 E20.80263
G1 X110.534 Y187.818 E21.41405
G1 X109.836 Y187.808 E21.43727
G1 X108.917 Y187.755 E21.46789
G1 X108.006 Y187.622 E21.49851
G1 X107.11 Y187.411 E21.52913
G1 X106.236 Y187.123 E21.55973
G1 X105.389 Y186.76 E21.59038
G1 X104.578 Y186.325 E21.62099
G1 X103.808 Y185.821 E21.6516
G1 X103.084 Y185.252 E21.68223
G1 X102.412 Y184.622 E21.71286
G1 X101.797 Y183.937 E21.74348
G1 X101.244 Y183.201 E21.7741
G1 X100.812 Y182.516 E21.80104
G1 X99.363 Y180.01 E21.89732
G1 X98.04 Y177.867 E21.98108
G1 X96.652 Y175.751 E22.06525
G1 X95.2 Y173.672 E22.14959
G1 X93.709 Y171.659 E22.23291
G1 X92.129 Y169.649 E22.31795
G1 X90.522 Y167.718 E22.4015
G1 X88.835 Y165.803 E22.48639
G1 X87.127 Y163.972 E22.56967
G1 X85.369 Y162.191 E22.6529
G1 X83.49 Y160.393 E22.7394
G1 X81.674 Y158.751 E22.82083
G1 X79.694 Y157.058 E22.90748
G1 X77.761 Y155.501 E22.99003
G1 X75.743 Y153.966 E23.07436
G1 X73.695 Y152.497 E23.15819
G1 X71.592 Y151.077 E23.24259
G1 X69.44 Y149.712 E23.32735
G1 X67.282 Y148.426 E23.4109
G1 X65.089 Y147.202 E23.49443
G1 X62.807 Y146.012 E23.58003
G1 X60.558 Y144.919 E23.6632
G1 X59.549 Y144.463 E23.70003
G1 X58.778 Y144.102 E23.72834
G1 X57.962 Y143.676 E23.75896
G1 X57.186 Y143.18 E23.78959
G1 X56.456 Y142.619 E23.82021
G1 X55.777 Y141.997 E23.85084
G1 X55.155 Y141.318 E23.88147
G1 X54.594 Y140.588 E23.91209
G1 X54.099 Y139.812 E23.9427
G1 X53.673 Y138.996 E23.97332
G1 X53.319 Y138.146 E24.00394
G1 X53.04 Y137.269 E24.03455
G1 X52.839 Y136.37 E24.06519
G1 X52.76 Y135.857 E24.08245
G1 X52.411 Y133.149 E24.17327
G1 X52.01 Y130.615 E24.2586
G1 X51.551 Y128.166 E24.34147
G1 X51.021 Y125.723 E24.42461
G1 X50.406 Y123.223 E24.51024
G1 X49.732 Y120.786 E24.59434
G1 X48.992 Y118.381 E24.67803
G1 X48.18 Y115.983 E24.76224
G1 X47.774 Y114.872 E24.80158
G1 X47.638 Y114.482 E24.81532
G1 X47.373 Y113.601 E24.84592
G1 X47.185 Y112.699 E24.87656
G1 X47.077 Y111.785 E24.90717
G1 X47.048 Y110.865 E24.93779
G1 X47.099 Y109.946 E24.9684
G1 X47.229 Y109.034 E24.99904
G1 X47.439 Y108.138 E25.02965
G1 X47.725 Y107.263 E25.06027
G1 X48.086 Y106.416 E25.09089
G1 X48.519 Y105.603 E25.12153
G1 X49.021 Y104.832 E25.15213
G1 X49.588 Y104.106 E25.18277
G1 X50.04 Y103.61 E25.20509
G1 X50.68 Y102.952 E25.23562
G1 X52.187 Y101.448 E25.30643
G1 X52.987 Y100.672 E25.3435
G1 X54.514 Y99.231 E25.41333
G1 X56.314 Y97.433 E25.49795
G1 X57.311 Y96.393 E25.54587
G1 X58.599 Y95.035 E25.60812
G1 X60.37 Y93.264 E25.69142
G1 X60.85 Y92.797 E25.7137
G1 X61.537 Y92.185 E25.7443
G1 X62.221 Y91.671 E25.77276
G1 X62.578 Y91.426 E25.78716
G1 X64.426 Y90.195 E25.86101
G1 X66.503 Y88.725 E25.94564
G1 X68.487 Y87.235 E26.02817
G1 X70.488 Y85.642 E26.11324
G1 X72.438 Y83.997 E26.19809
G1 X74.303 Y82.331 E26.28126
G1 X76.163 Y80.573 E26.36639
G1 X77.916 Y78.819 E26.44887
G1 X79.662 Y76.972 E26.5334
G1 X81.37 Y75.057 E26.61875
G1 X82.985 Y73.14 E26.70212
G1 X84.538 Y71.189 E26.78506
G1 X86.084 Y69.129 E26.87072
G1 X87.537 Y67.074 E26.95443
G1 X88.94 Y64.966 E27.03865
G1 X89.613 Y63.891 E27.08084
G1 X89.983 Y63.32 E27.10347
G1 X90.517 Y62.57 E27.13409
G1 X91.253 Y61.721 E27.17146
G1 X91.893 Y61.061 E27.20204
G1 X93.41 Y59.548 E27.2733
G1 X94.205 Y58.777 E27.31013
G1 X95.81 Y57.259 E27.38361
G1 X97.593 Y55.476 E27.46748
G1 X98.546 Y54.48 E27.51332
G1 X99.805 Y53.152 E27.57419
G1 X101.622 Y51.336 E27.65963
G1 X102.103 Y50.869 E27.68193
G1 X102.791 Y50.257 E27.71256
G1 X103.529 Y49.707 E27.74317
G1 X104.312 Y49.223 E27.77378
G1 X105.135 Y48.809 E27.80443
G1 X105.99 Y48.468 E27.83504
G1 X106.871 Y48.202 E27.86565
G1 X107.772 Y48.014 E27.89626
G1 X108.687 Y47.904 E27.92692
G1 X109.607 Y47.875 E27.95753
G1 X110.526 Y47.925 E27.98814
G1 X111.437 Y48.055 E28.01875
G0 F6000 X101.344 Y51.049
G1 F1200 X101.825 Y50.582 E28.04105
G1 X102.525 Y49.958 E28.07224
G1 X103.275 Y49.396 E28.10341
G1 X104.071 Y48.9 E28.1346
G1 X104.907 Y48.473 E28.16582
G1 X105.775 Y48.119 E28.197
G1 X106.671 Y47.841 E28.2282
G1 X107.587 Y47.639 E28.2594
G1 X108.517 Y47.517 E28.2906
G1 X109.453 Y47.474 E28.32176
G1 X110.391 Y47.511 E28.35299
G1 X111.321 Y47.628 E28.38416
G1 X112.238 Y47.824 E28.41535
G1 X112.988 Y48.046 E28.44137
G1 X113.639 Y48.267 E28.46423
G1 X115.345 Y48.882 E28.52455
G1 X117.703 Y49.657 E28.6071
G1 X120.116 Y50.375 E28.69084
G1 X122.588 Y51.035 E28.77594
G1 X125 Y51.607 E28.85838
G1 X127.484 Y52.123 E28.94277
G1 X129.94 Y52.559 E29.02573
G1 X133.13 Y53.024 E29.13295
G1 X134.388 Y53.185 E29.17513
G1 X135.313 Y53.343 E29.20635
G1 X136.22 Y53.581 E29.23753
G1 X137.104 Y53.894 E29.26872
G1 X137.958 Y54.282 E29.29992
G1 X138.776 Y54.741 E29.33112
G1 X139.552 Y55.268 E29.36232
G1 X140.28 Y55.859 E29.39351
G1 X140.955 Y56.51 E29.4247
G1 X141.572 Y57.216 E29.45588
G1 X142.127 Y57.973 E29.4871
G1 X142.489 Y58.552 E29.50981
G1 X143.843 Y60.873 E29.59919
G1 X145.188 Y63.053 E29.68438
G1 X146.579 Y65.171 E29.76866
G1 X148.018 Y67.231 E29.85224
G1 X149.511 Y69.246 E29.93565
G1 X151.065 Y71.226 E30.01937
G1 X152.669 Y73.151 E30.10271
G1 X154.346 Y75.053 E30.18704
G1 X156.062 Y76.892 E30.2707
G1 X157.81 Y78.663 E30.35347
G1 X159.65 Y80.423 E30.43815
G1 X161.517 Y82.112 E30.52189
G1 X163.425 Y83.74 E30.60531
G1 X165.403 Y85.337 E30.68987
G1 X167.387 Y86.844 E30.77273
G1 X169.431 Y88.31 E30.85639
