;FLAVOR:Marlin
;TIME:3344
;Filament used: 1.6581m
;Layer height: 0.2
;MINX:89.571
;MINY:99.961
;MINZ:0.2
;MAXX:140.43
;MAXY:146.397
;MAXZ:21.6
;Generated with Cura_SteamEngine 4.6.1
M140 S55
M105
M190 S55
M104 S210
M105
M109 S210
M82 ;absolute extrusion mode
; Ender 3 Custom Start G-code
G92 E0 ; Reset Extruder
G28 ; Home all axes
G1 Z2.0 F3000 ; Move Z Axis up little to prevent scratching of Heat Bed
G1 X0.1 Y20 Z0.3 F5000.0 ; Move to start position
G1 X0.1 Y200.0 Z0.3 F1500.0 E15 ; Draw the first line
G1 X0.4 Y200.0 Z0.3 F5000.0 ; Move to side a little
G1 X0.4 Y20 Z0.3 F1500.0 E30 ; Draw the second line
G92 E0 ; Reset Extruder
G1 Z2.0 F3000 ; Move Z Axis up little to prevent scratching of Heat Bed
G1 X5 Y20 Z0.3 F5000.0 ; Move over to prevent blob squish
G92 E0
G92 E0
G1 F2700 E-5
;LAYER_COUNT:107
;LAYER:0
M107
G1 F300 Z0.4
G0 F6000 X129.566 Y100.772 Z0.4
;TYPE:SKIRT
G1 F300 Z0.2
G1 F2700 E0
G1 F1200 X130.468 Y100.825 E0.03005
G1 X131.361 Y100.957 E0.06008
G1 X132.239 Y101.168 E0.09011
G1 X133.095 Y101.456 E0.12015
G1 X133.922 Y101.818 E0.15018
G1 X134.714 Y102.253 E0.18023
G1 X135.465 Y102.755 E0.21027
G1 X136.168 Y103.322 E0.24031
G1 X136.818 Y103.949 E0.27035
G1 X137.41 Y104.631 E0.30039
G1 X137.94 Y105.362 E0.33042
G1 X138.402 Y106.138 E0.36046
G1 X138.795 Y106.951 E0.39049
G1 X139.113 Y107.796 E0.42052
G1 X139.356 Y108.666 E0.45056
G1 X139.521 Y109.554 E0.4806
G1 X139.616 Y110.684 E0.51832
G1 X139.629 Y111.275 E0.53798
G1 X139.63 Y111.925 E0.5596
G1 X139.627 Y114.396 E0.64179
G1 X139.618 Y115.087 E0.66477
G1 X139.594 Y115.667 E0.68408
G1 X139.527 Y116.624 E0.71599
G1 X139.381 Y119.233 E0.8029
G1 X139.311 Y121.765 E0.88715
G1 X139.313 Y124.299 E0.97143
G1 X139.388 Y126.877 E1.05721
G1 X139.531 Y129.398 E1.14119
G1 X139.577 Y129.98 E1.16061
G1 X139.599 Y130.36 E1.17327
G1 X139.62 Y130.874 E1.19038
G1 X139.629 Y131.293 E1.20432
G1 X139.627 Y134.396 E1.30752
G1 X139.618 Y135.088 E1.33054
G1 X139.566 Y135.989 E1.36056
G1 X139.435 Y136.883 E1.39061
G1 X139.292 Y137.523 E1.41242
G1 X139.043 Y138.39 E1.44243
G1 X138.717 Y139.233 E1.47249
G1 X138.318 Y140.043 E1.50252
G1 X137.849 Y140.815 E1.53256
G1 X137.106 Y141.792 E1.57339
G1 X136.97 Y141.95 E1.58032
G1 X136.351 Y142.608 E1.61037
G1 X135.676 Y143.208 E1.64041
G1 X134.951 Y143.747 E1.67045
G1 X134.181 Y144.219 E1.70049
G1 X133.162 Y144.711 E1.73813
G1 X132.994 Y144.781 E1.74418
G1 X132.146 Y145.091 E1.77421
G1 X131.274 Y145.325 E1.80424
G1 X130.384 Y145.481 E1.83429
G1 X129.294 Y145.564 E1.87065
G1 X128.138 Y145.587 E1.90911
G1 X124.66 Y145.596 E2.02479
G1 X103.477 Y145.597 E2.72934
G1 X101.492 Y145.586 E2.79536
G1 X100.77 Y145.573 E2.81938
G1 X99.869 Y145.517 E2.8494
G1 X98.976 Y145.381 E2.87945
G1 X98.099 Y145.167 E2.90947
G1 X97.083 Y144.812 E2.94527
G1 X96.888 Y144.732 E2.95228
G1 X96.068 Y144.352 E2.98234
G1 X95.285 Y143.902 E3.01237
G1 X94.545 Y143.384 E3.04242
G1 X93.854 Y142.803 E3.07244
G1 X93.172 Y142.113 E3.10471
G1 X93.039 Y141.965 E3.11133
G1 X92.466 Y141.267 E3.14137
G1 X91.957 Y140.521 E3.1714
G1 X91.515 Y139.733 E3.20145
G1 X91.145 Y138.909 E3.2315
G1 X90.85 Y138.056 E3.26152
G1 X90.631 Y137.18 E3.29155
G1 X90.49 Y136.288 E3.32159
G1 X90.436 Y135.589 E3.3449
G1 X90.381 Y134.32 E3.38715
G1 X90.371 Y133.878 E3.40186
G1 X90.372 Y131.515 E3.48045
G1 X90.382 Y130.816 E3.5037
G1 X90.406 Y130.244 E3.52274
G1 X90.473 Y129.294 E3.55442
G1 X90.617 Y126.772 E3.63844
G1 X90.689 Y124.213 E3.72358
G1 X90.689 Y121.679 E3.80786
G1 X90.617 Y119.137 E3.89244
G1 X90.471 Y116.545 E3.97879
G1 X90.432 Y116.049 E3.99534
G1 X90.402 Y115.47 E4.01462
G1 X90.371 Y113.923 E4.06609
G1 X90.372 Y111.482 E4.14727
G1 X90.382 Y110.817 E4.1694
G1 X90.436 Y109.915 E4.19945
G1 X90.569 Y109.022 E4.22948
G1 X90.78 Y108.144 E4.25951
G1 X91.069 Y107.288 E4.28956
G1 X91.432 Y106.461 E4.3196
G1 X91.866 Y105.67 E4.34961
G1 X92.369 Y104.919 E4.37967
G1 X92.937 Y104.217 E4.40971
G1 X93.564 Y103.567 E4.43975
G1 X94.246 Y102.975 E4.46978
G1 X94.978 Y102.446 E4.49982
G1 X95.754 Y101.984 E4.52986
G1 X96.568 Y101.593 E4.55989
G1 X97.413 Y101.274 E4.58993
G1 X98.283 Y101.032 E4.61997
G1 X99.171 Y100.868 E4.65
G1 X100.294 Y100.774 E4.68749
G1 X100.901 Y100.761 E4.70768
G1 X128.868 Y100.762 E5.63787
G1 X129.566 Y100.772 E5.66108
G0 F6000 X129.572 Y100.372
G1 F1200 X130.491 Y100.425 E5.6917
G1 X131.402 Y100.558 E5.72232
G1 X132.298 Y100.769 E5.75294
G1 X133.172 Y101.057 E5.78354
G1 X134.019 Y101.42 E5.81419
G1 X134.83 Y101.855 E5.8448
G1 X135.6 Y102.359 E5.87541
G1 X136.324 Y102.928 E5.90604
G1 X136.996 Y103.558 E5.93668
G1 X137.611 Y104.243 E5.96729
G1 X138.164 Y104.979 E5.99791
G1 X138.651 Y105.76 E6.02853
G1 X139.068 Y106.581 E6.05915
G1 X139.413 Y107.435 E6.08979
G1 X139.682 Y108.315 E6.12039
G1 X139.874 Y109.216 E6.15103
G1 X139.987 Y110.129 E6.18163
G1 X140.016 Y110.673 E6.19975
G1 X140.029 Y111.275 E6.21978
G1 X140.03 Y111.925 E6.2414
G1 X140.027 Y114.401 E6.32375
G1 X140.018 Y115.092 E6.34673
G1 X139.993 Y115.695 E6.36681
G1 X139.924 Y116.676 E6.39952
G1 X139.781 Y119.231 E6.48463
G1 X139.711 Y121.776 E6.56931
G1 X139.713 Y124.288 E6.65286
G1 X139.787 Y126.842 E6.73784
G1 X139.932 Y129.389 E6.82269
G1 X139.976 Y129.948 E6.84134
G1 X139.999 Y130.343 E6.8545
G1 X140.02 Y130.857 E6.87161
G1 X140.029 Y131.294 E6.88615
G1 X140.027 Y134.401 E6.98949
G1 X140.018 Y135.093 E7.01251
G1 X139.966 Y136.012 E7.04312
G1 X139.835 Y136.923 E7.07373
G1 X139.681 Y137.616 E7.09734
G1 X139.427 Y138.501 E7.12797
G1 X139.098 Y139.361 E7.15859
G1 X138.695 Y140.188 E7.18919
G1 X138.221 Y140.978 E7.21983
G1 X137.409 Y142.053 E7.26464
G1 X137.273 Y142.211 E7.27157
G1 X136.642 Y142.882 E7.30221
G1 X135.956 Y143.496 E7.33283
G1 X135.219 Y144.048 E7.36346
G1 X134.437 Y144.534 E7.39408
G1 X133.316 Y145.081 E7.43557
G1 X133.148 Y145.151 E7.44162
G1 X132.284 Y145.467 E7.47222
G1 X131.395 Y145.708 E7.50285
G1 X130.489 Y145.871 E7.53347
G1 X129.303 Y145.963 E7.57304
G1 X128.139 Y145.987 E7.61176
G1 X124.661 Y145.996 E7.72744
G1 X103.475 Y145.997 E8.43209
G1 X101.485 Y145.986 E8.49828
G1 X100.763 Y145.973 E8.52229
G1 X99.844 Y145.917 E8.55292
G1 X98.934 Y145.781 E8.58352
G1 X98.038 Y145.566 E8.61417
G1 X96.931 Y145.182 E8.65314
G1 X96.736 Y145.102 E8.66015
G1 X95.9 Y144.716 E8.69077
G1 X95.101 Y144.259 E8.72139
G1 X94.344 Y143.734 E8.75203
G1 X93.636 Y143.145 E8.78266
G1 X92.875 Y142.38 E8.81855
G1 X92.742 Y142.232 E8.82517
G1 X92.157 Y141.521 E8.85579
G1 X91.636 Y140.762 E8.88641
G1 X91.182 Y139.961 E8.91704
G1 X90.8 Y139.123 E8.94767
G1 X90.492 Y138.256 E8.97827
G1 X90.261 Y137.365 E9.00888
G1 X90.107 Y136.457 E9.03951
G1 X90.036 Y135.606 E9.06792
G1 X89.981 Y134.337 E9.11016
G1 X89.971 Y133.878 E9.12543
G1 X89.972 Y131.509 E9.20423
G1 X89.982 Y130.81 E9.22748
G1 X90.007 Y130.216 E9.24725
G1 X90.07 Y129.329 E9.27683
G1 X90.217 Y126.739 E9.36311
G1 X90.289 Y124.202 E9.44753
G1 X90.289 Y121.69 E9.53108
G1 X90.217 Y119.136 E9.61606
G1 X90.072 Y116.574 E9.7014
G1 X90.033 Y116.08 E9.71789
G1 X90.003 Y115.479 E9.7379
G1 X89.971 Y113.923 E9.78966
G1 X89.972 Y111.476 E9.87105
G1 X89.982 Y110.811 E9.89317
G1 X90.036 Y109.892 E9.92379
G1 X90.169 Y108.981 E9.95441
G1 X90.381 Y108.085 E9.98504
G1 X90.67 Y107.21 E10.01568
G1 X91.034 Y106.365 E10.04629
G1 X91.469 Y105.554 E10.0769
G1 X91.974 Y104.783 E10.10755
G1 X92.543 Y104.06 E10.13815
G1 X93.173 Y103.388 E10.16879
G1 X93.859 Y102.774 E10.19941
G1 X94.595 Y102.222 E10.23001
G1 X95.377 Y101.735 E10.26065
G1 X96.198 Y101.319 E10.29126
G1 X97.052 Y100.975 E10.32188
G1 X97.932 Y100.706 E10.35249
G1 X98.833 Y100.515 E10.38312
G1 X99.747 Y100.403 E10.41375
G1 X100.283 Y100.374 E10.4316
G1 X100.901 Y100.361 E10.45216
G1 X128.874 Y100.362 E11.38255
G1 X129.572 Y100.372 E11.40577
G0 F6000 X129.578 Y99.972
G1 F1200 X130.514 Y100.026 E11.43695
G1 X131.442 Y100.158 E11.46813
G1 X132.356 Y100.37 E11.49933
G1 X133.248 Y100.659 E11.53052
G1 X134.113 Y101.022 E11.56172
G1 X134.943 Y101.458 E11.5929
G1 X135.734 Y101.963 E11.62412
G1 X136.478 Y102.534 E11.65531
G1 X137.171 Y103.166 E11.6865
G1 X137.808 Y103.854 E11.71769
G1 X138.383 Y104.595 E11.74888
G1 X138.894 Y105.381 E11.78007
G1 X139.336 Y106.209 E11.81128
G1 X139.705 Y107.071 E11.84247
G1 X140 Y107.961 E11.87366
G1 X140.218 Y108.873 E11.90484
G1 X140.358 Y109.801 E11.93606
G1 X140.416 Y110.662 E11.96476
G1 X140.429 Y111.274 E11.98512
G1 X140.43 Y111.924 E12.00674
G1 X140.427 Y114.406 E12.08929
G1 X140.418 Y115.097 E12.11227
G1 X140.392 Y115.723 E12.13311
G1 X140.327 Y116.653 E12.16412
G1 X140.181 Y119.265 E12.25113
G1 X140.111 Y121.787 E12.33505
G1 X140.113 Y124.311 E12.419
G1 X140.185 Y126.809 E12.50211
G1 X140.332 Y129.38 E12.58776
G1 X140.374 Y129.917 E12.60568
G1 X140.399 Y130.327 E12.61934
G1 X140.42 Y130.841 E12.63645
G1 X140.429 Y131.294 E12.65152
G1 X140.427 Y134.406 E12.75503
G1 X140.418 Y135.098 E12.77805
G1 X140.366 Y136.034 E12.80922
G1 X140.234 Y136.963 E12.84043
G1 X140.07 Y137.71 E12.86587
G1 X139.812 Y138.611 E12.89704
G1 X139.478 Y139.488 E12.92826
G1 X139.071 Y140.333 E12.95945
G1 X138.594 Y141.14 E12.99063
G1 X138.049 Y141.903 E13.02182
G1 X137.576 Y142.472 E13.04643
G1 X136.934 Y143.156 E13.07763
G1 X136.237 Y143.783 E13.10881
G1 X135.488 Y144.348 E13.14001
G1 X134.695 Y144.848 E13.17119
G1 X133.47 Y145.45 E13.21659
G1 X133.302 Y145.52 E13.22265
G1 X132.421 Y145.843 E13.25385
G1 X131.517 Y146.091 E13.28503
G1 X130.594 Y146.26 E13.31624
G1 X129.312 Y146.363 E13.35902
G1 X128.14 Y146.387 E13.39801
G1 X124.662 Y146.396 E13.51369
G1 X103.474 Y146.397 E14.2184
G1 X101.478 Y146.386 E14.28479
G1 X100.756 Y146.373 E14.30881
G1 X99.82 Y146.316 E14.34
G1 X98.892 Y146.18 E14.37119
G1 X97.979 Y145.965 E14.40239
G1 X96.779 Y145.552 E14.4446
G1 X96.584 Y145.472 E14.45161
G1 X95.732 Y145.079 E14.48282
G1 X94.917 Y144.615 E14.51401
G1 X94.144 Y144.084 E14.5452
G1 X93.42 Y143.489 E14.57637
G1 X92.577 Y142.648 E14.61598
G1 X92.444 Y142.5 E14.62259
G1 X91.848 Y141.776 E14.65378
G1 X91.315 Y141.004 E14.68499
G1 X90.85 Y140.19 E14.71617
G1 X90.456 Y139.338 E14.74739
G1 X90.136 Y138.457 E14.77856
G1 X89.892 Y137.551 E14.80977
G1 X89.726 Y136.628 E14.84096
G1 X89.636 Y135.623 E14.87452
G1 X89.581 Y134.354 E14.91677
G1 X89.571 Y133.878 E14.9326
G1 X89.572 Y131.504 E15.01156
G1 X89.582 Y130.805 E15.03481
G1 X89.608 Y130.188 E15.05535
G1 X89.674 Y129.253 E15.08653
G1 X89.817 Y126.739 E15.17028
G1 X89.889 Y124.191 E15.25506
G1 X89.889 Y121.701 E15.33788
G1 X89.817 Y119.169 E15.42213
G1 X89.673 Y116.609 E15.50741
G1 X89.634 Y116.112 E15.52399
G1 X89.603 Y115.488 E15.54477
G1 X89.571 Y113.923 E15.59683
G1 X89.572 Y111.47 E15.67842
G1 X89.582 Y110.805 E15.70054
G1 X89.636 Y109.868 E15.73176
G1 X89.77 Y108.94 E15.76294
G1 X89.982 Y108.026 E15.79415
G1 X90.271 Y107.134 E15.82533
G1 X90.636 Y106.27 E15.85653
G1 X91.072 Y105.44 E15.88771
G1 X91.578 Y104.65 E15.91892
G1 X92.149 Y103.906 E15.95011
G1 X92.781 Y103.213 E15.98131
G1 X93.47 Y102.577 E16.01249
G1 X94.211 Y102.002 E16.04369
G1 X94.998 Y101.492 E16.07488
G1 X95.826 Y101.051 E16.10608
G1 X96.688 Y100.682 E16.13727
G1 X97.579 Y100.388 E16.16847
G1 X98.491 Y100.17 E16.19966
G1 X99.418 Y100.032 E16.23083
G1 X100.272 Y99.974 E16.2593
G1 X100.901 Y99.961 E16.28023
G1 X128.88 Y99.962 E17.21081
G1 X129.578 Y99.972 E17.23403
G1 F2700 E12.23403
G1 F300 Z0.4
;MESH:hingedoorslot.stl
G0 F6000 X128.828 Y113.561 Z0.4
;TYPE:WALL-INNER
G1 F300 Z0.2
G1 F2700 E17.23403
G1 F1200 X128.829 Y114.784 E17.27471
G1 X124.632 Y114.796 E17.4143
G1 X103.698 Y114.798 E18.11057
G1 X101.172 Y114.786 E18.19459
G1 X101.171 Y113.76 E18.22871
G1 X101.171 Y113.561 E18.23533
G1 X101.37 Y113.561 E18.23961
G1 X128.828 Y113.561 E19.15287
G0 F6000 X129.229 Y113.161
;TYPE:WALL-OUTER
G1 F1200 X129.228 Y113.477 E19.16338
G1 X129.229 Y114.947 E19.21227
G1 X129.216 Y115.027 E19.21497
G1 X129.123 Y115.139 E19.21981
G1 X129.01 Y115.184 E19.22385
G1 X124.633 Y115.196 E19.36943
G1 X103.696 Y115.198 E20.0658
G1 X100.989 Y115.185 E20.15584
G1 X100.875 Y115.139 E20.15993
G1 X100.792 Y115.046 E20.16407
G1 X100.772 Y114.94 E20.16766
G1 X100.771 Y113.161 E20.22683
G1 X129.229 Y113.161 E21.17335
G0 F6000 X128.438 Y113.951
;TYPE:SKIN
G1 F1200 X128.439 Y114.396 E21.18815
G1 X124.63 Y114.406 E21.31484
G1 X103.7 Y114.408 E22.01097
G1 X101.562 Y114.398 E22.08208
G1 X101.561 Y113.951 E22.09695
G1 X128.438 Y113.951 E22.99088
G0 F6000 X127.814 Y114.238
G1 F1200 X127.687 Y114.111 E22.99686
G0 F6000 X127.25 Y114.239
G1 F1200 X127.122 Y114.111 E23.00288
G0 F6000 X126.685 Y114.24
G1 F1200 X126.556 Y114.111 E23.00894
G0 F6000 X126.121 Y114.242
G1 F1200 X125.99 Y114.111 E23.01511
G0 F6000 X125.557 Y114.243
G1 F1200 X125.425 Y114.111 E23.02131
G0 F6000 X124.993 Y114.245
G1 F1200 X124.859 Y114.111 E23.02762
G0 F6000 X124.428 Y114.246
G1 F1200 X124.293 Y114.111 E23.03397
G0 F6000 X123.863 Y114.246
G1 F1200 X123.728 Y114.111 E23.04032
G0 F6000 X123.297 Y114.246
G1 F1200 X123.162 Y114.111 E23.04667
G0 F6000 X122.731 Y114.246
G1 F1200 X122.596 Y114.111 E23.05302
G0 F6000 X122.166 Y114.246
G1 F1200 X122.031 Y114.111 E23.05937
G0 F6000 X121.6 Y114.246
G1 F1200 X121.465 Y114.111 E23.06572
G0 F6000 X121.034 Y114.246
G1 F1200 X120.899 Y114.111 E23.07207
G0 F6000 X120.469 Y114.246
G1 F1200 X120.334 Y114.111 E23.07842
G0 F6000 X119.903 Y114.246
G1 F1200 X119.768 Y114.111 E23.08477
G0 F6000 X119.337 Y114.246
G1 F1200 X119.202 Y114.111 E23.09112
G0 F6000 X118.772 Y114.246
G1 F1200 X118.636 Y114.111 E23.09749
G0 F6000 X118.206 Y114.246
G1 F1200 X118.071 Y114.111 E23.10384
G0 F6000 X117.64 Y114.246
G1 F1200 X117.505 Y114.111 E23.11019
G0 F6000 X117.074 Y114.246
G1 F1200 X116.939 Y114.111 E23.11654
G0 F6000 X116.509 Y114.246
G1 F1200 X116.374 Y114.111 E23.12289
G0 F6000 X115.943 Y114.246
G1 F1200 X115.808 Y114.111 E23.12924
G0 F6000 X115.377 Y114.246
G1 F1200 X115.242 Y114.111 E23.13559
G0 F6000 X114.812 Y114.246
G1 F1200 X114.676 Y114.11 E23.14199
G0 F6000 X114.246 Y114.246
G1 F1200 X114.11 Y114.11 E23.14839
G0 F6000 X113.68 Y114.246
G1 F1200 X113.545 Y114.11 E23.15476
G0 F6000 X113.115 Y114.246
G1 F1200 X112.979 Y114.11 E23.16116
G0 F6000 X112.549 Y114.246
G1 F1200 X112.413 Y114.11 E23.16755
G0 F6000 X111.983 Y114.246
G1 F1200 X111.848 Y114.11 E23.17393
G0 F6000 X111.418 Y114.246
G1 F1200 X111.282 Y114.11 E23.18032
G0 F6000 X110.852 Y114.246
G1 F1200 X110.716 Y114.11 E23.18672
G0 F6000 X110.286 Y114.246
G1 F1200 X110.15 Y114.11 E23.19312
G0 F6000 X109.721 Y114.246
G1 F1200 X109.585 Y114.11 E23.19951
G0 F6000 X109.155 Y114.246
G1 F1200 X109.019 Y114.11 E23.20591
G0 F6000 X108.589 Y114.246
G1 F1200 X108.453 Y114.11 E23.21231
G0 F6000 X108.023 Y114.246
G1 F1200 X107.888 Y114.11 E23.21868
G0 F6000 X107.458 Y114.246
G1 F1200 X107.322 Y114.11 E23.22508
G0 F6000 X106.892 Y114.246
G1 F1200 X106.756 Y114.11 E23.23148
G0 F6000 X106.326 Y114.246
G1 F1200 X106.191 Y114.11 E23.23785
G0 F6000 X105.761 Y114.246
G1 F1200 X105.625 Y114.11 E23.24425
G0 F6000 X105.195 Y114.246
G1 F1200 X105.059 Y114.11 E23.25064
G0 F6000 X104.629 Y114.246
G1 F1200 X104.494 Y114.11 E23.25702
G0 F6000 X104.064 Y114.246
G1 F1200 X103.928 Y114.11 E23.26341
G0 F6000 X103.497 Y114.245
G1 F1200 X103.362 Y114.11 E23.26976
G0 F6000 X102.929 Y114.243
G1 F1200 X102.797 Y114.11 E23.276
G0 F6000 X102.361 Y114.24
G1 F1200 X102.231 Y114.11 E23.28211
G0 F6000 X101.793 Y114.238
G1 F1200 X101.72 Y114.165 E23.28555
G1 F2700 E18.28555
G1 F300 Z0.4
G0 F6000 X100.771 Y111.761 Z0.4
;TYPE:WALL-OUTER
G1 F300 Z0.2
G1 F2700 E23.28555
G1 F1200 X100.771 Y111.161 E23.3055
G1 X129.229 Y111.161 E24.25202
G1 X129.229 Y111.761 E24.27197
G1 X100.771 Y111.761 E25.21849
G0 F6000 X101.032 Y111.497
;TYPE:SKIN
G1 F1200 X101.277 Y111.46 E25.22364
G1 X128.714 Y111.46 E25.79339
G1 X128.962 Y111.426 E25.79859
G1 F2700 E20.79859
G1 F300 Z0.4
;MESH:hingedoorslot.stl(1)
G0 F6000 X128.828 Y133.561 Z0.4
;TYPE:WALL-INNER
G1 F300 Z0.2
G1 F2700 E25.79859
G1 F1200 X128.829 Y134.784 E25.83927
G1 X124.632 Y134.796 E25.97886
G1 X103.698 Y134.798 E26.67513
G1 X101.172 Y134.786 E26.75914
G1 X101.171 Y133.76 E26.79327
G1 X101.171 Y133.561 E26.79989
G1 X101.37 Y133.561 E26.80417
G1 X128.828 Y133.561 E27.71743
G0 F6000 X129.229 Y133.161
;TYPE:WALL-OUTER
