;FLAVOR:Marlin
;TIME:2029
;Filament used: 1.22643m
;Layer height: 0.2
;MINX:89
;MINY:93.3
;MINZ:0.2
;MAXX:140.999
;MAXY:165.069
;MAXZ:8
;Generated with Cura_SteamEngine 4.6.1
M140 S50
M105
M190 S50
M104 S200
M105
M109 S200
M82 ;absolute extrusion mode
; Ender 3 Custom Start G-code
G92 E0 ; Reset Extruder
G28 ; Home all axes
G1 Z2.0 F3000 ; Move Z Axis up little to prevent scratching of Heat Bed
G1 X0.1 Y20 Z0.3 F5000.0 ; Move to start position
G1 X0.1 Y200.0 Z0.3 F1500.0 E15 ; Draw the first line
G1 X0.4 Y200.0 Z0.3 F5000.0 ; Move to side a little
G1 X0.4 Y20 Z0.3 F1500.0 E30 ; Draw the second line
G92 E0 ; Reset Extruder
G1 Z2.0 F3000 ; Move Z Axis up little to prevent scratching of Heat Bed
G1 X5 Y20 Z0.3 F5000.0 ; Move over to prevent blob squish
G92 E0
G92 E0
G1 F2700 E-5
;LAYER_COUNT:40
;LAYER:0
M107
G0 F6000 X129.009 Y94.108 Z0.2
;TYPE:SKIRT
G1 F2700 E0
G1 F1200 X129.64 Y94.136 E0.02101
G1 X129.982 Y94.162 E0.03242
G1 X130.879 Y94.271 E0.06247
G1 X131.762 Y94.458 E0.09249
G1 X132.542 Y94.693 E0.11958
G1 X132.756 Y94.767 E0.12712
G1 X133.596 Y95.1 E0.15717
G1 X134.403 Y95.505 E0.1872
G1 X135.31 Y96.077 E0.22287
G1 X135.593 Y96.277 E0.23439
G1 X136.307 Y96.831 E0.26445
G1 X136.968 Y97.445 E0.29446
G1 X137.723 Y98.301 E0.33242
G1 X137.852 Y98.465 E0.33936
G1 X138.378 Y99.199 E0.36939
G1 X138.978 Y100.25 E0.40964
G1 X139.068 Y100.432 E0.4164
G1 X139.432 Y101.258 E0.44642
G1 X139.722 Y102.114 E0.47648
G1 X139.857 Y102.631 E0.49425
G1 X139.911 Y102.862 E0.50214
G1 X140.078 Y103.75 E0.53219
G1 X140.166 Y104.662 E0.56267
G1 X140.185 Y105.033 E0.57502
G1 X140.198 Y105.553 E0.59233
G1 X140.199 Y116.961 E0.97176
G1 X140.189 Y117.679 E0.99564
G1 X140.154 Y118.395 E1.01948
G1 X139.928 Y121.072 E1.10884
G1 X139.785 Y123.614 E1.19352
G1 X139.714 Y126.149 E1.27787
G1 X139.714 Y128.684 E1.36218
G1 X139.787 Y131.247 E1.44746
G1 X139.931 Y133.765 E1.53135
G1 X140.06 Y135.386 E1.58543
G1 X140.149 Y136.394 E1.61909
G1 X140.183 Y136.943 E1.63738
G1 X140.192 Y137.206 E1.64613
G1 X140.198 Y137.553 E1.65768
G1 X140.199 Y148.961 E2.03711
G1 X140.189 Y149.679 E2.06099
G1 X140.136 Y150.581 E2.09104
G1 X140.004 Y151.474 E2.12107
G1 X139.794 Y152.352 E2.1511
G1 X139.506 Y153.208 E2.18113
G1 X139.144 Y154.036 E2.21119
G1 X138.711 Y154.828 E2.24121
G1 X138.208 Y155.578 E2.27125
G1 X137.642 Y156.282 E2.30129
G1 X137.015 Y156.932 E2.33133
G1 X136.334 Y157.524 E2.36134
G1 X135.602 Y158.054 E2.3914
G1 X134.827 Y158.517 E2.42143
G1 X133.803 Y158.998 E2.45906
G1 X131.22 Y160.039 E2.55168
G1 X128.916 Y161.045 E2.6353
G1 X126.592 Y162.139 E2.72073
G1 X124.873 Y163.007 E2.78478
G1 X124.488 Y163.195 E2.79903
G1 X123.659 Y163.555 E2.82909
G1 X122.803 Y163.84 E2.8591
G1 X121.924 Y164.048 E2.88914
G1 X121.03 Y164.178 E2.91919
G1 X120.265 Y164.226 E2.94468
G1 X119.143 Y164.252 E2.98201
G1 X115.99 Y164.269 E3.08688
G1 X113.991 Y164.258 E3.15337
G1 X111.135 Y164.261 E3.24836
G1 X110.474 Y164.251 E3.27035
G1 X109.728 Y164.231 E3.29517
G1 X108.827 Y164.167 E3.32521
G1 X107.935 Y164.024 E3.35526
G1 X107.06 Y163.802 E3.38528
G1 X106.207 Y163.503 E3.41535
G1 X105.443 Y163.16 E3.4432
G1 X103.201 Y162.04 E3.52656
G1 X100.922 Y160.976 E3.61021
G1 X98.575 Y159.962 E3.69525
G1 X97.426 Y159.505 E3.73637
G1 X96.136 Y158.974 E3.78277
G1 X95.317 Y158.594 E3.8128
G1 X94.535 Y158.142 E3.84284
G1 X93.796 Y157.624 E3.87286
G1 X93.105 Y157.042 E3.90291
G1 X92.469 Y156.401 E3.93294
G1 X91.892 Y155.706 E3.96299
G1 X91.379 Y154.963 E3.99302
G1 X90.933 Y154.177 E4.02307
G1 X90.559 Y153.356 E4.05308
G1 X90.258 Y152.504 E4.08313
G1 X90.035 Y151.629 E4.11317
G1 X89.889 Y150.738 E4.1432
G1 X89.836 Y150.134 E4.16336
G1 X89.817 Y149.807 E4.17426
G1 X89.8 Y149.215 E4.19396
G1 X89.801 Y137.864 E4.57149
G1 X89.809 Y137.29 E4.59058
G1 X89.837 Y136.663 E4.61146
G1 X89.959 Y135.079 E4.6643
G1 X89.987 Y134.79 E4.67396
G1 X90.158 Y132.289 E4.75733
G1 X90.261 Y129.723 E4.84275
G1 X90.29 Y127.224 E4.92587
G1 X90.247 Y124.656 E5.0113
G1 X90.133 Y122.101 E5.09636
G1 X89.953 Y119.635 E5.1786
G1 X89.847 Y118.404 E5.21969
G1 X89.813 Y117.821 E5.23912
G1 X89.8 Y117.215 E5.25928
G1 X89.801 Y105.848 E5.63734
G1 X89.809 Y105.287 E5.656
G1 X89.837 Y104.659 E5.67691
G1 X89.863 Y104.317 E5.68832
G1 X89.972 Y103.42 E5.71837
G1 X90.159 Y102.537 E5.74839
G1 X90.352 Y101.88 E5.77117
G1 X90.415 Y101.69 E5.77783
G1 X90.737 Y100.846 E5.80787
G1 X91.229 Y99.861 E5.84449
G1 X91.329 Y99.685 E5.85123
G1 X91.809 Y98.92 E5.88126
G1 X92.568 Y97.954 E5.92212
G1 X92.702 Y97.803 E5.92884
G1 X93.331 Y97.154 E5.9589
G1 X94.014 Y96.564 E5.98892
G1 X94.842 Y95.976 E6.0227
G1 X95.138 Y95.787 E6.03438
G1 X95.92 Y95.335 E6.06442
G1 X96.739 Y94.954 E6.09446
G1 X97.588 Y94.647 E6.12449
G1 X98.279 Y94.458 E6.14832
G1 X98.558 Y94.392 E6.15785
G1 X99.445 Y94.223 E6.18788
G1 X100.419 Y94.13 E6.22043
G1 X100.775 Y94.113 E6.23228
G1 X101.261 Y94.101 E6.24845
G1 X128.435 Y94.1 E7.15226
G1 X129.009 Y94.108 E7.17135
G0 F6000 X129.015 Y93.708
G1 F1200 X129.671 Y93.737 E7.19319
G1 X130.013 Y93.763 E7.2046
G1 X130.927 Y93.873 E7.23522
G1 X131.828 Y94.062 E7.26584
G1 X132.673 Y94.315 E7.29518
G1 X132.887 Y94.389 E7.30271
G1 X133.743 Y94.727 E7.33332
G1 X134.567 Y95.139 E7.36396
G1 X135.541 Y95.751 E7.40222
G1 X135.824 Y95.951 E7.41375
G1 X136.552 Y96.514 E7.44435
G1 X137.228 Y97.139 E7.47498
G1 X138.037 Y98.054 E7.5156
G1 X138.166 Y98.218 E7.52254
G1 X138.704 Y98.965 E7.55316
G1 X139.337 Y100.072 E7.59557
G1 X139.427 Y100.254 E7.60232
G1 X139.799 Y101.097 E7.63297
G1 X140.096 Y101.968 E7.66358
G1 X140.247 Y102.54 E7.68325
G1 X140.301 Y102.771 E7.69114
G1 X140.471 Y103.676 E7.72177
G1 X140.565 Y104.642 E7.75405
G1 X140.584 Y105.013 E7.76641
G1 X140.598 Y105.553 E7.78437
G1 X140.599 Y116.967 E8.16401
G1 X140.589 Y117.685 E8.18789
G1 X140.552 Y118.429 E8.21266
G1 X140.327 Y121.093 E8.30158
G1 X140.185 Y123.613 E8.38553
G1 X140.114 Y126.16 E8.47028
G1 X140.114 Y128.672 E8.55383
G1 X140.187 Y131.213 E8.63838
G1 X140.332 Y133.758 E8.72316
G1 X140.452 Y135.271 E8.77364
G1 X140.548 Y136.358 E8.80994
G1 X140.583 Y136.929 E8.82896
G1 X140.592 Y137.192 E8.83772
G1 X140.598 Y137.553 E8.84973
G1 X140.599 Y148.967 E9.22936
G1 X140.589 Y149.685 E9.25324
G1 X140.536 Y150.604 E9.28386
G1 X140.404 Y151.515 E9.31447
G1 X140.193 Y152.411 E9.34509
G1 X139.905 Y153.286 E9.37573
G1 X139.542 Y154.132 E9.40635
G1 X139.108 Y154.943 E9.43694
G1 X138.604 Y155.714 E9.46758
G1 X138.036 Y156.438 E9.49818
G1 X137.407 Y157.11 E9.5288
G1 X136.721 Y157.725 E9.55944
G1 X135.985 Y158.279 E9.59008
G1 X135.204 Y158.766 E9.62069
G1 X134.384 Y159.183 E9.65129
G1 X133.952 Y159.369 E9.66693
G1 X131.393 Y160.4 E9.75869
G1 X129.068 Y161.415 E9.84307
G1 X126.778 Y162.493 E9.92725
G1 X125.048 Y163.366 E9.99171
G1 X124.663 Y163.554 E10.00596
G1 X123.819 Y163.922 E10.03658
G1 X122.946 Y164.215 E10.06721
G1 X122.051 Y164.431 E10.09783
G1 X121.141 Y164.569 E10.12844
G1 X120.275 Y164.626 E10.15731
G1 X119.145 Y164.652 E10.1949
G1 X115.988 Y164.669 E10.29991
G1 X113.989 Y164.658 E10.36639
G1 X111.129 Y164.661 E10.46152
G1 X110.463 Y164.651 E10.48367
G1 X109.717 Y164.631 E10.50849
G1 X108.799 Y164.567 E10.5391
G1 X107.889 Y164.423 E10.56974
G1 X106.996 Y164.2 E10.60036
G1 X106.125 Y163.901 E10.63099
G1 X105.264 Y163.518 E10.66233
G1 X103.032 Y162.403 E10.74531
G1 X100.744 Y161.335 E10.82929
G1 X98.405 Y160.325 E10.91403
G1 X97.274 Y159.875 E10.95452
G1 X95.984 Y159.344 E11.00092
G1 X95.149 Y158.957 E11.03153
G1 X94.35 Y158.499 E11.06216
G1 X93.594 Y157.973 E11.09279
G1 X92.887 Y157.384 E11.1234
G1 X92.234 Y156.736 E11.15399
G1 X91.639 Y156.033 E11.18463
G1 X91.107 Y155.281 E11.21526
G1 X90.643 Y154.486 E11.24588
G1 X90.249 Y153.654 E11.2765
G1 X89.929 Y152.791 E11.30711
G1 X89.685 Y151.903 E11.33774
G1 X89.519 Y150.997 E11.36838
G1 X89.437 Y150.157 E11.39645
G1 X89.418 Y149.83 E11.40734
G1 X89.4 Y149.215 E11.42781
G1 X89.401 Y137.858 E11.80554
G1 X89.409 Y137.284 E11.82463
G1 X89.438 Y136.633 E11.84631
G1 X89.561 Y135.04 E11.89945
G1 X89.589 Y134.757 E11.90891
G1 X89.758 Y132.281 E11.99145
G1 X89.861 Y129.702 E12.0773
G1 X89.89 Y127.226 E12.15966
G1 X89.847 Y124.645 E12.24551
G1 X89.735 Y122.148 E12.32865
G1 X89.56 Y119.735 E12.40911
G1 X89.448 Y118.439 E12.45238
G1 X89.413 Y117.833 E12.47257
G1 X89.4 Y117.215 E12.49313
G1 X89.401 Y105.842 E12.8714
G1 X89.409 Y105.281 E12.89006
G1 X89.438 Y104.628 E12.9118
G1 X89.464 Y104.286 E12.9232
G1 X89.574 Y103.372 E12.95382
G1 X89.763 Y102.471 E12.98444
G1 X89.973 Y101.754 E13.00929
G1 X90.036 Y101.564 E13.01595
G1 X90.363 Y100.703 E13.04658
G1 X90.881 Y99.664 E13.0852
G1 X90.981 Y99.488 E13.09193
G1 X91.47 Y98.708 E13.12255
G1 X92.269 Y97.688 E13.16564
G1 X92.403 Y97.537 E13.17236
G1 X93.043 Y96.876 E13.20296
G1 X93.738 Y96.272 E13.23359
G1 X94.626 Y95.639 E13.26986
G1 X94.922 Y95.45 E13.28154
G1 X95.719 Y94.989 E13.31216
G1 X96.553 Y94.598 E13.3428
G1 X97.417 Y94.282 E13.37339
G1 X98.187 Y94.069 E13.39997
G1 X98.466 Y94.003 E13.4095
G1 X99.37 Y93.83 E13.44012
G1 X100.4 Y93.73 E13.47453
G1 X100.756 Y93.713 E13.48639
G1 X101.261 Y93.701 E13.50319
G1 X128.441 Y93.7 E14.4072
G1 X129.015 Y93.708 E14.42629
G0 F6000 X129.02 Y93.308
G1 F1200 X129.701 Y93.339 E14.44897
G1 X130.043 Y93.365 E14.46037
G1 X130.974 Y93.476 E14.49156
G1 X131.893 Y93.665 E14.52276
G1 X132.804 Y93.937 E14.55439
G1 X133.018 Y94.011 E14.56192
G1 X133.89 Y94.355 E14.5931
G1 X134.73 Y94.772 E14.62429
G1 X135.771 Y95.424 E14.66514
G1 X136.054 Y95.624 E14.67667
G1 X136.797 Y96.197 E14.70788
G1 X137.487 Y96.832 E14.73906
G1 X138.352 Y97.806 E14.78239
G1 X138.481 Y97.97 E14.78933
G1 X139.029 Y98.732 E14.82055
G1 X139.695 Y99.895 E14.86512
G1 X139.785 Y100.077 E14.87188
G1 X140.165 Y100.935 E14.90309
G1 X140.47 Y101.822 E14.93428
G1 X140.636 Y102.449 E14.95586
G1 X140.69 Y102.68 E14.96375
G1 X140.865 Y103.602 E14.99496
G1 X140.965 Y104.621 E15.02901
G1 X140.984 Y104.992 E15.04137
G1 X140.998 Y105.553 E15.06004
G1 X140.999 Y116.972 E15.43983
G1 X140.989 Y117.69 E15.46372
G1 X140.951 Y118.463 E15.48946
G1 X140.727 Y121.115 E15.57798
G1 X140.585 Y123.646 E15.66229
G1 X140.514 Y126.171 E15.74631
G1 X140.514 Y128.695 E15.83025
G1 X140.585 Y131.18 E15.91294
G1 X140.731 Y133.745 E15.99839
G1 X140.849 Y135.226 E16.0478
G1 X140.946 Y136.323 E16.08443
G1 X140.983 Y136.916 E16.10419
G1 X140.992 Y137.179 E16.11295
G1 X140.998 Y137.553 E16.12539
G1 X140.999 Y148.972 E16.50519
G1 X140.989 Y149.69 E16.52907
G1 X140.936 Y150.627 E16.56028
G1 X140.803 Y151.555 E16.59146
G1 X140.592 Y152.469 E16.62266
G1 X140.304 Y153.361 E16.65384
G1 X139.941 Y154.226 E16.68504
G1 X139.505 Y155.057 E16.71625
G1 X139 Y155.847 E16.74744
G1 X138.43 Y156.592 E16.77864
G1 X137.798 Y157.285 E16.80983
G1 X137.11 Y157.922 E16.84102
G1 X136.37 Y158.498 E16.87221
G1 X135.583 Y159.009 E16.90342
G1 X134.756 Y159.451 E16.9346
G1 X134.102 Y159.74 E16.95839
G1 X131.524 Y160.779 E17.05083
G1 X129.262 Y161.766 E17.13292
G1 X126.936 Y162.861 E17.21842
G1 X125.224 Y163.725 E17.28221
G1 X124.839 Y163.913 E17.29646
G1 X123.979 Y164.289 E17.32767
G1 X123.091 Y164.589 E17.35885
G1 X122.18 Y164.813 E17.39005
G1 X121.254 Y164.959 E17.42123
G1 X120.285 Y165.026 E17.45354
G1 X119.148 Y165.052 E17.49136
G1 X115.986 Y165.069 E17.59653
G1 X113.988 Y165.058 E17.66299
G1 X111.124 Y165.061 E17.75825
G1 X110.452 Y165.051 E17.7806
G1 X109.706 Y165.031 E17.80542
G1 X108.771 Y164.966 E17.83659
G1 X107.844 Y164.821 E17.8678
G1 X106.933 Y164.598 E17.89899
G1 X106.044 Y164.299 E17.93019
G1 X105.085 Y163.875 E17.96507
G1 X102.877 Y162.772 E18.04716
G1 X100.568 Y161.695 E18.1319
G1 X98.276 Y160.705 E18.21494
G1 X97.122 Y160.245 E18.25626
G1 X95.832 Y159.714 E18.30266
G1 X94.981 Y159.32 E18.33385
G1 X94.166 Y158.856 E18.36504
G1 X93.394 Y158.323 E18.39624
G1 X92.67 Y157.727 E18.42743
G1 X92 Y157.071 E18.45862
G1 X91.387 Y156.361 E18.48982
G1 X90.838 Y155.601 E18.521
G1 X90.355 Y154.796 E18.55222
G1 X89.943 Y153.954 E18.5834
G1 X89.603 Y153.08 E18.61459
G1 X89.34 Y152.18 E18.64578
G1 X89.154 Y151.26 E18.677
G1 X89.038 Y150.18 E18.71312
G1 X89.019 Y149.853 E18.72402
G1 X89 Y149.215 E18.74525
G1 X89.001 Y137.853 E19.12315
G1 X89.009 Y137.279 E19.14224
G1 X89.039 Y136.603 E19.16475
G1 X89.163 Y135.001 E19.21819
G1 X89.19 Y134.726 E19.22738
G1 X89.36 Y132.236 E19.31039
G1 X89.461 Y129.716 E19.39427
G1 X89.49 Y127.193 E19.4782
G1 X89.449 Y124.705 E19.56096
G1 X89.335 Y122.159 E19.64572
G1 X89.155 Y119.689 E19.72809
G1 X89.05 Y118.473 E19.76869
G1 X89.014 Y117.844 E19.78964
G1 X89 Y117.215 E19.81057
G1 X89.001 Y105.836 E20.18904
G1 X89.009 Y105.275 E20.2077
G1 X89.04 Y104.598 E20.23024
G1 X89.066 Y104.256 E20.24165
G1 X89.177 Y103.325 E20.27283
G1 X89.366 Y102.406 E20.30404
G1 X89.593 Y101.628 E20.33099
G1 X89.656 Y101.438 E20.33765
G1 X89.989 Y100.561 E20.36885
G1 X90.533 Y99.466 E20.40952
G1 X90.633 Y99.29 E20.41625
G1 X91.131 Y98.495 E20.44745
G1 X91.969 Y97.423 E20.49271
G1 X92.103 Y97.272 E20.49942
G1 X92.755 Y96.597 E20.53064
G1 X93.462 Y95.981 E20.56182
G1 X94.411 Y95.302 E20.60063
G1 X94.707 Y95.113 E20.61232
G1 X95.518 Y94.642 E20.64351
G1 X96.367 Y94.242 E20.67472
G1 X97.246 Y93.916 E20.70591
G1 X98.095 Y93.679 E20.73522
G1 X98.374 Y93.613 E20.74476
G1 X99.295 Y93.437 E20.77595
G1 X100.381 Y93.331 E20.81224
G1 X100.737 Y93.314 E20.82409
G1 X101.261 Y93.301 E20.84153
G1 X128.446 Y93.3 E21.7457
G1 X129.02 Y93.308 E21.7648
G1 F2700 E16.7648
;MESH:hingescrew.stl
G0 F6000 X115.694 Y111.138
G0 X116.753 Y110.133
G0 X117.059 Y111.634
G0 X116.997 Y112.325
G0 X116.707 Y112.962
G0 X116.315 Y113.368
G0 X115.272 Y114.01
;TYPE:WALL-INNER
G1 F2700 E21.7648
G1 F1200 X115.645 Y113.931 E21.77748
G1 X115.997 Y113.791 E21.79008
G1 X116.318 Y113.594 E21.8026
G1 X116.603 Y113.344 E21.81521
G1 X116.84 Y113.053 E21.82769
G1 X117.026 Y112.723 E21.84029
G1 X117.153 Y112.366 E21.8529
G1 X117.217 Y111.997 E21.86535
G1 X117.22 Y111.621 E21.87786
G1 X117.158 Y111.245 E21.89053
G1 X117.033 Y110.887 E21.90315
G1 X116.848 Y110.558 E21.9157
G1 X116.614 Y110.265 E21.92817
G1 X116.331 Y110.013 E21.94077
G1 X116.009 Y109.814 E21.95336
G1 X115.658 Y109.672 E21.96596
G1 X115.293 Y109.592 E21.97839
G1 X114.916 Y109.573 E21.99094
G1 X114.54 Y109.619 E22.00354
G1 X114.176 Y109.729 E22.01619
G1 X113.838 Y109.899 E22.02877
G1 X113.535 Y110.122 E22.04128
G1 X113.273 Y110.394 E22.05385
G1 X113.059 Y110.707 E22.06646
G1 X112.904 Y111.051 E22.07901
G1 X112.807 Y111.414 E22.0915
G1 X112.774 Y111.789 E22.10402
G1 X112.802 Y112.167 E22.11663
G1 X112.898 Y112.535 E22.12928
G1 X113.051 Y112.877 E22.14174
G1 X113.262 Y113.192 E22.15435
G1 X113.523 Y113.466 E22.16694
G1 X113.826 Y113.691 E22.17949
G1 X114.164 Y113.862 E22.19209
G1 X114.525 Y113.973 E22.20465
G1 X114.895 Y114.022 E22.21706
G1 X115.272 Y114.01 E22.22961
G0 F6000 X115.224 Y113.611
;TYPE:WALL-OUTER
G1 F1200 X115.529 Y113.547 E22.23997
G1 X115.817 Y113.432 E22.25029
G1 X116.08 Y113.271 E22.26055
G1 X116.314 Y113.066 E22.27089
G1 X116.508 Y112.827 E22.28113
G1 X116.661 Y112.556 E22.29148
G1 X116.765 Y112.264 E22.30179
G1 X116.817 Y111.961 E22.31202
G1 X116.82 Y111.652 E22.32229
G1 X116.769 Y111.344 E22.33268
G1 X116.667 Y111.052 E22.34297
G1 X116.515 Y110.782 E22.35327
G1 X116.323 Y110.541 E22.36352
G1 X116.091 Y110.335 E22.37384
G1 X115.828 Y110.172 E22.38413
G1 X115.54 Y110.056 E22.39446
G1 X115.239 Y109.99 E22.40471
G1 X114.93 Y109.974 E22.415
G1 X114.623 Y110.012 E22.42529
G1 X114.325 Y110.102 E22.43564
G1 X114.048 Y110.241 E22.44595
G1 X113.799 Y110.424 E22.45623
G1 X113.584 Y110.647 E22.46653
G1 X113.409 Y110.903 E22.47684
G1 X113.282 Y111.186 E22.48716
G1 X113.202 Y111.484 E22.49742
G1 X113.175 Y111.792 E22.5077
G1 X113.198 Y112.101 E22.51801
G1 X113.277 Y112.402 E22.52836
G1 X113.402 Y112.683 E22.53859
G1 X113.575 Y112.941 E22.54892
G1 X113.789 Y113.165 E22.55923
G1 X114.037 Y113.35 E22.56952
G1 X114.314 Y113.49 E22.57984
G1 X114.61 Y113.581 E22.59014
G1 X114.915 Y113.621 E22.60037
G1 X115.224 Y113.611 E22.61065
G0 F6000 X115.276 Y114.047
G1 F2700 E17.61065
G0 F6000 X116.083 Y113.962
G0 X115.43 Y112.657
G0 X120.665 Y119.104
G0 X119.23 Y119.104
G0 X119.4 Y121.45
;TYPE:WALL-INNER
G1 F2700 E22.61065
