;FLAVOR:Marlin
;TIME:3828
;Filament used: 2.62989m
;Layer height: 0.2
;MINX:61.522
;MINY:89
;MINZ:0.2
;MAXX:170.803
;MAXY:140.999
;MAXZ:7
;Generated with Cura_SteamEngine 4.6.1
M140 S55
M105
M190 S55
M104 S210
M105
M109 S210
M82 ;absolute extrusion mode
; Ender 3 Custom Start G-code
G92 E0 ; Reset Extruder
G28 ; Home all axes
G1 Z2.0 F3000 ; Move Z Axis up little to prevent scratching of Heat Bed
G1 X0.1 Y20 Z0.3 F5000.0 ; Move to start position
G1 X0.1 Y200.0 Z0.3 F1500.0 E15 ; Draw the first line
G1 X0.4 Y200.0 Z0.3 F5000.0 ; Move to side a little
G1 X0.4 Y20 Z0.3 F1500.0 E30 ; Draw the second line
G92 E0 ; Reset Extruder
G1 Z2.0 F3000 ; Move Z Axis up little to prevent scratching of Heat Bed
G1 X5 Y20 Z0.3 F5000.0 ; Move over to prevent blob squish
G92 E0
G92 E0
G1 F2700 E-5
;LAYER_COUNT:35
;LAYER:0
M107
G0 F6000 X101.659 Y89.811 Z0.2
;TYPE:SKIRT
G1 F2700 E0
G1 F1200 X102.715 Y89.881 E0.0352
G1 X103.794 Y90.011 E0.07135
G1 X105.172 Y90.2 E0.11761
G1 X107.75 Y90.48 E0.20386
G1 X110.247 Y90.68 E0.28717
G1 X112.789 Y90.812 E0.37184
G1 X115.314 Y90.871 E0.45584
G1 X117.883 Y90.859 E0.54129
G1 X120.378 Y90.776 E0.62432
G1 X122.958 Y90.617 E0.71029
G1 X125.467 Y90.391 E0.79408
G1 X128.04 Y90.086 E0.88026
G1 X129.389 Y89.907 E0.92552
G1 X130.462 Y89.822 E0.96132
G1 X131.411 Y89.8 E0.99289
G1 X158.242 Y89.801 E1.88529
G1 X158.94 Y89.811 E1.90851
G1 X159.857 Y89.866 E1.93906
G1 X160.086 Y89.89 E1.94672
G1 X160.979 Y90.023 E1.97675
G1 X161.857 Y90.236 E2.0068
G1 X162.393 Y90.407 E2.02551
G1 X162.593 Y90.477 E2.03256
G1 X163.431 Y90.812 E2.06258
G1 X164.512 Y91.382 E2.10322
G1 X164.7 Y91.496 E2.11054
G1 X165.45 Y91.998 E2.14055
G1 X166.154 Y92.565 E2.17062
G1 X166.579 Y92.961 E2.18994
G1 X166.743 Y93.123 E2.19761
G1 X167.357 Y93.786 E2.22766
G1 X167.91 Y94.5 E2.2577
G1 X168.397 Y95.26 E2.28772
G1 X168.81 Y96.05 E2.31737
G1 X168.998 Y96.451 E2.3321
G1 X169.345 Y97.285 E2.36215
G1 X169.617 Y98.146 E2.39218
G1 X169.876 Y99.449 E2.43636
G1 X169.903 Y99.654 E2.44324
G1 X169.989 Y100.813 E2.48189
G1 X170.003 Y101.751 E2.5131
G1 X170.002 Y128.4 E3.39945
G1 X169.992 Y129.131 E3.42376
G1 X169.936 Y130.071 E3.45508
G1 X169.913 Y130.287 E3.46231
G1 X169.777 Y131.18 E3.49235
G1 X169.451 Y132.418 E3.53493
G1 X169.385 Y132.617 E3.5419
G1 X169.063 Y133.461 E3.57195
G1 X168.47 Y134.622 E3.61531
G1 X168.351 Y134.822 E3.62305
G1 X167.855 Y135.577 E3.65309
G1 X167.294 Y136.285 E3.68314
G1 X166.885 Y136.73 E3.70324
G1 X166.723 Y136.896 E3.71096
G1 X166.064 Y137.514 E3.741
G1 X165.353 Y138.071 E3.77104
G1 X164.596 Y138.563 E3.80107
G1 X163.748 Y139.01 E3.83296
G1 X163.34 Y139.201 E3.84794
G1 X162.506 Y139.547 E3.87797
G1 X161.644 Y139.818 E3.90802
G1 X160.762 Y140.012 E3.93806
G1 X159.866 Y140.127 E3.96811
G1 X159.313 Y140.159 E3.98653
G1 X157.818 Y140.198 E4.03627
G1 X131.368 Y140.199 E4.916
G1 X130.667 Y140.189 E4.93932
G1 X129.607 Y140.119 E4.97465
G1 X128.566 Y139.993 E5.00953
G1 X127.249 Y139.811 E5.05375
G1 X124.713 Y139.531 E5.13861
G1 X122.175 Y139.325 E5.2233
G1 X119.634 Y139.19 E5.30793
G1 X117.106 Y139.129 E5.39204
G1 X114.568 Y139.137 E5.47645
G1 X112.035 Y139.218 E5.56075
G1 X109.475 Y139.372 E5.64605
G1 X106.995 Y139.592 E5.72885
G1 X103.72 Y139.987 E5.83857
G1 X103.111 Y140.072 E5.85902
G1 X101.954 Y140.166 E5.89763
G1 X100.504 Y140.198 E5.94587
G1 X74.087 Y140.199 E6.8245
G1 X73.386 Y140.189 E6.84782
G1 X72.451 Y140.133 E6.87898
G1 X72.235 Y140.11 E6.8862
G1 X71.342 Y139.974 E6.91624
G1 X70.133 Y139.658 E6.95781
G1 X69.932 Y139.592 E6.96484
G1 X69.087 Y139.272 E6.9949
G1 X68.274 Y138.88 E7.02491
G1 X67.656 Y138.52 E7.0487
G1 X66.904 Y138.02 E7.07874
G1 X65.915 Y137.193 E7.12162
G1 X65.742 Y137.029 E7.12955
G1 X65.114 Y136.38 E7.15958
G1 X64.547 Y135.677 E7.18962
G1 X64.044 Y134.927 E7.21966
G1 X63.539 Y133.989 E7.25509
G1 X63.337 Y133.562 E7.2708
G1 X62.987 Y132.729 E7.30085
G1 X62.712 Y131.869 E7.33088
G1 X62.515 Y130.988 E7.36091
G1 X62.396 Y130.092 E7.39097
G1 X62.363 Y129.545 E7.4092
G1 X62.328 Y128.512 E7.44358
G1 X62.322 Y128.167 E7.45505
G1 X62.323 Y101.529 E8.34104
G1 X62.333 Y100.855 E8.36346
G1 X62.389 Y99.929 E8.39431
G1 X62.413 Y99.703 E8.40187
G1 X62.548 Y98.81 E8.43191
G1 X62.762 Y97.932 E8.46197
G1 X62.918 Y97.442 E8.47907
G1 X62.989 Y97.237 E8.48629
G1 X63.322 Y96.397 E8.51634
G1 X63.728 Y95.591 E8.54636
G1 X63.985 Y95.156 E8.56316
G1 X64.101 Y94.971 E8.57042
G1 X64.614 Y94.228 E8.60045
G1 X65.43 Y93.279 E8.64208
G1 X65.571 Y93.134 E8.64881
G1 X66.229 Y92.515 E8.67886
G1 X66.939 Y91.957 E8.70889
G1 X67.353 Y91.675 E8.72555
G1 X67.525 Y91.564 E8.73236
G1 X68.305 Y91.108 E8.76241
G1 X69.384 Y90.618 E8.80183
G1 X69.625 Y90.525 E8.81042
G1 X70.481 Y90.237 E8.84046
G1 X71.359 Y90.027 E8.87048
G1 X71.974 Y89.927 E8.89121
G1 X72.188 Y89.899 E8.89838
G1 X73.295 Y89.815 E8.93531
G1 X74.125 Y89.8 E8.96292
G1 X100.961 Y89.801 E9.85549
G1 X101.659 Y89.811 E9.87871
G0 F6000 X101.665 Y89.411
G1 F1200 X102.762 Y89.484 E9.91527
G1 X103.849 Y89.615 E9.95169
G1 X105.238 Y89.806 E9.99832
G1 X107.753 Y90.079 E10.08246
G1 X110.264 Y90.28 E10.16625
G1 X112.82 Y90.413 E10.25137
G1 X115.322 Y90.471 E10.33461
G1 X117.868 Y90.459 E10.41929
G1 X120.377 Y90.375 E10.50279
G1 X122.895 Y90.22 E10.5867
G1 X125.455 Y89.99 E10.67219
G1 X127.938 Y89.696 E10.75535
G1 X129.336 Y89.51 E10.80226
G1 X130.451 Y89.422 E10.83946
G1 X131.411 Y89.4 E10.87139
G1 X158.248 Y89.401 E11.764
G1 X158.946 Y89.411 E11.78721
G1 X159.899 Y89.468 E11.81897
G1 X160.128 Y89.492 E11.82663
G1 X161.038 Y89.627 E11.85722
G1 X161.934 Y89.842 E11.88787
G1 X162.525 Y90.029 E11.90849
G1 X162.725 Y90.099 E11.91554
G1 X163.58 Y90.441 E11.94616
G1 X164.719 Y91.04 E11.98897
G1 X164.907 Y91.154 E11.99628
G1 X165.673 Y91.665 E12.02691
G1 X166.391 Y92.241 E12.05752
G1 X166.86 Y92.677 E12.07882
G1 X167.024 Y92.839 E12.08649
G1 X167.65 Y93.514 E12.11711
G1 X168.216 Y94.24 E12.14772
G1 X168.716 Y95.013 E12.17834
G1 X169.173 Y95.88 E12.21094
G1 X169.361 Y96.281 E12.22567
G1 X169.715 Y97.131 E12.2563
G1 X169.994 Y98.008 E12.28691
G1 X170.196 Y98.907 E12.31755
G1 X170.299 Y99.602 E12.34092
G1 X170.388 Y100.806 E12.38108
G1 X170.403 Y101.751 E12.41251
G1 X170.402 Y128.405 E13.29903
G1 X170.392 Y129.136 E13.32334
G1 X170.333 Y130.113 E13.3559
G1 X170.31 Y130.329 E13.36312
G1 X170.173 Y131.24 E13.39376
G1 X169.831 Y132.544 E13.4386
G1 X169.765 Y132.743 E13.44557
G1 X169.438 Y133.603 E13.47617
G1 X168.813 Y134.826 E13.52186
G1 X168.694 Y135.026 E13.5296
G1 X168.19 Y135.796 E13.5602
G1 X167.62 Y136.519 E13.59083
G1 X167.171 Y137.009 E13.61293
G1 X167.009 Y137.175 E13.62065
G1 X166.338 Y137.806 E13.65128
G1 X165.615 Y138.375 E13.68188
G1 X164.845 Y138.88 E13.71251
G1 X163.917 Y139.372 E13.74744
G1 X163.509 Y139.563 E13.76243
G1 X162.659 Y139.917 E13.79305
G1 X161.782 Y140.196 E13.82366
G1 X160.883 Y140.397 E13.8543
G1 X159.971 Y140.52 E13.88491
G1 X159.325 Y140.558 E13.90643
G1 X157.818 Y140.598 E13.95657
G1 X131.362 Y140.599 E14.8365
G1 X130.661 Y140.589 E14.85982
G1 X129.56 Y140.516 E14.89652
G1 X128.511 Y140.389 E14.93166
G1 X127.187 Y140.206 E14.97612
G1 X124.669 Y139.928 E15.06038
G1 X122.158 Y139.724 E15.14417
G1 X119.638 Y139.59 E15.2281
G1 X117.098 Y139.529 E15.31261
G1 X114.582 Y139.537 E15.39629
G1 X112.037 Y139.618 E15.48098
G1 X109.533 Y139.769 E15.56442
G1 X107.016 Y139.993 E15.64846
G1 X103.766 Y140.385 E15.75734
G1 X103.166 Y140.468 E15.77749
G1 X101.964 Y140.566 E15.8176
G1 X100.504 Y140.598 E15.86617
G1 X74.081 Y140.599 E16.745
G1 X73.38 Y140.589 E16.76832
G1 X72.409 Y140.53 E16.80068
G1 X72.193 Y140.507 E16.8079
G1 X71.282 Y140.37 E16.83854
G1 X70.008 Y140.038 E16.88233
G1 X69.807 Y139.972 E16.88937
G1 X68.946 Y139.647 E16.91998
G1 X68.116 Y139.249 E16.95059
G1 X67.631 Y138.973 E16.96915
G1 X67.449 Y138.863 E16.97622
G1 X66.683 Y138.353 E17.00683
G1 X65.639 Y137.484 E17.05201
G1 X65.466 Y137.32 E17.05994
G1 X64.826 Y136.658 E17.09056
G1 X64.246 Y135.943 E17.12119
G1 X63.73 Y135.181 E17.15179
G1 X63.177 Y134.16 E17.19041
G1 X62.975 Y133.733 E17.20613
G1 X62.618 Y132.884 E17.23676
G1 X62.336 Y132.008 E17.26737
G1 X62.131 Y131.111 E17.29797
G1 X62.004 Y130.199 E17.3286
G1 X61.963 Y129.559 E17.34993
G1 X61.928 Y128.526 E17.3843
G1 X61.922 Y128.167 E17.39625
G1 X61.923 Y101.523 E18.28243
G1 X61.933 Y100.849 E18.30485
G1 X61.991 Y99.887 E18.3369
G1 X62.015 Y99.661 E18.34446
G1 X62.152 Y98.75 E18.3751
G1 X62.368 Y97.855 E18.40572
G1 X62.54 Y97.311 E18.4247
G1 X62.611 Y97.106 E18.43192
G1 X62.95 Y96.25 E18.46254
G1 X63.361 Y95.426 E18.49317
G1 X63.646 Y94.944 E18.51179
G1 X63.762 Y94.759 E18.51905
G1 X64.285 Y94.001 E18.54968
G1 X65.144 Y93 E18.59355
G1 X65.285 Y92.855 E18.60028
G1 X65.954 Y92.224 E18.63087
G1 X66.677 Y91.653 E18.66151
G1 X67.136 Y91.339 E18.68001
G1 X67.308 Y91.228 E18.68682
G1 X68.103 Y90.762 E18.71746
G1 X69.24 Y90.245 E18.75901
G1 X69.481 Y90.152 E18.7676
G1 X70.353 Y89.858 E18.79821
G1 X71.248 Y89.641 E18.82884
G1 X71.922 Y89.531 E18.85155
G1 X72.136 Y89.503 E18.85873
G1 X73.287 Y89.415 E18.89712
G1 X74.125 Y89.4 E18.925
G1 X100.967 Y89.401 E19.81777
G1 X101.665 Y89.411 E19.84099
G0 F6000 X101.671 Y89.011
G1 F1200 X102.81 Y89.087 E19.87895
G1 X103.903 Y89.218 E19.91557
G1 X105.298 Y89.41 E19.9624
G1 X107.792 Y89.68 E20.04584
G1 X110.316 Y89.883 E20.13006
G1 X112.815 Y90.013 E20.21329
G1 X115.33 Y90.071 E20.29696
G1 X117.851 Y90.059 E20.38081
G1 X120.374 Y89.975 E20.46477
G1 X122.871 Y89.821 E20.54798
G1 X125.408 Y89.593 E20.6327
G1 X127.905 Y89.297 E20.71633
G1 X129.283 Y89.114 E20.76257
G1 X130.44 Y89.022 E20.80117
G1 X131.411 Y89 E20.83347
G1 X158.254 Y89.001 E21.72628
G1 X158.952 Y89.011 E21.74949
G1 X159.941 Y89.07 E21.78245
G1 X160.17 Y89.094 E21.7901
G1 X161.097 Y89.231 E21.82127
G1 X162.01 Y89.447 E21.85248
G1 X162.657 Y89.652 E21.87505
G1 X162.857 Y89.722 E21.8821
G1 X163.728 Y90.069 E21.91328
G1 X164.927 Y90.698 E21.95831
G1 X165.115 Y90.812 E21.96563
G1 X165.895 Y91.332 E21.99681
G1 X166.628 Y91.917 E22.028
G1 X167.141 Y92.392 E22.05125
G1 X167.305 Y92.554 E22.05892
G1 X167.944 Y93.241 E22.09013
G1 X168.522 Y93.98 E22.12133
G1 X169.034 Y94.765 E22.1525
G1 X169.535 Y95.711 E22.18811
G1 X169.723 Y96.112 E22.20284
G1 X170.084 Y96.977 E22.23401
G1 X170.371 Y97.87 E22.26521
G1 X170.58 Y98.784 E22.29639
G1 X170.669 Y99.345 E22.31529
G1 X170.696 Y99.55 E22.32216
G1 X170.788 Y100.799 E22.36382
G1 X170.803 Y101.751 E22.39548
G1 X170.802 Y128.41 E23.28217
G1 X170.792 Y129.141 E23.30648
G1 X170.731 Y130.156 E23.3403
G1 X170.708 Y130.372 E23.34753
G1 X170.569 Y131.299 E23.3787
G1 X170.352 Y132.212 E23.40992
G1 X170.145 Y132.869 E23.43283
G1 X169.812 Y133.746 E23.46403
G1 X169.405 Y134.591 E23.49522
G1 X169.157 Y135.031 E23.51202
G1 X169.038 Y135.231 E23.51976
G1 X168.525 Y136.015 E23.55092
G1 X167.946 Y136.754 E23.58215
G1 X167.457 Y137.289 E23.60626
G1 X167.295 Y137.455 E23.61397
G1 X166.612 Y138.097 E23.64515
G1 X165.877 Y138.68 E23.67635
G1 X165.095 Y139.197 E23.70753
G1 X164.087 Y139.734 E23.74552
G1 X163.679 Y139.925 E23.7605
G1 X162.813 Y140.286 E23.79171
G1 X161.92 Y140.572 E23.82289
G1 X161.006 Y140.781 E23.85408
G1 X160.077 Y140.912 E23.88528
G1 X159.336 Y140.958 E23.90998
G1 X157.818 Y140.998 E23.96048
G1 X131.356 Y140.999 E24.84061
G1 X130.655 Y140.989 E24.86393
G1 X129.513 Y140.913 E24.902
G1 X128.456 Y140.785 E24.93741
G1 X127.156 Y140.605 E24.98106
G1 X124.633 Y140.327 E25.06548
G1 X122.138 Y140.124 E25.14874
G1 X119.607 Y139.99 E25.23304
G1 X117.089 Y139.929 E25.31681
G1 X114.561 Y139.938 E25.4009
G1 X112.074 Y140.017 E25.48366
G1 X109.556 Y140.168 E25.56756
G1 X107.069 Y140.389 E25.6506
G1 X103.868 Y140.775 E25.75784
G1 X103.221 Y140.865 E25.77956
G1 X101.973 Y140.966 E25.82121
G1 X100.504 Y140.998 E25.87008
G1 X74.075 Y140.999 E26.74911
G1 X73.374 Y140.989 E26.77243
G1 X72.366 Y140.928 E26.80602
G1 X72.15 Y140.905 E26.81324
G1 X71.223 Y140.766 E26.84442
G1 X69.883 Y140.418 E26.89046
G1 X69.682 Y140.352 E26.8975
G1 X68.805 Y140.022 E26.92867
G1 X67.958 Y139.618 E26.95988
G1 X67.424 Y139.315 E26.9803
G1 X67.242 Y139.205 E26.98737
G1 X66.461 Y138.686 E27.01856
G1 X65.727 Y138.103 E27.04974
G1 X65.364 Y137.774 E27.06603
G1 X65.191 Y137.61 E27.07396
G1 X64.539 Y136.936 E27.10515
G1 X63.946 Y136.21 E27.13633
G1 X63.417 Y135.435 E27.16754
G1 X62.816 Y134.331 E27.20935
G1 X62.614 Y133.904 E27.22506
G1 X62.249 Y133.04 E27.25625
G1 X61.959 Y132.148 E27.28745
G1 X61.747 Y131.234 E27.31866
G1 X61.613 Y130.306 E27.34984
G1 X61.563 Y129.572 E27.37431
G1 X61.528 Y128.539 E27.40869
G1 X61.522 Y128.167 E27.42106
G1 X61.523 Y101.517 E28.30745
G1 X61.533 Y100.843 E28.32987
G1 X61.594 Y99.844 E28.36315
G1 X61.618 Y99.618 E28.37071
G1 X61.756 Y98.691 E28.40188
G1 X61.973 Y97.778 E28.4331
G1 X62.162 Y97.18 E28.45396
G1 X62.233 Y96.975 E28.46117
G1 X62.577 Y96.103 E28.49235
G1 X62.995 Y95.263 E28.52356
G1 X63.308 Y94.731 E28.54409
G1 X63.424 Y94.546 E28.55135
G1 X63.955 Y93.774 E28.58251
G1 X64.857 Y92.721 E28.62863
G1 X64.998 Y92.576 E28.63536
G1 X65.68 Y91.932 E28.66655
G1 X66.414 Y91.349 E28.69773
G1 X66.919 Y91.003 E28.71809
G1 X67.091 Y90.892 E28.7249
G1 X67.9 Y90.417 E28.7561
G1 X69.096 Y89.872 E28.79982
G1 X69.337 Y89.779 E28.80841
G1 X70.225 Y89.479 E28.83958
G1 X71.136 Y89.255 E28.87079
G1 X71.87 Y89.134 E28.89553
G1 X72.084 Y89.106 E28.90271
G1 X73.278 Y89.015 E28.94254
G1 X74.125 Y89 E28.97071
G1 X100.973 Y89.001 E29.86368
G1 X101.671 Y89.011 E29.8869
G1 F2700 E24.8869
;MESH:AcrylicHolder_v4_3mm_Plexi_v5.stl(1)
G0 F6000 X89 Y106.214
G0 X90.105 Y105.263
G0 X90.555 Y107.064
G0 X90.555 Y107.936
G0 X90.31 Y108.772
G0 X89.84 Y109.507
G0 X89.466 Y109.83
G0 X88.43 Y110.596
;TYPE:WALL-INNER
G1 F2700 E29.8869
G1 F1200 X88.861 Y110.435 E29.9022
G1 X89.265 Y110.215 E29.9175
G1 X89.634 Y109.939 E29.93283
G1 X89.961 Y109.612 E29.94821
G1 X90.237 Y109.243 E29.96353
G1 X90.457 Y108.84 E29.9788
G1 X90.618 Y108.409 E29.99411
G1 X90.715 Y107.959 E30.00942
G1 X90.749 Y107.5 E30.02473
G1 X90.715 Y107.041 E30.04003
G1 X90.618 Y106.591 E30.05535
G1 X90.457 Y106.16 E30.07065
G1 X90.237 Y105.757 E30.08592
G1 X89.961 Y105.388 E30.10125
G1 X89.634 Y105.061 E30.11663
G1 X89.265 Y104.785 E30.13195
G1 X88.861 Y104.565 E30.14725
G1 X88.43 Y104.404 E30.16256
G1 X87.98 Y104.307 E30.17787
G1 X87.522 Y104.273 E30.19314
G1 X87.063 Y104.307 E30.20845
G1 X86.614 Y104.404 E30.22373
G1 X86.18 Y104.565 E30.23912
G1 X85.778 Y104.786 E30.25438
G1 X85.41 Y105.061 E30.26966
G1 X85.083 Y105.388 E30.28504
G1 X84.807 Y105.757 E30.30037
G1 X84.587 Y106.16 E30.31564
G1 X84.426 Y106.591 E30.33094
G1 X84.329 Y107.041 E30.34625
G1 X84.295 Y107.5 E30.36156
G1 X84.329 Y107.959 E30.37687
G1 X84.426 Y108.409 E30.39218
G1 X84.587 Y108.84 E30.40748
G1 X84.807 Y109.243 E30.42275
G1 X85.083 Y109.612 E30.43808
G1 X85.41 Y109.939 E30.45346
G1 X85.778 Y110.214 E30.46874
G1 X86.18 Y110.435 E30.484
G1 X86.614 Y110.596 E30.4994
G1 X87.063 Y110.693 E30.51467
G1 X87.522 Y110.727 E30.52998
G1 X87.98 Y110.693 E30.54526
G1 X88.43 Y110.596 E30.56057
G0 F6000 X88.317 Y110.211
;TYPE:WALL-OUTER
G1 F1200 X88.695 Y110.07 E30.57399
G1 X89.049 Y109.877 E30.5874
G1 X89.372 Y109.636 E30.6008
G1 X89.658 Y109.35 E30.61425
G1 X89.899 Y109.027 E30.62766
G1 X90.092 Y108.673 E30.64107
G1 X90.233 Y108.296 E30.65445
G1 X90.318 Y107.902 E30.66786
G1 X90.348 Y107.5 E30.68127
G1 X90.318 Y107.098 E30.69468
G1 X90.233 Y106.704 E30.70808
G1 X90.092 Y106.327 E30.72147
G1 X89.899 Y105.973 E30.73488
G1 X89.658 Y105.65 E30.74828
G1 X89.372 Y105.364 E30.76174
G1 X89.049 Y105.123 E30.77514
G1 X88.695 Y104.93 E30.78855
G1 X88.317 Y104.789 E30.80197
G1 X87.923 Y104.704 E30.81537
G1 X87.522 Y104.674 E30.82875
G1 X87.12 Y104.704 E30.84216
G1 X86.726 Y104.789 E30.85556
G1 X86.347 Y104.93 E30.86901
G1 X85.995 Y105.123 E30.88236
G1 X85.672 Y105.364 E30.89577
G1 X85.386 Y105.65 E30.90922
G1 X85.145 Y105.973 E30.92263
G1 X84.952 Y106.327 E30.93604
G1 X84.811 Y106.704 E30.94942
G1 X84.726 Y107.098 E30.96283
G1 X84.696 Y107.5 E30.97624
G1 X84.726 Y107.902 E30.98964
G1 X84.811 Y108.296 E31.00305
G1 X84.952 Y108.673 E31.01644
G1 X85.145 Y109.027 E31.02985
G1 X85.386 Y109.35 E31.04325
G1 X85.672 Y109.636 E31.0567
G1 X85.995 Y109.877 E31.07011
