;FLAVOR:Marlin
;TIME:19674
;Filament used: 16.3062m
;Layer height: 0.2
;MINX:43.359
;MINY:80.421
;MINZ:0.2
;MAXX:175.976
;MAXY:162.357
;MAXZ:61.6
;Generated with Cura_SteamEngine 4.6.1
M140 S55
M105
M190 S55
M104 S210
M105
M109 S210
M82 ;absolute extrusion mode
; Ender 3 Custom Start G-code
G92 E0 ; Reset Extruder
G28 ; Home all axes
G1 Z2.0 F3000 ; Move Z Axis up little to prevent scratching of Heat Bed
G1 X0.1 Y20 Z0.3 F5000.0 ; Move to start position
G1 X0.1 Y200.0 Z0.3 F1500.0 E15 ; Draw the first line
G1 X0.4 Y200.0 Z0.3 F5000.0 ; Move to side a little
G1 X0.4 Y20 Z0.3 F1500.0 E30 ; Draw the second line
G92 E0 ; Reset Extruder
G1 Z2.0 F3000 ; Move Z Axis up little to prevent scratching of Heat Bed
G1 X5 Y20 Z0.3 F5000.0 ; Move over to prevent blob squish
G92 E0
G92 E0
G1 F2700 E-5
;LAYER_COUNT:308
;LAYER:0
M107
G0 F6000 X76.151 Y130.921 Z0.2
;TYPE:SKIRT
G1 F2700 E0
G1 F1200 X77.839 Y130.646 E0.05688
G1 X80.639 Y130.161 E0.1514
G1 X83.162 Y129.688 E0.23678
G1 X85.674 Y129.143 E0.32227
G1 X87.396 Y128.727 E0.38119
G1 X90.022 Y128.066 E0.47126
G1 X92.579 Y127.383 E0.55928
G1 X95.039 Y126.652 E0.64464
G1 X96.681 Y126.122 E0.70203
G1 X99.33 Y125.238 E0.79491
G1 X101.807 Y124.372 E0.88219
G1 X104.218 Y123.453 E0.968
G1 X105.81 Y122.802 E1.02521
G1 X108.34 Y121.739 E1.11648
G1 X110.776 Y120.674 E1.20491
G1 X113.067 Y119.596 E1.28912
G1 X114.604 Y118.827 E1.34628
G1 X117.085 Y117.557 E1.43899
G1 X119.412 Y116.325 E1.52656
G1 X121.617 Y115.076 E1.61085
G1 X123.085 Y114.198 E1.66774
G1 X125.528 Y112.706 E1.76295
G1 X127.701 Y111.336 E1.84839
G1 X129.836 Y109.903 E1.93391
G1 X131.239 Y108.914 E1.991
G1 X133.539 Y107.258 E2.08527
G1 X135.612 Y105.72 E2.17112
G1 X137.674 Y104.097 E2.2584
G1 X138.952 Y103.042 E2.31352
G1 X141.054 Y101.274 E2.40487
G1 X143.056 Y99.54 E2.49296
G1 X144.945 Y97.809 E2.57818
G1 X146.202 Y96.602 E2.63614
G1 X148.188 Y94.657 E2.7286
G1 X150.037 Y92.791 E2.81597
G1 X151.794 Y90.92 E2.90134
G1 X152.93 Y89.65 E2.95801
G1 X156.921 Y85.106 E3.15916
G1 X157.417 Y84.56 E3.1837
G1 X158.053 Y83.92 E3.21371
G1 X158.744 Y83.337 E3.24378
G1 X159.483 Y82.819 E3.27379
G1 X160.265 Y82.367 E3.30383
G1 X161.084 Y81.987 E3.33386
G1 X161.934 Y81.68 E3.36392
G1 X162.807 Y81.45 E3.39395
G1 X163.697 Y81.298 E3.42398
G1 X164.598 Y81.226 E3.45404
G1 X165.501 Y81.233 E3.48408
G1 X166.4 Y81.32 E3.51412
G1 X167.287 Y81.486 E3.54413
G1 X168.157 Y81.731 E3.57419
G1 X169.001 Y82.051 E3.60421
G1 X169.814 Y82.444 E3.63425
G1 X170.589 Y82.908 E3.66429
G1 X171.32 Y83.439 E3.69434
G1 X172.001 Y84.032 E3.72438
G1 X172.626 Y84.683 E3.75439
G1 X173.192 Y85.387 E3.78444
G1 X173.694 Y86.138 E3.81448
G1 X174.126 Y86.931 E3.84452
G1 X174.488 Y87.758 E3.87454
G1 X174.774 Y88.615 E3.90459
G1 X174.984 Y89.493 E3.93462
G1 X175.115 Y90.387 E3.96467
G1 X175.163 Y91.119 E3.98907
G1 X175.174 Y91.657 E4.00697
G1 X175.176 Y150.621 E5.96812
G1 X175.166 Y151.474 E5.99649
G1 X175.115 Y152.376 E6.02654
G1 X174.984 Y153.27 E6.05659
G1 X174.775 Y154.148 E6.08661
G1 X174.489 Y155.005 E6.11666
G1 X174.128 Y155.833 E6.1467
G1 X173.696 Y156.625 E6.17671
G1 X173.195 Y157.377 E6.20676
G1 X172.629 Y158.081 E6.2368
G1 X172.004 Y158.732 E6.26682
G1 X171.323 Y159.326 E6.29688
G1 X170.592 Y159.857 E6.32693
G1 X169.818 Y160.321 E6.35694
G1 X169.005 Y160.715 E6.38699
G1 X168.161 Y161.035 E6.41701
G1 X167.291 Y161.28 E6.44707
G1 X166.404 Y161.446 E6.47709
G1 X165.253 Y161.544 E6.51551
G1 X164.646 Y161.557 E6.5357
G1 X55.066 Y161.557 E10.18035
G1 X54.236 Y161.547 E10.20796
G1 X53.335 Y161.496 E10.23797
G1 X52.441 Y161.364 E10.26803
G1 X51.563 Y161.155 E10.29805
G1 X50.706 Y160.868 E10.32811
G1 X49.879 Y160.507 E10.35812
G1 X49.086 Y160.074 E10.38817
G1 X48.335 Y159.573 E10.4182
G1 X47.631 Y159.007 E10.44824
G1 X46.98 Y158.381 E10.47828
G1 X46.387 Y157.7 E10.50831
G1 X45.857 Y156.969 E10.53834
G1 X45.393 Y156.194 E10.56839
G1 X44.999 Y155.381 E10.59844
G1 X44.679 Y154.537 E10.62846
G1 X44.435 Y153.667 E10.65851
G1 X44.269 Y152.779 E10.68856
G1 X44.172 Y151.624 E10.72711
G1 X44.159 Y151.015 E10.74737
G1 X44.16 Y143.112 E11.01022
G1 X44.169 Y142.423 E11.03314
G1 X44.221 Y141.521 E11.06319
G1 X44.352 Y140.628 E11.09321
G1 X44.562 Y139.749 E11.12327
G1 X44.848 Y138.893 E11.15329
G1 X45.21 Y138.065 E11.18334
G1 X45.643 Y137.273 E11.21336
G1 X46.144 Y136.522 E11.24339
G1 X46.71 Y135.818 E11.27344
G1 X47.336 Y135.167 E11.30347
G1 X48.018 Y134.574 E11.33353
G1 X48.749 Y134.044 E11.36356
G1 X49.523 Y133.58 E11.39358
G1 X50.336 Y133.187 E11.42361
G1 X51.181 Y132.867 E11.45367
G1 X52.051 Y132.623 E11.48372
G1 X52.938 Y132.457 E11.51373
G1 X54.262 Y132.357 E11.55789
G1 X55.703 Y132.342 E11.60582
G1 X61.383 Y132.225 E11.79478
G1 X64 Y132.133 E11.88188
G1 X66.56 Y131.972 E11.96719
G1 X68.271 Y131.823 E12.02432
G1 X71.027 Y131.559 E12.1164
G1 X73.599 Y131.275 E12.20246
G1 X76.151 Y130.921 E12.28816
G1 F2700 E7.28816
G0 F6000 X167.169 Y81.05
G1 F2700 E12.28816
G1 F1200 X168.06 Y81.28 E12.31876
G1 X168.928 Y81.587 E12.34939
G1 X169.766 Y81.968 E12.38
G1 X170.568 Y82.42 E12.41062
G1 X171.328 Y82.94 E12.44125
G1 X172.04 Y83.524 E12.47188
G1 X172.698 Y84.167 E12.50248
G1 X173.298 Y84.866 E12.53312
G1 X173.836 Y85.613 E12.56374
G1 X174.306 Y86.405 E12.59437
G1 X174.706 Y87.234 E12.62498
G1 X175.032 Y88.095 E12.6556
G1 X175.283 Y88.981 E12.68623
G1 X175.455 Y89.885 E12.71684
G1 X175.562 Y91.107 E12.75764
G1 X175.574 Y91.657 E12.77593
G1 X175.576 Y150.621 E14.73709
G1 X175.566 Y151.479 E14.76562
G1 X175.515 Y152.398 E14.79624
G1 X175.384 Y153.31 E14.82688
G1 X175.174 Y154.206 E14.85749
G1 X174.888 Y155.081 E14.88811
G1 X174.527 Y155.928 E14.91873
G1 X174.093 Y156.74 E14.94935
G1 X173.591 Y157.512 E14.97998
G1 X173.023 Y158.237 E15.01062
G1 X172.395 Y158.91 E15.04123
G1 X171.711 Y159.526 E15.07185
G1 X170.976 Y160.08 E15.10246
G1 X170.196 Y160.569 E15.13308
G1 X169.376 Y160.988 E15.16371
G1 X168.523 Y161.334 E15.19432
G1 X167.643 Y161.605 E15.22495
G1 X166.743 Y161.798 E15.25556
G1 X165.829 Y161.913 E15.2862
G1 X165.264 Y161.944 E15.30502
G1 X164.646 Y161.957 E15.32558
G1 X55.066 Y161.957 E18.97023
G1 X54.231 Y161.947 E18.998
G1 X53.312 Y161.895 E19.02862
G1 X52.401 Y161.764 E19.05923
G1 X51.505 Y161.554 E19.08984
G1 X50.63 Y161.267 E19.12047
G1 X49.783 Y160.905 E19.1511
G1 X48.971 Y160.471 E19.18172
G1 X48.2 Y159.969 E19.21232
G1 X47.475 Y159.401 E19.24296
G1 X46.802 Y158.772 E19.2736
G1 X46.187 Y158.088 E19.30419
G1 X45.633 Y157.353 E19.3348
G1 X45.145 Y156.572 E19.36543
G1 X44.726 Y155.752 E19.39606
G1 X44.38 Y154.899 E19.42668
G1 X44.11 Y154.019 E19.45729
G1 X43.917 Y153.118 E19.48794
G1 X43.803 Y152.205 E19.51854
G1 X43.772 Y151.634 E19.53756
G1 X43.759 Y151.015 E19.55815
G1 X43.76 Y143.107 E19.82117
G1 X43.769 Y142.418 E19.84409
G1 X43.821 Y141.498 E19.87474
G1 X43.952 Y140.587 E19.90535
G1 X44.163 Y139.691 E19.93597
G1 X44.45 Y138.816 E19.9666
G1 X44.812 Y137.97 E19.9972
G1 X45.246 Y137.158 E20.02782
G1 X45.748 Y136.386 E20.05845
G1 X46.316 Y135.662 E20.08906
G1 X46.945 Y134.989 E20.1197
G1 X47.63 Y134.374 E20.15032
G1 X48.365 Y133.82 E20.18093
G1 X49.146 Y133.332 E20.21156
G1 X49.966 Y132.913 E20.24219
G1 X50.819 Y132.568 E20.27279
G1 X51.699 Y132.297 E20.30342
G1 X52.599 Y132.105 E20.33402
G1 X53.513 Y131.991 E20.36466
G1 X54.258 Y131.957 E20.38946
G1 X55.695 Y131.942 E20.43726
G1 X61.361 Y131.825 E20.62575
G1 X63.997 Y131.733 E20.71348
G1 X66.54 Y131.572 E20.79823
G1 X68.141 Y131.433 E20.85168
G1 X71.012 Y131.158 E20.94761
G1 X73.572 Y130.875 E21.03327
G1 X76.07 Y130.529 E21.11715
G1 X77.805 Y130.246 E21.17562
G1 X80.587 Y129.764 E21.26953
G1 X83.068 Y129.299 E21.35348
G1 X85.623 Y128.745 E21.44043
G1 X87.235 Y128.355 E21.4956
G1 X89.967 Y127.667 E21.5893
G1 X92.467 Y127 E21.67536
G1 X94.929 Y126.268 E21.76079
G1 X96.558 Y125.742 E21.81772
G1 X99.198 Y124.861 E21.91029
G1 X101.65 Y124.004 E21.99668
G1 X104.073 Y123.08 E22.08293
G1 X105.633 Y122.441 E22.139
G1 X108.233 Y121.349 E22.2328
G1 X110.581 Y120.323 E22.31802
G1 X112.913 Y119.225 E22.40375
G1 X114.422 Y118.471 E22.45986
G1 X116.923 Y117.191 E22.5533
G1 X119.207 Y115.981 E22.63927
G1 X121.408 Y114.735 E22.72339
G1 X122.933 Y113.823 E22.78249
G1 X125.262 Y112.401 E22.87325
G1 X127.495 Y110.993 E22.96105
G1 X129.595 Y109.584 E23.04517
G1 X131.079 Y108.537 E23.10557
G1 X133.26 Y106.966 E23.19497
G1 X135.394 Y105.383 E23.28334
G1 X137.386 Y103.816 E23.36764
G1 X138.734 Y102.703 E23.42578
G1 X140.818 Y100.95 E23.51636
G1 X142.788 Y99.243 E23.60306
G1 X144.68 Y97.51 E23.68839
G1 X145.88 Y96.357 E23.74374
G1 X147.941 Y94.339 E23.83968
G1 X149.727 Y92.537 E23.92407
G1 X151.507 Y90.64 E24.01059
G1 X152.661 Y89.35 E24.06816
G1 X156.625 Y84.838 E24.26791
G1 X157.121 Y84.292 E24.29245
G1 X157.769 Y83.638 E24.32307
G1 X158.471 Y83.042 E24.3537
G1 X159.223 Y82.51 E24.38434
G1 X160.017 Y82.046 E24.41492
G1 X160.85 Y81.651 E24.44559
G1 X161.713 Y81.331 E24.4762
G1 X162.6 Y81.087 E24.5068
G1 X163.506 Y80.92 E24.53744
G1 X164.422 Y80.833 E24.56804
G1 X165.343 Y80.826 E24.59868
G1 X166.261 Y80.898 E24.6293
G1 X167.169 Y81.05 E24.65992
G0 F6000 X167.045 Y80.617
G1 F1200 X167.958 Y80.833 E24.69113
G1 X168.849 Y81.127 E24.72233
G1 X169.712 Y81.495 E24.75354
G1 X170.54 Y81.935 E24.78472
G1 X171.327 Y82.444 E24.8159
G1 X172.069 Y83.019 E24.84712
G1 X172.758 Y83.654 E24.87828
G1 X173.392 Y84.346 E24.9095
G1 X173.963 Y85.089 E24.94067
G1 X174.47 Y85.879 E24.97189
G1 X174.907 Y86.708 E25.00306
G1 X175.272 Y87.572 E25.03425
G1 X175.563 Y88.464 E25.06546
G1 X175.776 Y89.377 E25.09664
G1 X175.91 Y90.306 E25.12786
G1 X175.962 Y91.096 E25.15419
G1 X175.974 Y91.657 E25.17285
G1 X175.976 Y150.621 E27.13401
G1 X175.966 Y151.484 E27.16271
G1 X175.915 Y152.421 E27.19392
G1 X175.783 Y153.349 E27.2251
G1 X175.574 Y154.263 E27.25628
G1 X175.287 Y155.156 E27.28748
G1 X174.925 Y156.022 E27.3187
G1 X174.491 Y156.853 E27.34988
G1 X173.987 Y157.644 E27.38108
G1 X173.418 Y158.389 E27.41225
G1 X172.787 Y159.084 E27.44348
G1 X172.1 Y159.722 E27.47466
G1 X171.361 Y160.299 E27.50584
G1 X170.575 Y160.811 E27.53704
G1 X169.749 Y161.254 E27.56822
G1 X168.887 Y161.626 E27.59944
G1 X167.998 Y161.922 E27.63061
G1 X167.086 Y162.142 E27.66181
G1 X166.159 Y162.283 E27.693
G1 X165.275 Y162.344 E27.72247
G1 X164.646 Y162.357 E27.7434
G1 X55.066 Y162.357 E31.38804
G1 X54.226 Y162.347 E31.41598
G1 X53.29 Y162.295 E31.44716
G1 X52.361 Y162.163 E31.47837
G1 X51.447 Y161.953 E31.50956
G1 X50.554 Y161.666 E31.54076
G1 X49.689 Y161.303 E31.57196
G1 X48.858 Y160.869 E31.60314
G1 X48.067 Y160.365 E31.63434
G1 X47.322 Y159.795 E31.66554
G1 X46.628 Y159.164 E31.69673
G1 X45.991 Y158.477 E31.72789
G1 X45.414 Y157.737 E31.7591
G1 X44.902 Y156.951 E31.7903
G1 X44.459 Y156.124 E31.82151
G1 X44.088 Y155.263 E31.85269
G1 X43.792 Y154.373 E31.88389
G1 X43.573 Y153.461 E31.91508
G1 X43.432 Y152.534 E31.94627
G1 X43.372 Y151.645 E31.9759
G1 X43.359 Y151.015 E31.99686
G1 X43.36 Y143.101 E32.26008
G1 X43.369 Y142.412 E32.283
G1 X43.421 Y141.476 E32.31418
G1 X43.553 Y140.547 E32.34539
G1 X43.763 Y139.633 E32.37658
G1 X44.051 Y138.741 E32.40776
G1 X44.413 Y137.876 E32.43895
G1 X44.848 Y137.045 E32.47014
G1 X45.352 Y136.254 E32.50134
G1 X45.922 Y135.509 E32.53254
G1 X46.553 Y134.815 E32.56373
G1 X47.241 Y134.177 E32.59494
G1 X47.98 Y133.601 E32.62611
G1 X48.766 Y133.089 E32.6573
G1 X49.593 Y132.646 E32.68851
G1 X50.455 Y132.276 E32.71971
G1 X51.345 Y131.98 E32.7509
G1 X52.257 Y131.761 E32.7821
G1 X53.184 Y131.62 E32.81329
G1 X54.254 Y131.557 E32.84894
G1 X55.687 Y131.542 E32.8966
G1 X61.408 Y131.424 E33.08692
G1 X63.958 Y131.334 E33.17179
G1 X66.482 Y131.175 E33.2559
G1 X68.148 Y131.031 E33.31152
G1 X70.928 Y130.764 E33.40441
G1 X73.509 Y130.479 E33.49078
G1 X76.037 Y130.129 E33.57566
G1 X77.772 Y129.846 E33.63413
G1 X80.442 Y129.384 E33.72425
G1 X83.022 Y128.9 E33.81156
G1 X85.522 Y128.357 E33.89665
G1 X87.141 Y127.966 E33.95205
G1 X89.83 Y127.289 E34.04427
G1 X92.364 Y126.613 E34.1315
G1 X94.819 Y125.882 E34.2167
G1 X96.403 Y125.371 E34.27206
G1 X99.087 Y124.476 E34.36616
G1 X101.543 Y123.617 E34.4527
G1 X103.92 Y122.711 E34.53731
G1 X105.463 Y122.079 E34.59276
G1 X108.067 Y120.985 E34.68671
G1 X110.43 Y119.953 E34.77247
G1 X112.726 Y118.872 E34.85688
G1 X114.289 Y118.09 E34.915
G1 X116.705 Y116.854 E35.00527
G1 X119.029 Y115.623 E35.09274
G1 X121.218 Y114.383 E35.17641
G1 X122.7 Y113.497 E35.23384
G1 X125.077 Y112.045 E35.32648
G1 X127.24 Y110.681 E35.41154
G1 X129.382 Y109.244 E35.49733
G1 X130.822 Y108.228 E35.55594
G1 X133.074 Y106.607 E35.64823
G1 X135.155 Y105.063 E35.73441
G1 X137.124 Y103.514 E35.81774
G1 X138.439 Y102.428 E35.87446
G1 X140.581 Y100.626 E35.96756
G1 X142.501 Y98.963 E36.05205
G1 X144.414 Y97.21 E36.13835
G1 X145.677 Y95.997 E36.19659
G1 X147.625 Y94.088 E36.28731
G1 X149.47 Y92.228 E36.37444
G1 X151.2 Y90.384 E36.45854
G1 X152.3 Y89.154 E36.51343
G1 X156.329 Y84.569 E36.71643
G1 X156.825 Y84.023 E36.74097
G1 X157.485 Y83.356 E36.77218
G1 X158.199 Y82.748 E36.80337
G1 X158.962 Y82.203 E36.83456
G1 X159.769 Y81.725 E36.86575
G1 X160.613 Y81.317 E36.89693
G1 X161.49 Y80.983 E36.92814
G1 X162.391 Y80.725 E36.95932
G1 X163.312 Y80.544 E36.99054
G1 X164.244 Y80.443 E37.02172
G1 X165.182 Y80.421 E37.05292
G1 X166.118 Y80.479 E37.08411
G1 X167.045 Y80.617 E37.11528
G1 F2700 E32.11528
;MESH:Object 2
G0 F6000 X163.764 Y91.765
G0 X164.569 Y92.471
G0 X164.376 Y150.757
;TYPE:WALL-INNER
G1 F2700 E37.11528
G1 F1200 X54.959 Y150.757 E40.75451
G1 X54.959 Y143.159 E41.00722
G1 X65.452 Y142.944 E41.35629
G1 X75.912 Y141.939 E41.70579
G1 X86.264 Y140.151 E42.0552
G1 X96.455 Y137.581 E42.40477
G1 X106.424 Y134.257 E42.75428
G1 X116.113 Y130.187 E43.10382
G1 X125.466 Y125.4 E43.45328
G1 X134.432 Y119.922 E43.80274
G1 X142.962 Y113.782 E44.15231
G1 X151.004 Y107.015 E44.50188
G1 X158.511 Y99.664 E44.85134
G1 X158.585 Y99.58 E44.85506
G1 X164.027 Y93.381 E45.12942
G1 X164.376 Y92.984 E45.147
G1 X164.376 Y93.512 E45.15635
G1 X164.376 Y93.513 E45.15638
G1 X164.376 Y150.757 E47.06032
G0 F6000 X164.776 Y151.157
;TYPE:WALL-OUTER
G1 F1200 X54.559 Y151.157 E50.72615
G1 X54.559 Y142.751 E51.00574
G1 X54.957 Y142.759 E51.01898
G1 X65.429 Y142.544 E51.36735
G1 X75.859 Y141.542 E51.71585
G1 X86.181 Y139.759 E52.06425
G1 X96.343 Y137.197 E52.41281
G1 X106.283 Y133.882 E52.76132
G1 X115.944 Y129.824 E53.10984
G1 X125.27 Y125.051 E53.45829
G1 X134.211 Y119.589 E53.80677
G1 X142.716 Y113.466 E54.15533
G1 X150.735 Y106.719 E54.50389
G1 X158.22 Y99.389 E54.85233
G1 X158.284 Y99.316 E54.85556
G1 X164.776 Y91.922 E55.18283
G1 X164.776 Y151.157 E57.15299
G0 F6000 X164.506 Y150.887
G0 X164.266 Y150.367
G0 X163.986 Y150.367
;TYPE:SKIN
G1 F1200 X55.349 Y150.367 E60.76627
G1 X55.349 Y143.541 E60.99331
G1 X65.475 Y143.334 E61.33017
G1 X75.964 Y142.325 E61.68064
G1 X86.345 Y140.533 E62.03102
G1 X96.564 Y137.955 E62.38156
G1 X106.561 Y134.622 E62.73205
G1 X116.277 Y130.54 E63.08257
G1 X125.657 Y125.741 E63.43301
G1 X134.648 Y120.247 E63.78346
G1 X143.202 Y114.09 E64.13401
G1 X151.267 Y107.304 E64.48457
G1 X158.794 Y99.933 E64.83497
G1 X158.878 Y99.837 E64.83921
G1 X163.986 Y94.019 E65.09672
G1 X163.986 Y150.367 E66.97086
G1 F2700 E61.97086
G0 F6000 X164.266 Y150.367
G0 X164.18 Y93.505
G0 X163.324 Y94.35
G0 X163.653 Y94.639
G1 F2700 E66.97086
G1 F1200 X163.825 Y94.811 E66.97895
G0 F6000 X163.389 Y94.941
G1 F1200 X163.825 Y95.377 E66.99946
G0 F6000 X163.825 Y95.943
G1 F1200 X163.124 Y95.242 E67.03243
G0 F6000 X162.86 Y95.543
G1 F1200 X163.825 Y96.508 E67.07782
G0 F6000 X163.825 Y97.074
G1 F1200 X162.595 Y95.844 E67.13568
G0 F6000 X162.331 Y96.146
G1 F1200 X163.825 Y97.64 E67.20595
G0 F6000 X163.825 Y98.205
G1 F1200 X162.066 Y96.447 E67.28866
G0 F6000 X161.802 Y96.748
G1 F1200 X163.825 Y98.771 E67.38382
G0 F6000 X163.825 Y99.337
G1 F1200 X161.537 Y97.049 E67.49144
G0 F6000 X161.273 Y97.35
G1 F1200 X163.825 Y99.902 E67.61148
G0 F6000 X163.825 Y100.468
G1 F1200 X161.008 Y97.652 E67.74396
G0 F6000 X160.744 Y97.953
G1 F1200 X163.825 Y101.034 E67.88888
G0 F6000 X163.825 Y101.599
G1 F1200 X160.48 Y98.254 E68.04622
G0 F6000 X160.215 Y98.555
G1 F1200 X163.825 Y102.165 E68.21602
G0 F6000 X163.825 Y102.731
