;FLAVOR:Marlin
;TIME:6250
;Filament used: 3.09631m
;Layer height: 0.2
;MINX:64.014
;MINY:67.194
;MINZ:0.2
;MAXX:165.987
;MAXY:162.811
;MAXZ:84.8
;Generated with Cura_SteamEngine 4.6.1
M140 S50
M105
M190 S50
M104 S200
M105
M109 S200
M82 ;absolute extrusion mode
; Ender 3 Custom Start G-code
G92 E0 ; Reset Extruder
G28 ; Home all axes
G1 Z2.0 F3000 ; Move Z Axis up little to prevent scratching of Heat Bed
G1 X0.1 Y20 Z0.3 F5000.0 ; Move to start position
G1 X0.1 Y200.0 Z0.3 F1500.0 E15 ; Draw the first line
G1 X0.4 Y200.0 Z0.3 F5000.0 ; Move to side a little
G1 X0.4 Y20 Z0.3 F1500.0 E30 ; Draw the second line
G92 E0 ; Reset Extruder
G1 Z2.0 F3000 ; Move Z Axis up little to prevent scratching of Heat Bed
G1 X5 Y20 Z0.3 F5000.0 ; Move over to prevent blob squish
G92 E0
G92 E0
G1 F2700 E-5
;LAYER_COUNT:424
;LAYER:0
M107
G0 F6000 X96.307 Y68.185 Z0.2
;TYPE:SKIRT
G1 F2700 E0
G1 F1200 X98.934 Y68.7 E0.08904
G1 X101.418 Y69.114 E0.1728
G1 X103.981 Y69.467 E0.25885
G1 X106.482 Y69.739 E0.34252
G1 X109.023 Y69.944 E0.42731
G1 X111.551 Y70.075 E0.5115
G1 X114.086 Y70.135 E0.59584
G1 X116.653 Y70.125 E0.68122
G1 X119.149 Y70.042 E0.76428
G1 X121.724 Y69.885 E0.85009
G1 X124.236 Y69.66 E0.93397
G1 X126.753 Y69.362 E1.01827
G1 X129.252 Y68.995 E1.10228
G1 X131.768 Y68.552 E1.18725
G1 X132.267 Y68.449 E1.2042
G1 X133.632 Y68.187 E1.25043
G1 X134.526 Y68.056 E1.28048
G1 X135.377 Y68.006 E1.30883
G1 X135.835 Y67.998 E1.32407
G1 X136.738 Y68.022 E1.35411
G1 X137.811 Y68.156 E1.39008
G1 X138.414 Y68.264 E1.41045
G1 X139.295 Y68.462 E1.44048
G1 X140.155 Y68.738 E1.47053
G1 X140.789 Y68.997 E1.4933
G1 X141.302 Y69.227 E1.512
G1 X142.19 Y69.678 E1.54513
G1 X142.393 Y69.794 E1.5529
G1 X143.177 Y70.291 E1.58378
G1 X143.687 Y70.649 E1.6045
G1 X144.843 Y71.481 E1.65188
G1 X145.287 Y71.809 E1.67024
G1 X145.556 Y72.015 E1.6815
G1 X146.57 Y72.819 E1.72455
G1 X147.47 Y73.562 E1.76336
G1 X148.122 Y74.12 E1.79191
G1 X148.919 Y74.841 E1.82765
G1 X149.896 Y75.759 E1.87224
G1 X150.232 Y76.084 E1.88779
G1 X150.468 Y76.32 E1.89889
G1 X151.415 Y77.3 E1.94422
G1 X152.145 Y78.08 E1.97975
G1 X152.522 Y78.494 E1.99837
G1 X152.75 Y78.754 E2.00987
G1 X153.513 Y79.654 E2.04912
G1 X154.578 Y80.967 E2.10535
G1 X154.786 Y81.237 E2.11668
G1 X155.618 Y82.358 E2.16311
G1 X156.247 Y83.24 E2.19915
G1 X156.526 Y83.642 E2.21542
G1 X156.71 Y83.917 E2.22643
G1 X157.425 Y85.025 E2.27028
G1 X158.004 Y85.961 E2.30689
G1 X158.234 Y86.344 E2.32175
G1 X158.412 Y86.652 E2.33358
G1 X159.271 Y88.204 E2.39258
G1 X159.627 Y88.872 E2.41776
G1 X159.806 Y89.221 E2.4308
G1 X159.953 Y89.52 E2.44188
G1 X160.715 Y91.136 E2.50131
G1 X161.017 Y91.806 E2.52575
G1 X161.209 Y92.247 E2.54175
G1 X161.335 Y92.55 E2.55266
G1 X161.853 Y93.858 E2.59946
G1 X162.247 Y94.91 E2.63682
G1 X162.536 Y95.728 E2.66567
G1 X162.86 Y96.738 E2.70095
G1 X163.238 Y97.99 E2.74445
G1 X163.373 Y98.46 E2.76071
G1 X163.462 Y98.794 E2.77221
G1 X163.802 Y100.152 E2.81877
G1 X164.052 Y101.231 E2.85561
G1 X164.16 Y101.72 E2.87227
G1 X164.231 Y102.07 E2.88415
G1 X164.415 Y103.079 E2.91826
G1 X164.63 Y104.398 E2.96271
G1 X164.71 Y104.931 E2.98063
G1 X164.755 Y105.267 E2.99191
G1 X164.9 Y106.535 E3.03436
G1 X165.008 Y107.642 E3.07135
G1 X165.045 Y108.081 E3.086
G1 X165.069 Y108.438 E3.0979
G1 X165.148 Y110.079 E3.15255
G1 X165.174 Y110.93 E3.18087
G1 X165.186 Y111.558 E3.20176
G1 X165.187 Y111.876 E3.21233
G1 X165.173 Y112.844 E3.24453
G1 X165.123 Y114.293 E3.29276
G1 X165.101 Y114.741 E3.30767
G1 X165.08 Y115.056 E3.31817
G1 X164.97 Y116.409 E3.36332
G1 X164.859 Y117.52 E3.40046
G1 X164.809 Y117.96 E3.41519
G1 X164.764 Y118.303 E3.42669
G1 X164.546 Y119.766 E3.47589
G1 X164.374 Y120.8 E3.51075
G1 X164.274 Y121.356 E3.52954
G1 X164.212 Y121.669 E3.54016
G1 X164.007 Y122.625 E3.57268
G1 X163.691 Y123.965 E3.61847
G1 X163.492 Y124.741 E3.64511
G1 X163.087 Y126.16 E3.69419
G1 X162.786 Y127.147 E3.72851
G1 X162.647 Y127.585 E3.7438
G1 X162.533 Y127.925 E3.75572
G1 X162.087 Y129.17 E3.79971
G1 X161.681 Y130.242 E3.83784
G1 X161.349 Y131.074 E3.86763
G1 X160.985 Y131.919 E3.89823
G1 X160.387 Y133.234 E3.94628
G1 X159.971 Y134.107 E3.97844
G1 X159.582 Y134.866 E4.00681
G1 X158.716 Y136.473 E4.06753
G1 X158.491 Y136.869 E4.08267
G1 X157.804 Y138.014 E4.12709
G1 X157.236 Y138.926 E4.16282
G1 X156.924 Y139.413 E4.18206
G1 X156.735 Y139.697 E4.19341
G1 X156.073 Y140.655 E4.23214
G1 X155.328 Y141.692 E4.2746
G1 X155.059 Y142.056 E4.28966
G1 X154.856 Y142.321 E4.30076
G1 X154.012 Y143.386 E4.34596
G1 X153.306 Y144.244 E4.38291
G1 X152.722 Y144.925 E4.41275
G1 X151.987 Y145.738 E4.44921
G1 X151.075 Y146.71 E4.49354
G1 X150.536 Y147.261 E4.51917
G1 X149.574 Y148.194 E4.56375
G1 X148.419 Y149.266 E4.61616
G1 X148.151 Y149.502 E4.62803
G1 X147.09 Y150.402 E4.67431
G1 X146.27 Y151.074 E4.70957
G1 X145.863 Y151.399 E4.72689
G1 X145.594 Y151.606 E4.73818
G1 X144.519 Y152.405 E4.78273
G1 X143.631 Y153.038 E4.819
G1 X142.917 Y153.527 E4.84779
G1 X141.8 Y154.248 E4.89201
G1 X140.636 Y154.966 E4.93749
G1 X140.23 Y155.204 E4.95315
G1 X138.622 Y156.095 E5.01429
G1 X137.984 Y156.435 E5.03834
G1 X137.34 Y156.761 E5.06234
G1 X135.677 Y157.546 E5.12351
G1 X135.07 Y157.819 E5.14564
G1 X134.575 Y158.035 E5.16361
G1 X134.266 Y158.164 E5.17474
G1 X133.001 Y158.665 E5.22
G1 X131.948 Y159.06 E5.2574
G1 X131.454 Y159.238 E5.27487
G1 X131.144 Y159.344 E5.28577
G1 X130.097 Y159.682 E5.32236
G1 X128.907 Y160.042 E5.36371
G1 X128.425 Y160.181 E5.38039
G1 X128.085 Y160.272 E5.3921
G1 X126.536 Y160.66 E5.44521
G1 X125.675 Y160.86 E5.47461
G1 X125.148 Y160.976 E5.49256
G1 X124.817 Y161.043 E5.50379
G1 X123.73 Y161.242 E5.54055
G1 X122.427 Y161.455 E5.58446
G1 X121.927 Y161.53 E5.60128
G1 X121.605 Y161.573 E5.61208
G1 X120.334 Y161.721 E5.65464
G1 X118.779 Y161.868 E5.70659
G1 X118.424 Y161.892 E5.71842
G1 X116.825 Y161.969 E5.77167
G1 X115.866 Y162 E5.80358
G1 X115.005 Y162.011 E5.83222
G1 X113.954 Y161.996 E5.86718
G1 X112.613 Y161.951 E5.91181
G1 X112.119 Y161.928 E5.92826
G1 X111.781 Y161.907 E5.93952
G1 X110.495 Y161.802 E5.98243
G1 X109.343 Y161.688 E6.02094
G1 X108.607 Y161.599 E6.0456
G1 X106.911 Y161.347 E6.10262
G1 X106.082 Y161.209 E6.13058
G1 X105.552 Y161.114 E6.14848
G1 X105.247 Y161.054 E6.15882
G1 X104.172 Y160.825 E6.19538
G1 X102.889 Y160.524 E6.23921
G1 X102.122 Y160.328 E6.26554
G1 X100.622 Y159.899 E6.31743
G1 X99.753 Y159.635 E6.34764
G1 X99.284 Y159.486 E6.36401
G1 X98.958 Y159.377 E6.37544
G1 X97.669 Y158.917 E6.42096
G1 X96.644 Y158.53 E6.4574
G1 X95.774 Y158.183 E6.48855
G1 X94.931 Y157.821 E6.51907
G1 X93.617 Y157.225 E6.56706
G1 X92.798 Y156.834 E6.59724
G1 X91.963 Y156.409 E6.62841
G1 X90.728 Y155.748 E6.67499
G1 X90.262 Y155.491 E6.6927
G1 X89.962 Y155.318 E6.70421
G1 X88.855 Y154.656 E6.74711
G1 X87.855 Y154.033 E6.7863
G1 X87.482 Y153.794 E6.80103
G1 X87.199 Y153.606 E6.81233
G1 X86.095 Y152.844 E6.85695
G1 X85.207 Y152.206 E6.89332
G1 X84.512 Y151.687 E6.92217
G1 X83.468 Y150.86 E6.96647
G1 X82.584 Y150.134 E7.00451
G1 X82.238 Y149.842 E7.01957
G1 X81.986 Y149.621 E7.03072
G1 X81.002 Y148.732 E7.07483
G1 X80.128 Y147.912 E7.11469
G1 X79.846 Y147.64 E7.12772
G1 X79.612 Y147.407 E7.1387
G1 X78.559 Y146.322 E7.18899
G1 X77.881 Y145.596 E7.22203
G1 X77.33 Y144.983 E7.24944
G1 X76.472 Y143.975 E7.29347
G1 X75.784 Y143.136 E7.32956
G1 X75.479 Y142.755 E7.34579
G1 X75.26 Y142.471 E7.35772
G1 X74.364 Y141.265 E7.40769
G1 X73.789 Y140.461 E7.44057
G1 X73.5 Y140.045 E7.45741
G1 X73.322 Y139.779 E7.46806
G1 X72.607 Y138.675 E7.51181
G1 X71.981 Y137.667 E7.55127
G1 X71.51 Y136.878 E7.58183
G1 X71.19 Y136.308 E7.60357
G1 X70.4 Y134.83 E7.65932
G1 X69.946 Y133.943 E7.69246
G1 X69.683 Y133.389 E7.71285
G1 X68.991 Y131.863 E7.76858
G1 X68.808 Y131.445 E7.78376
G1 X68.675 Y131.127 E7.79522
G1 X68.189 Y129.9 E7.83912
G1 X67.792 Y128.845 E7.87661
G1 X67.596 Y128.302 E7.89581
G1 X67.49 Y127.992 E7.90671
G1 X67.142 Y126.916 E7.94432
G1 X66.777 Y125.712 E7.98617
G1 X66.661 Y125.308 E8.00015
G1 X66.574 Y124.984 E8.0113
G1 X66.161 Y123.34 E8.06768
G1 X65.975 Y122.543 E8.0949
G1 X65.864 Y122.044 E8.11191
G1 X65.791 Y121.686 E8.12406
G1 X65.578 Y120.524 E8.16335
G1 X65.382 Y119.328 E8.20366
G1 X65.303 Y118.808 E8.22115
G1 X65.256 Y118.464 E8.2327
G1 X65.101 Y117.116 E8.27783
G1 X64.972 Y115.771 E8.32277
G1 X64.937 Y115.302 E8.33841
G1 X64.851 Y113.522 E8.39769
G1 X64.826 Y112.758 E8.42311
G1 X64.815 Y112.212 E8.44127
G1 X64.814 Y111.891 E8.45195
G1 X64.828 Y110.804 E8.48811
G1 X64.872 Y109.489 E8.53187
G1 X64.916 Y108.649 E8.55985
G1 X65.025 Y107.293 E8.60509
G1 X65.164 Y105.926 E8.65079
G1 X65.221 Y105.473 E8.66598
G1 X65.476 Y103.751 E8.72388
G1 X65.602 Y102.984 E8.74973
G1 X65.699 Y102.438 E8.76817
G1 X65.764 Y102.105 E8.77946
G1 X66.005 Y100.981 E8.81769
G1 X66.295 Y99.738 E8.86015
G1 X66.395 Y99.336 E8.87392
G1 X66.481 Y99.013 E8.88504
G1 X66.942 Y97.394 E8.94103
G1 X67.176 Y96.622 E8.96786
G1 X67.331 Y96.133 E8.98492
G1 X67.439 Y95.809 E8.99628
G1 X67.889 Y94.545 E9.04091
G1 X68.283 Y93.499 E9.07808
G1 X68.497 Y92.952 E9.09762
G1 X68.617 Y92.659 E9.10815
G1 X69.025 Y91.709 E9.14254
G1 X69.575 Y90.495 E9.18687
G1 X69.981 Y89.642 E9.21829
G1 X70.401 Y88.817 E9.24908
G1 X71.052 Y87.6 E9.29498
G1 X71.307 Y87.135 E9.31262
G1 X71.493 Y86.809 E9.32511
G1 X72.149 Y85.714 E9.36756
G1 X72.74 Y84.76 E9.40489
G1 X72.983 Y84.378 E9.41994
G1 X73.192 Y84.063 E9.43252
G1 X73.983 Y82.917 E9.47883
G1 X74.592 Y82.066 E9.51364
G1 X74.874 Y81.683 E9.52946
G1 X75.085 Y81.407 E9.54101
G1 X76.062 Y80.173 E9.59336
G1 X76.656 Y79.449 E9.62451
G1 X76.959 Y79.09 E9.64013
G1 X77.174 Y78.844 E9.651
G1 X78.086 Y77.833 E9.69629
G1 X78.855 Y77.011 E9.73372
G1 X79.132 Y76.723 E9.74701
G1 X79.376 Y76.479 E9.75849
G1 X80.531 Y75.359 E9.812
G1 X81.2 Y74.732 E9.8425
G1 X81.567 Y74.397 E9.85903
G1 X81.819 Y74.175 E9.8702
G1 X82.81 Y73.33 E9.91351
G1 X83.677 Y72.619 E9.9508
G1 X84.399 Y72.047 E9.98144
G1 X85.247 Y71.414 E10.01664
G1 X86.339 Y70.63 E10.06135
G1 X86.863 Y70.265 E10.08259
G1 X87.88 Y69.642 E10.12226
G1 X88.334 Y69.399 E10.13938
G1 X89.148 Y69.009 E10.1694
G1 X90.238 Y68.616 E10.20794
G1 X90.769 Y68.458 E10.22637
G1 X91.645 Y68.239 E10.2564
G1 X92.834 Y68.069 E10.29635
G1 X93.316 Y68.029 E10.31244
G1 X94.16 Y67.994 E10.34053
G1 X94.345 Y67.994 E10.34668
G1 X95.247 Y68.034 E10.37671
G1 X96.307 Y68.185 E10.41233
G0 F6000 X96.384 Y67.792
G1 F1200 X99.005 Y68.306 E10.50116
G1 X101.502 Y68.722 E10.58536
G1 X104.012 Y69.068 E10.66963
G1 X106.521 Y69.341 E10.75357
G1 X109.04 Y69.544 E10.83763
G1 X111.582 Y69.676 E10.92229
G1 X114.094 Y69.735 E11.00586
G1 X116.639 Y69.725 E11.09051
G1 X119.145 Y69.642 E11.1739
G1 X121.667 Y69.488 E11.25794
G1 X124.187 Y69.262 E11.34209
G1 X126.714 Y68.963 E11.42673
G1 X129.201 Y68.597 E11.51034
G1 X131.678 Y68.162 E11.59398
G1 X132.192 Y68.056 E11.61144
G1 X133.557 Y67.794 E11.65767
G1 X134.468 Y67.66 E11.68829
G1 X135.37 Y67.606 E11.71835
G1 X135.828 Y67.598 E11.73358
G1 X136.748 Y67.622 E11.76419
G1 X137.882 Y67.762 E11.8022
G1 X138.485 Y67.87 E11.82257
G1 X139.383 Y68.072 E11.85318
G1 X140.261 Y68.35 E11.88382
G1 X140.953 Y68.632 E11.90867
G1 X141.466 Y68.862 E11.92737
G1 X142.388 Y69.331 E11.96177
G1 X142.591 Y69.447 E11.96955
G1 X143.406 Y69.963 E12.00163
G1 X143.921 Y70.324 E12.02255
G1 X145.08 Y71.159 E12.07006
G1 X145.524 Y71.487 E12.08842
G1 X145.804 Y71.701 E12.10014
G1 X146.824 Y72.511 E12.14347
G1 X147.729 Y73.256 E12.18245
G1 X148.14 Y73.604 E12.20036
G1 X148.39 Y73.823 E12.21142
G1 X149.192 Y74.549 E12.2474
G1 X150.175 Y75.472 E12.29225
G1 X150.511 Y75.797 E12.3078
G1 X150.755 Y76.042 E12.3193
G1 X151.707 Y77.027 E12.36486
G1 X152.44 Y77.811 E12.40056
G1 X152.817 Y78.225 E12.41918
G1 X153.055 Y78.495 E12.43115
G1 X153.823 Y79.401 E12.47065
G1 X154.624 Y80.382 E12.51278
G1 X154.891 Y80.717 E12.52703
G1 X155.107 Y80.998 E12.53881
G1 X155.944 Y82.126 E12.58553
G1 X156.575 Y83.012 E12.62171
G1 X156.854 Y83.414 E12.63798
G1 X157.046 Y83.7 E12.64944
G1 X157.764 Y84.814 E12.69352
G1 X158.347 Y85.755 E12.73034
G1 X158.577 Y86.138 E12.7452
G1 X158.762 Y86.458 E12.75749
G1 X159.624 Y88.015 E12.81669
G1 X159.983 Y88.689 E12.84208
G1 X160.162 Y89.038 E12.85513
G1 X160.315 Y89.349 E12.86666
G1 X161.079 Y90.971 E12.92629
G1 X161.384 Y91.647 E12.95096
G1 X161.576 Y92.088 E12.96696
G1 X161.707 Y92.402 E12.97827
G1 X162.228 Y93.718 E13.02535
G1 X162.623 Y94.774 E13.06285
G1 X162.805 Y95.28 E13.08073
G1 X162.916 Y95.605 E13.09215
G1 X163.243 Y96.622 E13.12769
G1 X163.622 Y97.88 E13.17138
G1 X163.757 Y98.35 E13.18765
G1 X163.85 Y98.697 E13.1996
G1 X164.191 Y100.062 E13.24639
G1 X164.443 Y101.145 E13.28338
G1 X164.551 Y101.634 E13.30003
G1 X164.624 Y101.998 E13.31238
G1 X164.81 Y103.014 E13.34673
G1 X165.026 Y104.339 E13.39138
G1 X165.106 Y104.872 E13.40931
G1 X165.152 Y105.221 E13.42102
G1 X165.299 Y106.496 E13.46371
G1 X165.407 Y107.609 E13.5009
G1 X165.444 Y108.048 E13.51555
G1 X165.468 Y108.418 E13.52788
G1 X165.548 Y110.066 E13.58276
G1 X165.574 Y110.922 E13.61125
G1 X165.586 Y111.55 E13.63214
G1 X165.587 Y111.881 E13.64315
G1 X165.573 Y112.858 E13.67564
G1 X165.522 Y114.313 E13.72407
G1 X165.479 Y115.088 E13.74988
G1 X165.368 Y116.448 E13.79527
G1 X165.256 Y117.565 E13.83261
G1 X165.206 Y118.005 E13.84733
G1 X165.16 Y118.361 E13.85927
G1 X164.94 Y119.831 E13.90871
G1 X164.768 Y120.87 E13.94374
G1 X164.668 Y121.426 E13.96253
G1 X164.604 Y121.752 E13.97358
G1 X164.396 Y122.717 E14.00641
G1 X164.08 Y124.062 E14.05236
G1 X163.965 Y124.522 E14.06813
G1 X163.877 Y124.85 E14.07943
G1 X163.47 Y126.276 E14.12875
G1 X163.028 Y127.706 E14.17853
G1 X162.91 Y128.059 E14.19091
G1 X162.461 Y129.311 E14.23515
G1 X162.053 Y130.388 E14.27346
G1 X161.717 Y131.231 E14.30364
G1 X161.35 Y132.085 E14.33456
G1 X160.749 Y133.405 E14.3828
G1 X160.328 Y134.288 E14.41533
G1 X159.934 Y135.056 E14.44404
G1 X159.068 Y136.663 E14.50476
G1 X158.835 Y137.074 E14.52047
G1 X158.144 Y138.226 E14.56515
G1 X157.572 Y139.142 E14.60107
G1 X157.26 Y139.629 E14.62031
G1 X157.065 Y139.924 E14.63207
G1 X156.398 Y140.888 E14.67106
G1 X155.65 Y141.93 E14.71372
G1 X155.381 Y142.294 E14.72877
G1 X155.17 Y142.569 E14.7403
G1 X154.321 Y143.64 E14.78576
G1 X153.611 Y144.502 E14.8229
G1 X153.019 Y145.193 E14.85317
G1 X152.279 Y146.012 E14.88988
G1 X151.363 Y146.988 E14.9344
G1 X151.05 Y147.312 E14.94938
G1 X150.814 Y147.548 E14.96048
G1 X149.847 Y148.486 E15.00529
G1 X148.689 Y149.561 E15.05784
G1 X148.41 Y149.807 E15.07021
G1 X147.344 Y150.712 E15.11672
G1 X146.519 Y151.386 E15.15216
G1 X146.112 Y151.711 E15.16948
G1 X145.833 Y151.927 E15.18121
G1 X144.751 Y152.73 E15.22603
G1 X143.859 Y153.367 E15.26249
G1 X143.135 Y153.863 E15.29168
G1 X142.01 Y154.589 E15.33621
G1 X140.846 Y155.307 E15.3817
G1 X140.424 Y155.554 E15.39796
G1 X138.811 Y156.447 E15.45928
G1 X138.167 Y156.791 E15.48356
G1 X137.827 Y156.966 E15.49628
G1 X137.511 Y157.122 E15.508
G1 X135.842 Y157.91 E15.56939
G1 X135.23 Y158.185 E15.59171
G1 X134.735 Y158.401 E15.60967
G1 X134.414 Y158.535 E15.62124
G1 X133.141 Y159.04 E15.66679
G1 X132.083 Y159.436 E15.70436
G1 X131.267 Y159.725 E15.73315
G1 X130.213 Y160.065 E15.76999
G1 X129.018 Y160.426 E15.81151
G1 X128.536 Y160.565 E15.82819
G1 X128.182 Y160.66 E15.84039
G1 X126.627 Y161.05 E15.89371
G1 X125.761 Y161.25 E15.92327
G1 X125.234 Y161.366 E15.94122
G1 X124.89 Y161.436 E15.95289
G1 X123.795 Y161.637 E15.98992
G1 X122.486 Y161.851 E16.03404
G1 X121.986 Y161.926 E16.05085
G1 X121.652 Y161.97 E16.06206
G1 X120.373 Y162.119 E16.10488
G1 X118.812 Y162.267 E16.15704
G1 X118.443 Y162.291 E16.16933
G1 X116.839 Y162.369 E16.22275
G1 X115.874 Y162.4 E16.25486
G1 X115 Y162.411 E16.28393
G1 X113.94 Y162.396 E16.31919
G1 X112.594 Y162.351 E16.36398
G1 X112.1 Y162.328 E16.38043
G1 X111.749 Y162.305 E16.39213
G1 X110.456 Y162.2 E16.43528
G1 X109.298 Y162.085 E16.47398
G1 X108.887 Y162.038 E16.48774
G1 X108.549 Y161.994 E16.49908
G1 X106.846 Y161.742 E16.55634
G1 X106.012 Y161.603 E16.58446
G1 X105.164 Y161.446 E16.61314
G1 X104.081 Y161.215 E16.64997
G1 X102.792 Y160.912 E16.69401
G1 X102.354 Y160.803 E16.70903
G1 X102.013 Y160.712 E16.72077
G1 X100.506 Y160.282 E16.77289
