;FLAVOR:Marlin
;TIME:562
;Filament used: 0.274965m
;Layer height: 0.2
;MINX:94.579
;MINY:94.579
;MINZ:0.2
;MAXX:135.421
;MAXY:135.421
;MAXZ:7
;Generated with Cura_SteamEngine 4.6.1
M140 S55
M105
M190 S55
M104 S210
M105
M109 S210
M82 ;absolute extrusion mode
; Ender 3 Custom Start G-code
G92 E0 ; Reset Extruder
G28 ; Home all axes
G1 Z2.0 F3000 ; Move Z Axis up little to prevent scratching of Heat Bed
G1 X0.1 Y20 Z0.3 F5000.0 ; Move to start position
G1 X0.1 Y200.0 Z0.3 F1500.0 E15 ; Draw the first line
G1 X0.4 Y200.0 Z0.3 F5000.0 ; Move to side a little
G1 X0.4 Y20 Z0.3 F1500.0 E30 ; Draw the second line
G92 E0 ; Reset Extruder
G1 Z2.0 F3000 ; Move Z Axis up little to prevent scratching of Heat Bed
G1 X5 Y20 Z0.3 F5000.0 ; Move over to prevent blob squish
G92 E0
G92 E0
G1 F2700 E-5
;LAYER_COUNT:35
;LAYER:0
M107
G0 F6000 X116.132 Y95.41 Z0.2
;TYPE:SKIRT
G1 F2700 E0
G1 F1200 X116.673 Y95.449 E0.01804
G1 X117.262 Y95.509 E0.03773
G1 X117.813 Y95.581 E0.05621
G1 X118.381 Y95.672 E0.07535
G1 X118.89 Y95.768 E0.09257
G1 X119.543 Y95.913 E0.11482
G1 X120.211 Y96.085 E0.13777
G1 X120.778 Y96.249 E0.1574
G1 X121.206 Y96.386 E0.17234
G1 X121.769 Y96.584 E0.19219
G1 X122.352 Y96.809 E0.21298
G1 X122.897 Y97.038 E0.23264
G1 X123.355 Y97.246 E0.24937
G1 X123.948 Y97.539 E0.27137
G1 X124.55 Y97.861 E0.29408
G1 X125.12 Y98.19 E0.31597
G1 X125.595 Y98.485 E0.33456
G1 X126.078 Y98.804 E0.35382
G1 X126.468 Y99.078 E0.36967
G1 X126.93 Y99.423 E0.38885
G1 X127.403 Y99.797 E0.4089
G1 X127.88 Y100.198 E0.42963
G1 X128.338 Y100.608 E0.45007
G1 X128.853 Y101.102 E0.47381
G1 X129.256 Y101.517 E0.49305
G1 X129.622 Y101.915 E0.51103
G1 X129.952 Y102.293 E0.52772
G1 X130.353 Y102.782 E0.54876
G1 X130.723 Y103.263 E0.56894
G1 X131.067 Y103.738 E0.58845
G1 X131.373 Y104.187 E0.60652
G1 X131.718 Y104.729 E0.62789
G1 X132.034 Y105.262 E0.6485
G1 X132.335 Y105.808 E0.66923
G1 X132.571 Y106.268 E0.68643
G1 X132.823 Y106.789 E0.70568
G1 X133.079 Y107.372 E0.72686
G1 X133.27 Y107.845 E0.74382
G1 X133.489 Y108.431 E0.76463
G1 X133.702 Y109.065 E0.78687
G1 X133.874 Y109.637 E0.80674
G1 X134.034 Y110.234 E0.8273
G1 X134.158 Y110.76 E0.84527
G1 X134.27 Y111.301 E0.86365
G1 X134.356 Y111.781 E0.87987
G1 X134.446 Y112.39 E0.90034
G1 X134.522 Y113.037 E0.92201
G1 X134.577 Y113.673 E0.94324
G1 X134.606 Y114.206 E0.961
G1 X134.621 Y114.84 E0.98209
G1 X134.616 Y115.479 E1.00334
G1 X134.59 Y116.132 E1.02508
G1 X134.551 Y116.673 E1.04312
G1 X134.491 Y117.262 E1.06281
G1 X134.419 Y117.813 E1.08129
G1 X134.327 Y118.386 E1.10059
G1 X134.23 Y118.899 E1.11796
G1 X134.086 Y119.548 E1.14007
G1 X133.915 Y120.212 E1.16288
G1 X133.751 Y120.778 E1.18247
G1 X133.614 Y121.206 E1.19742
G1 X133.416 Y121.769 E1.21727
G1 X133.191 Y122.352 E1.23806
G1 X132.962 Y122.897 E1.25772
G1 X132.754 Y123.355 E1.27445
G1 X132.461 Y123.948 E1.29645
G1 X132.139 Y124.55 E1.31915
G1 X131.814 Y125.114 E1.34081
G1 X131.53 Y125.572 E1.35873
G1 X131.216 Y126.048 E1.3777
G1 X130.931 Y126.455 E1.39422
G1 X130.585 Y126.92 E1.4135
G1 X130.212 Y127.393 E1.43353
G1 X129.791 Y127.893 E1.45527
G1 X129.385 Y128.345 E1.47548
G1 X128.913 Y128.837 E1.49816
G1 X128.493 Y129.246 E1.51766
G1 X128.085 Y129.622 E1.53611
G1 X127.707 Y129.952 E1.5528
G1 X127.218 Y130.353 E1.57383
G1 X126.737 Y130.723 E1.59402
G1 X126.262 Y131.067 E1.61352
G1 X125.813 Y131.373 E1.6316
G1 X125.271 Y131.718 E1.65297
G1 X124.738 Y132.034 E1.67357
G1 X124.192 Y132.335 E1.69431
G1 X123.732 Y132.571 E1.71151
G1 X123.191 Y132.831 E1.73147
G1 X122.639 Y133.074 E1.75153
G1 X122.155 Y133.27 E1.7689
G1 X121.569 Y133.489 E1.78971
G1 X120.935 Y133.702 E1.81195
G1 X120.363 Y133.874 E1.83182
G1 X119.766 Y134.034 E1.85237
G1 X119.24 Y134.158 E1.87035
G1 X118.699 Y134.27 E1.88872
G1 X118.219 Y134.356 E1.90494
G1 X117.61 Y134.446 E1.92542
G1 X116.963 Y134.522 E1.94709
G1 X116.327 Y134.577 E1.96832
G1 X115.794 Y134.606 E1.98607
G1 X115.16 Y134.621 E2.00716
G1 X114.521 Y134.616 E2.02842
G1 X113.868 Y134.59 E2.05015
G1 X113.327 Y134.551 E2.06819
G1 X112.738 Y134.491 E2.08789
G1 X112.187 Y134.419 E2.10637
G1 X111.614 Y134.327 E2.12567
G1 X111.101 Y134.23 E2.14304
G1 X110.452 Y134.086 E2.16515
G1 X109.788 Y133.915 E2.18795
G1 X109.222 Y133.751 E2.20755
G1 X108.794 Y133.614 E2.2225
G1 X108.231 Y133.416 E2.24235
G1 X107.648 Y133.191 E2.26313
G1 X107.103 Y132.962 E2.28279
G1 X106.645 Y132.754 E2.29952
G1 X106.052 Y132.461 E2.32152
G1 X105.45 Y132.139 E2.34423
G1 X104.88 Y131.81 E2.36612
G1 X104.405 Y131.515 E2.38472
G1 X103.922 Y131.196 E2.40397
G1 X103.532 Y130.922 E2.41982
G1 X103.07 Y130.577 E2.439
G1 X102.597 Y130.203 E2.45906
G1 X102.118 Y129.8 E2.47988
G1 X101.658 Y129.388 E2.50042
G1 X101.147 Y128.898 E2.52396
G1 X100.737 Y128.476 E2.54353
G1 X100.359 Y128.064 E2.56213
G1 X100.037 Y127.694 E2.57844
G1 X99.644 Y127.215 E2.59905
G1 X99.275 Y126.735 E2.61919
G1 X98.933 Y126.262 E2.6386
G1 X98.627 Y125.813 E2.65667
G1 X98.282 Y125.271 E2.67804
G1 X97.966 Y124.738 E2.69865
G1 X97.665 Y124.192 E2.71939
G1 X97.429 Y123.732 E2.73658
G1 X97.154 Y123.159 E2.75772
G1 X96.923 Y122.633 E2.77683
G1 X96.725 Y122.14 E2.7945
G1 X96.497 Y121.527 E2.81625
G1 X96.285 Y120.894 E2.83846
G1 X96.122 Y120.349 E2.85738
G1 X95.966 Y119.766 E2.87745
G1 X95.842 Y119.24 E2.89542
G1 X95.73 Y118.699 E2.9138
G1 X95.644 Y118.219 E2.93002
G1 X95.554 Y117.61 E2.95049
G1 X95.478 Y116.963 E2.97216
G1 X95.423 Y116.327 E2.99339
G1 X95.394 Y115.794 E3.01115
G1 X95.379 Y115.16 E3.03224
G1 X95.384 Y114.521 E3.0535
G1 X95.41 Y113.868 E3.07523
G1 X95.449 Y113.327 E3.09327
G1 X95.509 Y112.738 E3.11296
G1 X95.581 Y112.187 E3.13145
G1 X95.673 Y111.614 E3.15075
G1 X95.77 Y111.101 E3.16811
G1 X95.914 Y110.452 E3.19022
G1 X96.085 Y109.788 E3.21303
G1 X96.249 Y109.222 E3.23263
G1 X96.386 Y108.794 E3.24757
G1 X96.585 Y108.228 E3.26753
G1 X96.811 Y107.643 E3.28839
G1 X97.038 Y107.103 E3.30787
G1 X97.245 Y106.647 E3.32453
G1 X97.539 Y106.052 E3.3466
G1 X97.861 Y105.45 E3.36931
G1 X98.191 Y104.878 E3.39127
G1 X98.488 Y104.4 E3.40999
G1 X98.807 Y103.918 E3.42921
G1 X99.079 Y103.531 E3.44495
G1 X99.423 Y103.07 E3.46408
G1 X99.797 Y102.597 E3.48413
G1 X100.198 Y102.12 E3.50486
G1 X100.608 Y101.662 E3.52531
G1 X101.1 Y101.149 E3.54895
G1 X101.522 Y100.739 E3.56852
G1 X101.932 Y100.362 E3.58704
G1 X102.303 Y100.039 E3.6034
G1 X102.782 Y99.647 E3.62399
G1 X103.263 Y99.277 E3.64417
G1 X103.738 Y98.933 E3.66368
G1 X104.187 Y98.627 E3.68175
G1 X104.729 Y98.282 E3.70312
G1 X105.262 Y97.966 E3.72373
G1 X105.808 Y97.665 E3.74447
G1 X106.268 Y97.429 E3.76166
G1 X106.809 Y97.169 E3.78163
G1 X107.361 Y96.926 E3.80169
G1 X107.845 Y96.73 E3.81905
G1 X108.431 Y96.511 E3.83986
G1 X109.065 Y96.298 E3.86211
G1 X109.637 Y96.126 E3.88197
G1 X110.234 Y95.966 E3.90253
G1 X110.76 Y95.842 E3.9205
G1 X111.301 Y95.73 E3.93888
G1 X111.781 Y95.644 E3.9551
G1 X112.39 Y95.554 E3.97557
G1 X113.037 Y95.478 E3.99724
G1 X113.673 Y95.423 E4.01847
G1 X114.206 Y95.394 E4.03623
G1 X114.84 Y95.379 E4.05732
G1 X115.479 Y95.384 E4.07857
G1 X116.132 Y95.41 E4.10031
G0 F6000 X116.161 Y95.011
G1 F1200 X116.702 Y95.05 E4.11835
G1 X117.313 Y95.112 E4.13878
G1 X117.864 Y95.184 E4.15726
G1 X118.456 Y95.279 E4.1772
G1 X118.965 Y95.375 E4.19443
G1 X119.643 Y95.526 E4.21753
G1 X120.311 Y95.698 E4.24047
G1 X120.899 Y95.868 E4.26083
G1 X121.327 Y96.005 E4.27578
G1 X121.913 Y96.211 E4.29644
G1 X122.496 Y96.436 E4.31722
G1 X123.062 Y96.674 E4.33764
G1 X123.52 Y96.882 E4.35437
G1 X124.137 Y97.186 E4.37725
G1 X124.739 Y97.508 E4.39996
G1 X125.331 Y97.85 E4.4227
G1 X125.806 Y98.145 E4.4413
G1 X126.308 Y98.477 E4.46131
G1 X126.698 Y98.751 E4.47717
G1 X127.178 Y99.109 E4.49708
G1 X127.651 Y99.483 E4.51714
G1 X128.147 Y99.9 E4.53869
G1 X128.605 Y100.31 E4.55914
G1 X129.139 Y100.823 E4.58376
G1 X129.542 Y101.238 E4.603
G1 X129.923 Y101.652 E4.62172
G1 X130.253 Y102.03 E4.63841
G1 X130.67 Y102.538 E4.66027
G1 X131.04 Y103.019 E4.68045
G1 X131.397 Y103.512 E4.7007
G1 X131.703 Y103.961 E4.71877
G1 X132.062 Y104.525 E4.741
G1 X132.378 Y105.058 E4.76161
G1 X132.691 Y105.625 E4.78315
G1 X132.927 Y106.085 E4.80035
G1 X133.185 Y106.62 E4.82011
G1 X133.446 Y107.214 E4.84168
G1 X133.644 Y107.705 E4.85929
G1 X133.863 Y108.291 E4.8801
G1 X134.085 Y108.95 E4.90323
G1 X134.257 Y109.522 E4.9231
G1 X134.423 Y110.142 E4.94444
G1 X134.547 Y110.668 E4.96242
G1 X134.664 Y111.231 E4.98154
G1 X134.75 Y111.711 E4.99776
G1 X134.844 Y112.343 E5.01901
G1 X134.92 Y112.99 E5.04068
G1 X134.976 Y113.651 E5.06274
G1 X135.005 Y114.184 E5.0805
G1 X135.021 Y114.843 E5.10242
G1 X135.016 Y115.482 E5.12368
G1 X134.989 Y116.161 E5.14628
G1 X134.95 Y116.702 E5.16432
G1 X134.888 Y117.313 E5.18475
G1 X134.816 Y117.864 E5.20323
G1 X134.72 Y118.46 E5.22331
G1 X134.623 Y118.973 E5.24067
G1 X134.473 Y119.648 E5.26367
G1 X134.302 Y120.312 E5.28647
G1 X134.132 Y120.899 E5.3068
G1 X133.995 Y121.327 E5.32175
G1 X133.789 Y121.913 E5.34241
G1 X133.564 Y122.496 E5.36319
G1 X133.326 Y123.062 E5.38361
G1 X133.118 Y123.52 E5.40034
G1 X132.814 Y124.137 E5.42322
G1 X132.492 Y124.739 E5.44593
G1 X132.154 Y125.325 E5.46843
G1 X131.87 Y125.783 E5.48635
G1 X131.544 Y126.277 E5.50604
G1 X131.259 Y126.684 E5.52256
G1 X130.899 Y127.168 E5.54263
G1 X130.526 Y127.641 E5.56266
G1 X130.089 Y128.16 E5.58523
G1 X129.683 Y128.612 E5.60544
G1 X129.192 Y129.123 E5.62901
G1 X128.772 Y129.532 E5.6485
G1 X128.348 Y129.923 E5.66769
G1 X127.97 Y130.253 E5.68438
G1 X127.462 Y130.67 E5.70624
G1 X126.981 Y131.04 E5.72642
G1 X126.488 Y131.397 E5.74667
G1 X126.039 Y131.703 E5.76474
G1 X125.475 Y132.062 E5.78697
G1 X124.942 Y132.378 E5.80758
G1 X124.375 Y132.691 E5.82912
G1 X123.915 Y132.927 E5.84632
G1 X123.359 Y133.194 E5.86683
G1 X122.798 Y133.441 E5.88722
G1 X122.295 Y133.644 E5.90526
G1 X121.709 Y133.863 E5.92607
G1 X121.05 Y134.085 E5.9492
G1 X120.478 Y134.257 E5.96906
G1 X119.858 Y134.423 E5.99041
G1 X119.332 Y134.547 E6.00839
G1 X118.769 Y134.664 E6.02751
G1 X118.289 Y134.75 E6.04373
G1 X117.657 Y134.844 E6.06498
G1 X117.01 Y134.92 E6.08665
G1 X116.349 Y134.976 E6.10871
G1 X115.816 Y135.005 E6.12647
G1 X115.157 Y135.021 E6.14839
G1 X114.518 Y135.016 E6.16965
G1 X113.839 Y134.989 E6.19225
G1 X113.298 Y134.95 E6.21029
G1 X112.687 Y134.888 E6.23071
G1 X112.136 Y134.816 E6.2492
G1 X111.54 Y134.72 E6.26928
G1 X111.027 Y134.623 E6.28664
G1 X110.352 Y134.473 E6.30964
G1 X109.688 Y134.302 E6.33244
G1 X109.101 Y134.132 E6.35277
G1 X108.673 Y133.995 E6.36772
G1 X108.087 Y133.789 E6.38838
G1 X107.504 Y133.564 E6.40916
G1 X106.938 Y133.326 E6.42958
G1 X106.48 Y133.118 E6.44631
G1 X105.863 Y132.814 E6.46919
G1 X105.261 Y132.492 E6.4919
G1 X104.669 Y132.15 E6.51464
G1 X104.194 Y131.855 E6.53323
G1 X103.692 Y131.523 E6.55325
G1 X103.302 Y131.249 E6.5691
G1 X102.822 Y130.891 E6.58902
G1 X102.349 Y130.517 E6.60908
G1 X101.851 Y130.098 E6.63072
G1 X101.391 Y129.686 E6.65126
G1 X100.86 Y129.176 E6.67575
G1 X100.45 Y128.754 E6.69532
G1 X100.057 Y128.327 E6.71462
G1 X99.735 Y127.957 E6.73093
G1 X99.327 Y127.458 E6.75237
G1 X98.958 Y126.978 E6.77251
G1 X98.603 Y126.488 E6.79264
G1 X98.297 Y126.039 E6.81071
G1 X97.938 Y125.475 E6.83294
G1 X97.622 Y124.942 E6.85355
G1 X97.309 Y124.375 E6.87509
G1 X97.073 Y123.915 E6.89229
G1 X96.791 Y123.327 E6.91398
G1 X96.556 Y122.792 E6.93341
G1 X96.35 Y122.279 E6.9518
G1 X96.122 Y121.666 E6.97355
G1 X95.901 Y121.008 E6.99664
G1 X95.738 Y120.463 E7.01556
G1 X95.577 Y119.858 E7.03638
G1 X95.453 Y119.332 E7.05436
G1 X95.336 Y118.769 E7.07348
G1 X95.25 Y118.289 E7.0897
G1 X95.156 Y117.657 E7.11095
G1 X95.08 Y117.01 E7.13262
G1 X95.024 Y116.349 E7.15469
G1 X94.995 Y115.816 E7.17244
G1 X94.979 Y115.157 E7.19436
G1 X94.984 Y114.518 E7.21562
G1 X95.011 Y113.839 E7.23822
G1 X95.05 Y113.298 E7.25626
G1 X95.112 Y112.687 E7.27669
G1 X95.184 Y112.136 E7.29517
G1 X95.28 Y111.54 E7.31525
G1 X95.377 Y111.027 E7.33261
G1 X95.527 Y110.352 E7.35561
G1 X95.698 Y109.688 E7.37842
G1 X95.868 Y109.101 E7.39874
G1 X96.005 Y108.673 E7.41369
G1 X96.212 Y108.084 E7.43445
G1 X96.438 Y107.499 E7.45531
G1 X96.674 Y106.937 E7.47559
G1 X96.881 Y106.481 E7.49224
G1 X97.186 Y105.863 E7.51516
G1 X97.508 Y105.261 E7.53787
G1 X97.851 Y104.667 E7.56068
G1 X98.148 Y104.189 E7.5794
G1 X98.48 Y103.688 E7.59939
G1 X98.752 Y103.301 E7.61512
G1 X99.109 Y102.822 E7.63499
G1 X99.483 Y102.349 E7.65505
G1 X99.9 Y101.853 E7.6766
G1 X100.31 Y101.395 E7.69705
G1 X100.822 Y100.862 E7.72163
G1 X101.244 Y100.452 E7.7412
G1 X101.67 Y100.06 E7.76045
G1 X102.041 Y99.737 E7.77681
G1 X102.538 Y99.33 E7.79818
G1 X103.019 Y98.96 E7.81836
G1 X103.512 Y98.603 E7.83861
G1 X103.961 Y98.297 E7.85668
G1 X104.525 Y97.938 E7.87892
G1 X105.058 Y97.622 E7.89953
G1 X105.625 Y97.309 E7.92107
G1 X106.085 Y97.073 E7.93826
G1 X106.641 Y96.806 E7.95878
G1 X107.202 Y96.559 E7.97916
G1 X107.705 Y96.356 E7.99721
G1 X108.291 Y96.137 E8.01801
G1 X108.95 Y95.915 E8.04114
G1 X109.522 Y95.743 E8.06101
G1 X110.142 Y95.577 E8.08236
G1 X110.668 Y95.453 E8.10033
G1 X111.231 Y95.336 E8.11946
G1 X111.711 Y95.25 E8.13567
G1 X112.343 Y95.156 E8.15693
G1 X112.99 Y95.08 E8.17859
G1 X113.651 Y95.024 E8.20066
G1 X114.184 Y94.995 E8.21841
G1 X114.843 Y94.979 E8.24034
G1 X115.482 Y94.984 E8.26159
G1 X116.161 Y95.011 E8.28419
G0 F6000 X116.19 Y94.612
G1 F1200 X116.731 Y94.651 E8.30223
G1 X117.365 Y94.716 E8.32343
G1 X117.916 Y94.788 E8.34191
G1 X118.53 Y94.886 E8.36259
G1 X119.039 Y94.982 E8.37982
G1 X119.743 Y95.138 E8.4038
G1 X120.411 Y95.31 E8.42674
G1 X121.021 Y95.487 E8.44787
G1 X121.449 Y95.624 E8.46282
G1 X122.057 Y95.838 E8.48426
G1 X122.64 Y96.063 E8.50504
G1 X123.228 Y96.309 E8.52624
G1 X123.686 Y96.517 E8.54297
G1 X124.325 Y96.833 E8.56668
G1 X124.927 Y97.155 E8.58939
G1 X125.542 Y97.51 E8.61301
G1 X126.017 Y97.805 E8.6316
G1 X126.538 Y98.149 E8.65237
G1 X126.928 Y98.423 E8.66822
G1 X127.427 Y98.795 E8.68892
G1 X127.9 Y99.169 E8.70898
G1 X128.414 Y99.602 E8.73133
G1 X128.872 Y100.012 E8.75178
G1 X129.426 Y100.545 E8.77735
G1 X129.829 Y100.96 E8.79659
G1 X130.224 Y101.389 E8.81598
G1 X130.554 Y101.767 E8.83267
G1 X130.987 Y102.294 E8.85536
G1 X131.357 Y102.775 E8.87554
G1 X131.728 Y103.287 E8.89657
G1 X132.034 Y103.736 E8.91464
G1 X132.406 Y104.321 E8.9377
G1 X132.722 Y104.854 E8.95831
G1 X133.047 Y105.443 E8.98068
G1 X133.283 Y105.903 E8.99788
G1 X133.547 Y106.45 E9.01808
G1 X133.681 Y106.747 E9.02892
G1 X133.814 Y107.055 E9.04008
G1 X134.019 Y107.565 E9.05836
G1 X134.238 Y108.151 E9.07916
G1 X134.468 Y108.834 E9.10314
G1 X134.64 Y109.406 E9.123
G1 X134.813 Y110.05 E9.14518
G1 X134.937 Y110.576 E9.16315
G1 X135.058 Y111.16 E9.18299
G1 X135.144 Y111.64 E9.19921
G1 X135.241 Y112.297 E9.2213
G1 X135.317 Y112.944 E9.24297
G1 X135.376 Y113.629 E9.26583
G1 X135.405 Y114.162 E9.28359
G1 X135.421 Y114.846 E9.30634
G1 X135.416 Y115.485 E9.3276
G1 X135.388 Y116.19 E9.35106
G1 X135.349 Y116.731 E9.36911
G1 X135.284 Y117.365 E9.3903
G1 X135.212 Y117.916 E9.40878
G1 X135.113 Y118.535 E9.42963
G1 X135.016 Y119.048 E9.447
G1 X134.86 Y119.747 E9.47082
G1 X134.689 Y120.411 E9.49363
G1 X134.513 Y121.021 E9.51474
G1 X134.376 Y121.449 E9.52969
G1 X134.162 Y122.057 E9.55113
G1 X133.937 Y122.64 E9.57191
G1 X133.691 Y123.228 E9.59311
G1 X133.483 Y123.686 E9.60984
G1 X133.167 Y124.325 E9.63355
G1 X132.845 Y124.927 E9.65626
G1 X132.494 Y125.536 E9.67964
G1 X132.21 Y125.994 E9.69756
G1 X131.872 Y126.507 E9.71799
G1 X131.587 Y126.914 E9.73452
G1 X131.213 Y127.415 E9.75531
G1 X130.84 Y127.888 E9.77535
G1 X130.386 Y128.428 E9.79881
G1 X129.98 Y128.88 E9.81902
G1 X129.471 Y129.41 E9.84346
G1 X129.051 Y129.819 E9.86296
G1 X128.611 Y130.224 E9.88285
G1 X128.233 Y130.554 E9.89954
G1 X127.706 Y130.987 E9.92223
G1 X127.225 Y131.357 E9.94241
G1 X126.713 Y131.728 E9.96344
G1 X126.264 Y132.034 E9.98151
G1 X125.679 Y132.406 E10.00457
G1 X125.146 Y132.722 E10.02518
G1 X124.557 Y133.047 E10.04755
G1 X124.097 Y133.283 E10.06475
G1 X123.528 Y133.557 E10.08575
G1 X122.957 Y133.809 E10.10651
G1 X122.435 Y134.019 E10.12523
G1 X121.849 Y134.238 E10.14603
G1 X121.166 Y134.468 E10.17
G1 X120.594 Y134.64 E10.18987
G1 X119.95 Y134.813 E10.21205
G1 X119.424 Y134.937 E10.23002
G1 X118.84 Y135.058 E10.24986
G1 X118.36 Y135.144 E10.26608
