;FLAVOR:Marlin
;TIME:9814
;Filament used: 6.43889m
;Layer height: 0.2
;MINX:79.207
;MINY:45.388
;MINZ:0.2
;MAXX:150.793
;MAXY:166.975
;MAXZ:20
;Generated with Cura_SteamEngine 4.6.1
M140 S55
M105
M190 S55
M104 S210
M105
M109 S210
M82 ;absolute extrusion mode
; Ender 3 Custom Start G-code
G92 E0 ; Reset Extruder
G28 ; Home all axes
G1 Z2.0 F3000 ; Move Z Axis up little to prevent scratching of Heat Bed
G1 X0.1 Y20 Z0.3 F5000.0 ; Move to start position
G1 X0.1 Y200.0 Z0.3 F1500.0 E15 ; Draw the first line
G1 X0.4 Y200.0 Z0.3 F5000.0 ; Move to side a little
G1 X0.4 Y20 Z0.3 F1500.0 E30 ; Draw the second line
G92 E0 ; Reset Extruder
G1 Z2.0 F3000 ; Move Z Axis up little to prevent scratching of Heat Bed
G1 X5 Y20 Z0.3 F5000.0 ; Move over to prevent blob squish
G92 E0
G92 E0
G1 F2700 E-5
;LAYER_COUNT:100
;LAYER:0
M107
G0 F6000 X139.639 Y46.2 Z0.2
;TYPE:SKIRT
G1 F2700 E0
G1 F1200 X140.54 Y46.253 E0.03002
G1 X141.434 Y46.385 E0.06008
G1 X142.312 Y46.596 E0.09011
G1 X143.12 Y46.866 E0.11844
G1 X143.325 Y46.944 E0.12574
G1 X144.154 Y47.302 E0.15577
G1 X144.948 Y47.732 E0.18581
G1 X145.701 Y48.231 E0.21585
G1 X146.407 Y48.794 E0.24589
G1 X147.06 Y49.418 E0.27593
G1 X147.656 Y50.097 E0.30598
G1 X148.189 Y50.826 E0.33601
G1 X148.656 Y51.599 E0.36605
G1 X149.045 Y52.394 E0.39549
G1 X149.128 Y52.584 E0.40238
G1 X149.453 Y53.427 E0.43243
G1 X149.701 Y54.295 E0.46246
G1 X149.872 Y55.182 E0.4925
G1 X149.98 Y56.508 E0.53675
G1 X149.993 Y57.435 E0.56759
G1 X149.993 Y154.95 E3.81095
G1 X149.982 Y155.812 E3.83962
G1 X149.93 Y156.714 E3.86967
G1 X149.797 Y157.607 E3.8997
G1 X149.587 Y158.486 E3.92976
G1 X149.413 Y159.034 E3.94888
G1 X149.347 Y159.223 E3.95554
G1 X149.012 Y160.061 E3.98556
G1 X148.603 Y160.867 E4.01562
G1 X148.126 Y161.633 E4.04563
G1 X147.582 Y162.355 E4.0757
G1 X146.977 Y163.025 E4.10572
G1 X146.315 Y163.639 E4.13576
G1 X145.601 Y164.192 E4.16579
G1 X144.692 Y164.765 E4.20153
G1 X144.513 Y164.865 E4.20835
G1 X143.706 Y165.27 E4.23838
G1 X142.866 Y165.602 E4.26842
G1 X142 Y165.858 E4.29846
G1 X141.115 Y166.037 E4.32849
G1 X140.217 Y166.137 E4.35854
G1 X139.712 Y166.159 E4.37536
G1 X138.661 Y166.175 E4.41032
G1 X91.057 Y166.175 E5.99363
G1 X90.38 Y166.165 E6.01615
G1 X89.479 Y166.112 E6.04617
G1 X88.586 Y165.979 E6.0762
G1 X87.729 Y165.774 E6.10551
G1 X87.533 Y165.718 E6.11229
G1 X86.676 Y165.431 E6.14235
G1 X85.848 Y165.07 E6.17239
G1 X85.056 Y164.638 E6.2024
G1 X84.305 Y164.136 E6.23244
G1 X83.601 Y163.571 E6.26246
G1 X82.949 Y162.945 E6.29253
G1 X82.356 Y162.264 E6.32256
G1 X81.621 Y161.212 E6.36524
G1 X81.506 Y161.023 E6.3726
G1 X81.071 Y160.231 E6.40266
G1 X80.708 Y159.405 E6.43267
G1 X80.42 Y158.549 E6.4627
G1 X80.208 Y157.671 E6.49275
G1 X80.075 Y156.778 E6.52278
G1 X80.029 Y156.14 E6.54405
G1 X80.011 Y155.599 E6.56205
G1 X80.007 Y155.077 E6.57942
G1 X80.011 Y147.151 E6.84304
G1 X80.02 Y146.496 E6.86482
G1 X80.072 Y145.594 E6.89487
G1 X80.204 Y144.701 E6.9249
G1 X80.415 Y143.823 E6.95493
G1 X80.787 Y142.753 E6.99261
G1 X81.242 Y141.654 E7.03217
G1 X81.589 Y140.858 E7.06105
G1 X82.54 Y138.494 E7.1458
G1 X83.407 Y136.145 E7.22908
G1 X84.222 Y133.735 E7.3137
G1 X84.972 Y131.289 E7.39879
G1 X85.647 Y128.841 E7.48325
G1 X86.25 Y126.386 E7.56733
G1 X86.798 Y123.858 E7.65337
G1 X87.25 Y121.423 E7.73574
G1 X87.648 Y118.893 E7.82092
G1 X87.97 Y116.389 E7.90489
G1 X88.225 Y113.833 E7.99033
G1 X88.405 Y111.322 E8.07406
G1 X88.514 Y108.77 E8.15901
G1 X88.552 Y106.228 E8.24357
G1 X88.518 Y103.701 E8.32763
G1 X88.411 Y101.16 E8.41222
G1 X88.234 Y98.636 E8.49637
G1 X87.98 Y96.068 E8.5822
G1 X87.663 Y93.577 E8.66572
G1 X87.274 Y91.089 E8.74947
G1 X86.807 Y88.57 E8.83468
G1 X86.274 Y86.086 E8.91918
G1 X85.681 Y83.66 E9.00225
G1 X84.997 Y81.172 E9.08807
G1 X84.254 Y78.739 E9.17268
G1 X83.441 Y76.322 E9.2575
G1 X82.572 Y73.964 E9.34108
G1 X81.253 Y70.719 E9.45758
G1 X80.882 Y69.853 E9.48892
G1 X80.563 Y69.008 E9.51896
G1 X80.32 Y68.138 E9.549
G1 X80.166 Y67.319 E9.57672
G1 X80.121 Y67.013 E9.58701
G1 X80.029 Y66.115 E9.61703
G1 X80.013 Y65.656 E9.63231
G1 X80.007 Y65.125 E9.64997
G1 X80.011 Y57.134 E9.91575
G1 X80.02 Y56.493 E9.93707
G1 X80.073 Y55.591 E9.96713
G1 X80.205 Y54.698 E9.99715
G1 X80.416 Y53.82 E10.02718
G1 X80.703 Y52.964 E10.05721
G1 X81.065 Y52.136 E10.08727
G1 X81.534 Y51.287 E10.11953
G1 X81.643 Y51.11 E10.12644
G1 X82.15 Y50.363 E10.15647
G1 X82.721 Y49.664 E10.18649
G1 X83.352 Y49.018 E10.21653
G1 X84.038 Y48.43 E10.24658
G1 X84.772 Y47.905 E10.27659
G1 X85.551 Y47.447 E10.30665
G1 X86.213 Y47.125 E10.33113
G1 X87.051 Y46.788 E10.36117
G1 X87.915 Y46.526 E10.3912
G1 X88.799 Y46.341 E10.42124
G1 X89.696 Y46.235 E10.45128
G1 X90.245 Y46.21 E10.46956
G1 X91.488 Y46.188 E10.51091
G1 X138.794 Y46.189 E12.08431
G1 X139.639 Y46.2 E12.11242
G0 F6000 X139.645 Y45.8
G1 F1200 X140.564 Y45.853 E12.14304
G1 X141.475 Y45.986 E12.17366
G1 X142.371 Y46.197 E12.20428
G1 X143.263 Y46.492 E12.23552
G1 X143.468 Y46.57 E12.24282
G1 X144.313 Y46.934 E12.27342
G1 X145.124 Y47.371 E12.30406
G1 X145.893 Y47.876 E12.33466
G1 X146.616 Y48.446 E12.36528
G1 X147.287 Y49.077 E12.39592
G1 X147.901 Y49.763 E12.42654
G1 X148.452 Y50.5 E12.45714
G1 X148.938 Y51.282 E12.48777
G1 X149.412 Y52.234 E12.52314
G1 X149.495 Y52.424 E12.53004
G1 X149.826 Y53.283 E12.56065
G1 X150.082 Y54.167 E12.59126
G1 X150.26 Y55.07 E12.62188
G1 X150.359 Y55.986 E12.65252
G1 X150.38 Y56.501 E12.66966
G1 X150.393 Y57.435 E12.70073
G1 X150.393 Y154.95 E15.94409
G1 X150.392 Y155.097 E15.94898
G1 X150.382 Y155.818 E15.97296
G1 X150.329 Y156.737 E16.00358
G1 X150.197 Y157.648 E16.0342
G1 X149.986 Y158.544 E16.06481
G1 X149.79 Y159.166 E16.0865
G1 X149.724 Y159.355 E16.09316
G1 X149.383 Y160.21 E16.12378
G1 X148.969 Y161.032 E16.15439
G1 X148.486 Y161.816 E16.18502
G1 X147.936 Y162.554 E16.21563
G1 X147.324 Y163.242 E16.24626
G1 X146.655 Y163.874 E16.27687
G1 X145.933 Y164.446 E16.3075
G1 X144.887 Y165.114 E16.34878
G1 X144.708 Y165.214 E16.3556
G1 X143.885 Y165.628 E16.38624
G1 X143.03 Y165.968 E16.41685
G1 X142.148 Y166.234 E16.44749
G1 X141.247 Y166.421 E16.47809
G1 X140.333 Y166.53 E16.50871
G1 X139.719 Y166.558 E16.52915
G1 X138.661 Y166.575 E16.56435
G1 X91.051 Y166.575 E18.14786
G1 X90.374 Y166.565 E18.17038
G1 X89.455 Y166.511 E18.201
G1 X88.544 Y166.378 E18.23162
G1 X87.619 Y166.158 E18.26324
G1 X87.423 Y166.102 E18.27002
G1 X86.55 Y165.811 E18.30063
G1 X85.705 Y165.445 E18.33126
G1 X84.895 Y165.007 E18.36189
G1 X84.126 Y164.501 E18.3925
G1 X83.404 Y163.93 E18.42312
G1 X82.734 Y163.298 E18.45375
G1 X82.122 Y162.611 E18.48435
G1 X81.571 Y161.873 E18.51499
G1 X81.28 Y161.42 E18.53289
G1 X81.165 Y161.231 E18.54025
G1 X80.721 Y160.424 E18.57089
G1 X80.348 Y159.582 E18.60152
G1 X80.051 Y158.711 E18.63213
G1 X79.829 Y157.818 E18.66273
G1 X79.687 Y156.908 E18.69336
G1 X79.629 Y156.156 E18.71845
G1 X79.611 Y155.603 E18.73685
G1 X79.607 Y155.077 E18.75435
G1 X79.611 Y147.145 E19.01817
G1 X79.62 Y146.49 E19.03995
G1 X79.673 Y145.571 E19.07057
G1 X79.805 Y144.66 E19.10119
G1 X80.016 Y143.764 E19.1318
G1 X80.417 Y142.601 E19.17272
G1 X80.875 Y141.495 E19.21254
G1 X81.217 Y140.71 E19.24101
G1 X82.158 Y138.372 E19.32484
G1 X83.04 Y135.983 E19.40954
G1 X83.847 Y133.595 E19.49338
G1 X84.58 Y131.204 E19.57656
G1 X85.258 Y128.744 E19.66143
G1 X85.863 Y126.285 E19.74565
G1 X86.401 Y123.798 E19.83028
G1 X86.861 Y121.324 E19.91398
G1 X87.25 Y118.851 E19.99724
G1 X87.573 Y116.335 E20.08161
G1 X87.827 Y113.798 E20.16641
G1 X88.007 Y111.279 E20.25041
G1 X88.114 Y108.781 E20.33357
G1 X88.152 Y106.227 E20.41853
G1 X88.118 Y103.723 E20.50182
G1 X88.011 Y101.168 E20.58687
G1 X87.835 Y98.671 E20.67013
G1 X87.584 Y96.123 E20.75529
G1 X87.269 Y93.653 E20.8381
G1 X86.873 Y91.118 E20.92344
G1 X86.416 Y88.655 E21.00676
G1 X85.881 Y86.16 E21.09163
G1 X85.293 Y83.756 E21.17394
G1 X84.615 Y81.29 E21.25901
G1 X83.876 Y78.867 E21.34326
G1 X83.073 Y76.482 E21.42696
G1 X82.199 Y74.11 E21.51104
G1 X80.882 Y70.87 E21.62736
G1 X80.514 Y70.011 E21.65845
G1 X80.188 Y69.149 E21.6891
G1 X79.939 Y68.263 E21.71971
G1 X79.77 Y67.377 E21.74971
G1 X79.725 Y67.071 E21.76
G1 X79.631 Y66.155 E21.79062
G1 X79.613 Y65.661 E21.80706
G1 X79.607 Y65.125 E21.82489
G1 X79.611 Y57.128 E22.09087
G1 X79.62 Y56.487 E22.11219
G1 X79.673 Y55.568 E22.14281
G1 X79.805 Y54.657 E22.17343
G1 X80.016 Y53.761 E22.20404
G1 X80.304 Y52.886 E22.23468
G1 X80.667 Y52.04 E22.2653
G1 X81.193 Y51.078 E22.30177
G1 X81.302 Y50.901 E22.30868
G1 X81.819 Y50.138 E22.33934
G1 X82.399 Y49.424 E22.36993
G1 X83.039 Y48.762 E22.40056
G1 X83.735 Y48.159 E22.43119
G1 X84.48 Y47.618 E22.46181
G1 X85.269 Y47.144 E22.49242
G1 X86.047 Y46.761 E22.52127
G1 X86.901 Y46.416 E22.5519
G1 X87.781 Y46.147 E22.58251
G1 X88.682 Y45.955 E22.61315
G1 X89.595 Y45.842 E22.64374
G1 X90.238 Y45.81 E22.66516
G1 X91.488 Y45.788 E22.70674
G1 X138.794 Y45.789 E24.28014
G1 X139.645 Y45.8 E24.30845
G0 F6000 X139.65 Y45.4
G1 F1200 X140.587 Y45.454 E24.33967
G1 X141.515 Y45.586 E24.37084
G1 X142.429 Y45.798 E24.40205
G1 X143.405 Y46.118 E24.43621
G1 X143.61 Y46.196 E24.44351
G1 X144.471 Y46.567 E24.47469
G1 X145.298 Y47.009 E24.50588
G1 X146.084 Y47.521 E24.53708
G1 X146.824 Y48.097 E24.56827
G1 X147.512 Y48.735 E24.59947
G1 X148.143 Y49.429 E24.63067
G1 X148.713 Y50.174 E24.66187
G1 X149.217 Y50.964 E24.69304
G1 X149.778 Y52.074 E24.7344
G1 X149.861 Y52.264 E24.7413
G1 X150.2 Y53.138 E24.77248
G1 X150.462 Y54.039 E24.80369
G1 X150.647 Y54.958 E24.83487
G1 X150.754 Y55.89 E24.86607
G1 X150.78 Y56.495 E24.88621
G1 X150.793 Y57.435 E24.91748
G1 X150.793 Y154.95 E28.16084
G1 X150.792 Y155.103 E28.16593
G1 X150.782 Y155.824 E28.18991
G1 X150.729 Y156.76 E28.22109
G1 X150.596 Y157.688 E28.25227
G1 X150.385 Y158.602 E28.28347
G1 X150.168 Y159.298 E28.30772
G1 X150.102 Y159.487 E28.31438
G1 X149.755 Y160.358 E28.34556
G1 X149.336 Y161.197 E28.37675
G1 X148.846 Y161.997 E28.40796
G1 X148.29 Y162.752 E28.43914
G1 X147.672 Y163.457 E28.47033
G1 X146.996 Y164.107 E28.50152
G1 X146.267 Y164.697 E28.53271
G1 X145.49 Y165.223 E28.56392
G1 X144.903 Y165.563 E28.58648
G1 X144.065 Y165.985 E28.61769
G1 X143.195 Y166.334 E28.64886
G1 X142.298 Y166.608 E28.68006
G1 X141.381 Y166.805 E28.71125
G1 X140.45 Y166.922 E28.74246
G1 X139.726 Y166.958 E28.76657
G1 X138.661 Y166.975 E28.802
G1 X91.046 Y166.975 E30.38568
G1 X90.369 Y166.965 E30.4082
G1 X89.432 Y166.911 E30.43942
G1 X88.504 Y166.778 E30.4706
G1 X87.509 Y166.543 E30.5046
G1 X87.313 Y166.487 E30.51138
G1 X86.423 Y166.191 E30.54258
G1 X85.562 Y165.82 E30.57376
G1 X84.735 Y165.378 E30.60495
G1 X83.949 Y164.866 E30.63615
G1 X83.209 Y164.29 E30.66734
G1 X82.521 Y163.652 E30.69855
G1 X81.89 Y162.958 E30.72974
G1 X81.32 Y162.213 E30.76094
G1 X80.938 Y161.628 E30.78418
G1 X80.823 Y161.439 E30.79154
G1 X80.37 Y160.618 E30.82273
G1 X79.989 Y159.761 E30.85392
G1 X79.682 Y158.874 E30.88514
G1 X79.451 Y157.965 E30.91633
G1 X79.299 Y157.04 E30.94751
G1 X79.229 Y156.173 E30.97644
G1 X79.22 Y155.954 E30.98373
G1 X79.211 Y155.607 E30.99528
G1 X79.207 Y155.077 E31.01291
G1 X79.211 Y147.14 E31.27689
G1 X79.22 Y146.485 E31.29868
G1 X79.273 Y145.548 E31.32989
G1 X79.405 Y144.62 E31.36107
G1 X79.616 Y143.706 E31.39227
G1 X80.047 Y142.448 E31.4365
G1 X80.508 Y141.335 E31.47657
G1 X80.856 Y140.537 E31.50552
G1 X81.788 Y138.221 E31.58856
G1 X82.657 Y135.865 E31.67208
G1 X83.461 Y133.487 E31.75557
G1 X84.207 Y131.053 E31.84024
G1 X84.868 Y128.657 E31.92291
G1 X85.471 Y126.203 E32.00696
G1 X86.011 Y123.713 E32.0917
G1 X86.465 Y121.266 E32.17448
G1 X86.858 Y118.77 E32.25852
G1 X87.174 Y116.312 E32.34094
G1 X87.428 Y113.769 E32.42594
G1 X87.607 Y111.267 E32.50937
G1 X87.714 Y108.758 E32.5929
G1 X87.752 Y106.227 E32.67709
G1 X87.718 Y103.711 E32.76078
G1 X87.613 Y101.213 E32.84394
G1 X87.437 Y98.702 E32.92766
G1 X87.187 Y96.176 E33.01208
G1 X86.872 Y93.698 E33.09516
G1 X86.484 Y91.216 E33.17872
G1 X86.017 Y88.699 E33.26386
G1 X85.497 Y86.274 E33.34635
G1 X84.904 Y83.852 E33.42929
G1 X84.23 Y81.398 E33.51393
G1 X83.493 Y78.985 E33.59785
G1 X82.69 Y76.6 E33.68155
G1 X81.823 Y74.245 E33.76502
G1 X80.531 Y71.065 E33.87918
G1 X80.146 Y70.168 E33.91165
G1 X79.814 Y69.291 E33.94284
G1 X79.558 Y68.389 E33.97402
G1 X79.374 Y67.435 E34.00634
G1 X79.329 Y67.129 E34.01662
G1 X79.232 Y66.197 E34.04779
G1 X79.213 Y65.666 E34.06546
G1 X79.207 Y65.125 E34.08346
G1 X79.211 Y57.123 E34.3496
G1 X79.22 Y56.482 E34.37093
G1 X79.273 Y55.545 E34.40214
G1 X79.406 Y54.617 E34.43332
G1 X79.617 Y53.703 E34.46452
G1 X79.906 Y52.811 E34.49571
G1 X80.269 Y51.946 E34.52691
G1 X80.853 Y50.868 E34.56768
G1 X80.962 Y50.691 E34.5746
G1 X81.487 Y49.914 E34.60579
G1 X82.077 Y49.185 E34.63698
G1 X82.726 Y48.508 E34.66817
G1 X83.431 Y47.89 E34.69936
G1 X84.186 Y47.333 E34.73056
G1 X84.986 Y46.843 E34.76176
G1 X85.881 Y46.397 E34.79502
G1 X86.751 Y46.045 E34.82624
G1 X87.647 Y45.769 E34.85742
G1 X88.563 Y45.569 E34.8886
G1 X89.493 Y45.449 E34.91979
G1 X90.23 Y45.41 E34.94434
G1 X91.488 Y45.388 E34.98619
G1 X138.794 Y45.389 E36.55959
G1 X139.65 Y45.4 E36.58806
G1 F2700 E31.58806
G0 F6000 X130.827 Y61.867
G0 X130.76 Y61.868
G0 X130.582 Y62.327
G1 F2700 E36.58806
G1 F1200 X133.857 Y62.325 E36.69699
G1 X133.854 Y65.289 E36.79557
G1 X133.437 Y64.779 E36.81749
G1 X133.342 Y64.668 E36.82234
G1 X133.11 Y64.424 E36.83354
G1 X132.145 Y63.498 E36.87803
G1 X131.884 Y63.282 E36.88929
G1 X130.797 Y62.466 E36.9345
G1 X130.582 Y62.327 E36.94302
G0 F6000 X130.331 Y62.641
G1 F1200 X129.291 Y62.031 E36.98312
G1 X129.087 Y61.927 E36.99073
G1 X134.257 Y61.924 E37.16269
G1 X134.254 Y66.49 E37.31455
G1 X134.144 Y66.317 E37.32137
G1 X134.059 Y66.191 E37.32643
G1 X133.884 Y65.958 E37.33612
G1 X133.043 Y64.933 E37.38022
G1 X132.832 Y64.712 E37.39038
G1 X131.879 Y63.797 E37.43432
G1 X131.643 Y63.601 E37.44453
G1 X130.57 Y62.795 E37.48916
G1 X130.331 Y62.641 E37.49862
G0 F6000 X130.129 Y62.986
G1 F1200 X129.089 Y62.376 E37.53872
G1 X128.773 Y62.216 E37.5505
G1 X127.666 Y61.732 E37.59068
G1 X127.49 Y61.662 E37.59698
G1 X127.295 Y61.596 E37.60383
G1 X127.066 Y61.527 E37.61179
G1 X134.657 Y61.524 E37.86426
G1 X134.654 Y67.92 E38.077
G1 X134.626 Y67.862 E38.07914
G1 X134.437 Y67.525 E38.09199
G1 X133.732 Y66.421 E38.13556
G1 X133.575 Y66.211 E38.14428
G1 X132.743 Y65.198 E38.18788
G1 X132.555 Y65 E38.19696
G1 X131.613 Y64.096 E38.24038
G1 X131.401 Y63.92 E38.24955
G1 X130.343 Y63.124 E38.29358
G1 X130.129 Y62.986 E38.30205
G0 F6000 X129.926 Y63.331
G1 F1200 X128.886 Y62.721 E38.34215
G1 X128.613 Y62.582 E38.35234
G1 X127.505 Y62.098 E38.39256
G1 X127.354 Y62.038 E38.39796
G1 X127.18 Y61.979 E38.40407
G1 X125.932 Y61.606 E38.4474
G1 X125.696 Y61.554 E38.45543
G1 X124.528 Y61.35 E38.49487
G1 X124.31 Y61.321 E38.50218
G1 X124.204 Y61.313 E38.50572
G1 X122.889 Y61.238 E38.54953
G1 X97.943 Y61.24 E39.37924
G1 X97.942 Y61.124 E39.38309
G1 X100.76 Y61.128 E39.47682
G1 X135.058 Y61.124 E40.61758
G1 X135.054 Y64.487 E40.72943
G1 X135.054 Y69.84 E40.90747
G1 X134.918 Y69.442 E40.92146
G1 X134.789 Y69.122 E40.93294
G1 X134.266 Y68.036 E40.97303
G1 X134.152 Y67.826 E40.98098
G1 X134.099 Y67.74 E40.98434
G1 X133.404 Y66.65 E41.02733
G1 X133.265 Y66.464 E41.03505
G1 X132.443 Y65.463 E41.07814
G1 X132.277 Y65.288 E41.08616
G1 X131.347 Y64.395 E41.12904
G1 X131.16 Y64.239 E41.13714
G1 X130.116 Y63.454 E41.18059
G1 X129.926 Y63.331 E41.18811
G0 F6000 X129.724 Y63.676
G1 F1200 X128.684 Y63.066 E41.22821
G1 X128.453 Y62.948 E41.23684
G1 X127.217 Y62.413 E41.28164
G1 X127.065 Y62.362 E41.28697
G1 X125.832 Y61.993 E41.32978
G1 X125.628 Y61.948 E41.33673
G1 X124.46 Y61.744 E41.37616
G1 X124.18 Y61.712 E41.38553
G1 X122.889 Y61.638 E41.42854
G1 X97.543 Y61.641 E42.27156
G1 X97.542 Y60.724 E42.30205
G1 X100.76 Y60.728 E42.40909
G1 X135.458 Y60.723 E43.56315
G1 X135.454 Y64.487 E43.68834
G1 X135.455 Y147.162 E46.43812
G1 X135.459 Y151.64 E46.58706
G1 X132.24 Y151.636 E46.69412
G1 X97.543 Y151.641 E47.84815
G1 X97.544 Y150.725 E47.87862
G1 X100.514 Y150.728 E47.9774
G1 X130.547 Y150.726 E48.9763
G1 X130.722 Y150.718 E48.98213
G1 X130.846 Y150.706 E48.98627
G1 X131.217 Y150.66 E48.9987
G1 X131.55 Y150.592 E49.01001
G1 X131.634 Y150.568 E49.01291
