;FLAVOR:Marlin
;TIME:5551
;Filament used: 2.35235m
;Layer height: 0.2
;MINX:96.028
;MINY:96.031
;MINZ:0.2
;MAXX:133.972
;MAXY:133.969
;MAXZ:98.4
;Generated with Cura_SteamEngine 4.6.1
M140 S55
M105
M190 S55
M104 S210
M105
M109 S210
M82 ;absolute extrusion mode
; Ender 3 Custom Start G-code
G92 E0 ; Reset Extruder
G28 ; Home all axes
G1 Z2.0 F3000 ; Move Z Axis up little to prevent scratching of Heat Bed
G1 X0.1 Y20 Z0.3 F5000.0 ; Move to start position
G1 X0.1 Y200.0 Z0.3 F1500.0 E15 ; Draw the first line
G1 X0.4 Y200.0 Z0.3 F5000.0 ; Move to side a little
G1 X0.4 Y20 Z0.3 F1500.0 E30 ; Draw the second line
G92 E0 ; Reset Extruder
G1 Z2.0 F3000 ; Move Z Axis up little to prevent scratching of Heat Bed
G1 X5 Y20 Z0.3 F5000.0 ; Move over to prevent blob squish
G92 E0
G92 E0
G1 F2700 E-5
;LAYER_COUNT:492
;LAYER:0
M107
G1 F300 Z0.4
G0 F6000 X117.097 Y96.951 Z0.4
;TYPE:SKIRT
G1 F300 Z0.2
G1 F2700 E0
G1 F1200 X118.427 Y97.154 E0.04475
G1 X119.421 Y97.374 E0.07861
G1 X120.634 Y97.722 E0.12058
G1 X121.534 Y98.042 E0.15235
G1 X122.694 Y98.538 E0.19431
G1 X123.632 Y99.009 E0.22922
G1 X124.097 Y99.257 E0.24675
G1 X124.301 Y99.373 E0.25456
G1 X125.001 Y99.81 E0.282
G1 X125.302 Y100.015 E0.29411
G1 X125.668 Y100.276 E0.30907
G1 X126.108 Y100.605 E0.32734
G1 X126.83 Y101.198 E0.35841
G1 X127.439 Y101.747 E0.38569
G1 X128.224 Y102.537 E0.42273
G1 X128.903 Y103.299 E0.45667
G1 X129.702 Y104.319 E0.49977
G1 X130.264 Y105.139 E0.53283
G1 X130.918 Y106.236 E0.57531
G1 X131.384 Y107.141 E0.60917
G1 X131.898 Y108.314 E0.65176
G1 X132.234 Y109.235 E0.68437
G1 X132.598 Y110.469 E0.72716
G1 X132.83 Y111.489 E0.76195
G1 X133.037 Y112.775 E0.80528
G1 X133.129 Y113.732 E0.83725
G1 X133.172 Y114.981 E0.87882
G1 X133.145 Y115.989 E0.91236
G1 X133.03 Y117.267 E0.95504
G1 X132.876 Y118.268 E0.98872
G1 X132.596 Y119.541 E1.03207
G1 X132.318 Y120.506 E1.06547
G1 X131.894 Y121.696 E1.10749
G1 X131.51 Y122.593 E1.13994
G1 X130.94 Y123.725 E1.1821
G1 X130.424 Y124.608 E1.21611
G1 X129.706 Y125.676 E1.25892
G1 X129.106 Y126.457 E1.29167
G1 X128.254 Y127.431 E1.33471
G1 X127.521 Y128.169 E1.36931
G1 X126.569 Y129.014 E1.41165
G1 X125.806 Y129.611 E1.44387
G1 X124.738 Y130.343 E1.48693
G1 X123.856 Y130.868 E1.52107
G1 X122.725 Y131.449 E1.56336
G1 X121.833 Y131.839 E1.59574
G1 X120.642 Y132.273 E1.6379
G1 X119.659 Y132.564 E1.672
G1 X118.382 Y132.855 E1.71556
G1 X117.411 Y133.011 E1.74827
G1 X116.197 Y133.132 E1.78885
G1 X115.239 Y133.17 E1.82074
G1 X113.961 Y133.14 E1.86326
G1 X112.903 Y133.049 E1.89858
G1 X111.573 Y132.846 E1.94333
G1 X110.579 Y132.626 E1.97719
G1 X109.366 Y132.278 E2.01916
G1 X108.466 Y131.958 E2.05093
G1 X107.306 Y131.462 E2.09289
G1 X106.368 Y130.991 E2.1278
G1 X105.898 Y130.74 E2.14552
G1 X105.689 Y130.621 E2.15352
G1 X104.987 Y130.183 E2.18104
G1 X104.688 Y129.979 E2.19308
G1 X104.329 Y129.722 E2.20776
G1 X103.893 Y129.396 E2.22587
G1 X103.171 Y128.802 E2.25697
G1 X102.561 Y128.252 E2.28429
G1 X101.776 Y127.463 E2.3213
G1 X101.097 Y126.701 E2.35525
G1 X100.298 Y125.681 E2.39834
G1 X99.736 Y124.861 E2.43141
G1 X99.082 Y123.764 E2.47389
G1 X98.616 Y122.859 E2.50774
G1 X98.102 Y121.686 E2.55034
G1 X97.766 Y120.765 E2.58295
G1 X97.402 Y119.531 E2.62574
G1 X97.17 Y118.511 E2.66053
G1 X96.963 Y117.225 E2.70385
G1 X96.871 Y116.268 E2.73583
G1 X96.828 Y115.019 E2.7774
G1 X96.855 Y114.011 E2.81093
G1 X96.97 Y112.733 E2.85361
G1 X97.124 Y111.732 E2.8873
G1 X97.404 Y110.459 E2.93065
G1 X97.682 Y109.494 E2.96405
G1 X98.109 Y108.296 E3.00635
G1 X98.499 Y107.387 E3.03925
G1 X99.071 Y106.255 E3.08143
G1 X99.581 Y105.384 E3.115
G1 X100.296 Y104.322 E3.15759
G1 X100.897 Y103.54 E3.19039
G1 X101.747 Y102.568 E3.23334
G1 X102.487 Y101.823 E3.26826
G1 X103.45 Y100.969 E3.31107
G1 X104.205 Y100.38 E3.34292
G1 X105.262 Y99.657 E3.38551
G1 X106.144 Y99.132 E3.41965
G1 X107.273 Y98.552 E3.46187
G1 X108.169 Y98.16 E3.4944
G1 X109.369 Y97.722 E3.53689
G1 X110.348 Y97.433 E3.57084
G1 X111.618 Y97.145 E3.61415
G1 X112.589 Y96.989 E3.64686
G1 X113.803 Y96.868 E3.68744
G1 X114.761 Y96.83 E3.71932
G1 X116.039 Y96.86 E3.76184
G1 X117.097 Y96.951 E3.79716
G0 F6000 X117.131 Y96.552
G1 F1200 X118.044 Y96.671 E3.82779
G1 X118.514 Y96.763 E3.84371
G1 X119.508 Y96.983 E3.87757
G1 X120.768 Y97.346 E3.92119
G1 X121.668 Y97.666 E3.95296
G1 X122.874 Y98.18 E3.99656
G1 X123.812 Y98.651 E4.03147
G1 X124.295 Y98.91 E4.0497
G1 X124.499 Y99.026 E4.0575
G1 X125.226 Y99.479 E4.08599
G1 X125.527 Y99.684 E4.09811
G1 X125.908 Y99.956 E4.11368
G1 X126.348 Y100.285 E4.13195
G1 X127.097 Y100.901 E4.1642
G1 X127.706 Y101.45 E4.19148
G1 X128.523 Y102.271 E4.23
G1 X129.202 Y103.033 E4.26395
G1 X130.032 Y104.092 E4.3087
G1 X130.594 Y104.912 E4.34176
G1 X131.274 Y106.052 E4.38591
G1 X131.74 Y106.957 E4.41977
G1 X132.274 Y108.177 E4.46406
G1 X132.61 Y109.098 E4.49667
G1 X132.988 Y110.38 E4.54112
G1 X133.22 Y111.4 E4.57591
G1 X133.435 Y112.737 E4.62096
G1 X133.527 Y113.694 E4.65293
G1 X133.572 Y114.992 E4.69613
G1 X133.545 Y116 E4.72967
G1 X133.426 Y117.328 E4.77401
G1 X133.272 Y118.329 E4.8077
G1 X132.981 Y119.651 E4.85272
G1 X132.703 Y120.616 E4.88612
G1 X132.262 Y121.854 E4.92983
G1 X131.878 Y122.751 E4.96229
G1 X131.285 Y123.927 E5.00609
G1 X130.769 Y124.81 E5.04011
G1 X130.023 Y125.92 E5.08459
G1 X129.423 Y126.701 E5.11735
G1 X128.538 Y127.713 E5.16206
G1 X127.805 Y128.451 E5.19666
G1 X126.816 Y129.329 E5.24064
G1 X126.053 Y129.926 E5.27287
G1 X124.943 Y130.687 E5.31763
G1 X124.061 Y131.212 E5.35177
G1 X122.885 Y131.815 E5.39572
G1 X121.993 Y132.205 E5.4281
G1 X120.756 Y132.657 E5.47191
G1 X119.773 Y132.948 E5.506
G1 X118.445 Y133.25 E5.5513
G1 X117.474 Y133.406 E5.58401
G1 X116.213 Y133.532 E5.62616
G1 X115.255 Y133.57 E5.65805
G1 X113.927 Y133.539 E5.70223
G1 X112.869 Y133.448 E5.73755
G1 X111.956 Y133.329 E5.76817
G1 X111.486 Y133.237 E5.7841
G1 X110.492 Y133.017 E5.81796
G1 X109.232 Y132.654 E5.86157
G1 X108.332 Y132.334 E5.89334
G1 X107.126 Y131.82 E5.93695
G1 X106.188 Y131.349 E5.97186
G1 X105.7 Y131.088 E5.99026
G1 X105.491 Y130.969 E5.99826
G1 X104.762 Y130.513 E6.02686
G1 X104.463 Y130.309 E6.0389
G1 X104.089 Y130.042 E6.05419
G1 X103.653 Y129.716 E6.07229
G1 X102.903 Y129.099 E6.10459
G1 X102.293 Y128.549 E6.13191
G1 X101.477 Y127.729 E6.17039
G1 X100.798 Y126.967 E6.20433
G1 X99.968 Y125.908 E6.24909
G1 X99.406 Y125.088 E6.28215
G1 X98.726 Y123.948 E6.3263
G1 X98.26 Y123.043 E6.36016
G1 X97.726 Y121.823 E6.40445
G1 X97.39 Y120.902 E6.43706
G1 X97.012 Y119.62 E6.48151
G1 X96.78 Y118.6 E6.5163
G1 X96.565 Y117.263 E6.56134
G1 X96.473 Y116.306 E6.59332
G1 X96.428 Y115.008 E6.63652
G1 X96.455 Y114 E6.67006
G1 X96.574 Y112.672 E6.7144
G1 X96.728 Y111.671 E6.74809
G1 X97.019 Y110.349 E6.79311
G1 X97.297 Y109.384 E6.82651
G1 X97.742 Y108.139 E6.87049
G1 X98.132 Y107.23 E6.90338
G1 X98.726 Y106.053 E6.94723
G1 X99.236 Y105.182 E6.98081
G1 X99.978 Y104.079 E7.02502
G1 X100.579 Y103.297 E7.05782
G1 X101.463 Y102.286 E7.10249
G1 X102.203 Y101.541 E7.13742
G1 X103.204 Y100.653 E7.18192
G1 X103.959 Y100.064 E7.21377
G1 X105.057 Y99.313 E7.25801
G1 X105.939 Y98.788 E7.29215
G1 X107.112 Y98.186 E7.33601
G1 X108.008 Y97.794 E7.36853
G1 X109.256 Y97.339 E7.41272
G1 X110.235 Y97.05 E7.44667
G1 X111.555 Y96.75 E7.49169
G1 X112.526 Y96.594 E7.5244
G1 X113.787 Y96.468 E7.56655
G1 X114.745 Y96.43 E7.59844
G1 X116.073 Y96.461 E7.64262
G1 X117.131 Y96.552 E7.67794
G0 F6000 X117.166 Y96.153
G1 F1200 X118.096 Y96.274 E7.70913
G1 X118.6 Y96.373 E7.72621
G1 X119.594 Y96.593 E7.76007
G1 X120.902 Y96.969 E7.80534
G1 X121.802 Y97.289 E7.83711
G1 X123.053 Y97.823 E7.88235
G1 X123.991 Y98.294 E7.91726
G1 X124.492 Y98.562 E7.93616
G1 X124.696 Y98.678 E7.94396
G1 X125.451 Y99.148 E7.97354
G1 X125.752 Y99.353 E7.98566
G1 X126.147 Y99.635 E8.0018
G1 X126.587 Y99.964 E8.02007
G1 X127.365 Y100.604 E8.05358
G1 X127.974 Y101.153 E8.08085
G1 X128.822 Y102.005 E8.12083
G1 X129.501 Y102.767 E8.15478
G1 X130.361 Y103.866 E8.20119
G1 X130.923 Y104.686 E8.23426
G1 X131.63 Y105.869 E8.28009
G1 X132.096 Y106.774 E8.31395
G1 X132.65 Y108.04 E8.35991
G1 X132.986 Y108.961 E8.39252
G1 X133.378 Y110.291 E8.43864
G1 X133.61 Y111.311 E8.47343
G1 X133.834 Y112.698 E8.52016
G1 X133.926 Y113.655 E8.55214
G1 X133.972 Y115.003 E8.597
G1 X133.945 Y116.011 E8.63053
G1 X133.821 Y117.389 E8.67655
G1 X133.667 Y118.39 E8.71024
G1 X133.365 Y119.762 E8.75696
G1 X133.087 Y120.727 E8.79036
G1 X132.629 Y122.011 E8.83571
G1 X132.245 Y122.908 E8.86816
G1 X131.63 Y124.129 E8.91363
G1 X131.114 Y125.012 E8.94765
G1 X130.34 Y126.163 E8.99378
G1 X129.74 Y126.944 E9.02654
G1 X128.822 Y127.995 E9.07295
G1 X128.089 Y128.733 E9.10754
G1 X127.062 Y129.644 E9.15321
G1 X126.299 Y130.241 E9.18543
G1 X125.147 Y131.03 E9.23187
G1 X124.265 Y131.555 E9.26601
G1 X123.046 Y132.182 E9.3116
G1 X122.154 Y132.572 E9.34398
G1 X120.869 Y133.041 E9.38948
G1 X119.886 Y133.332 E9.42357
G1 X118.977 Y133.559 E9.45474
G1 X118.509 Y133.645 E9.47056
G1 X117.538 Y133.801 E9.50327
G1 X116.229 Y133.931 E9.54702
G1 X115.271 Y133.969 E9.57891
G1 X113.892 Y133.938 E9.62479
G1 X112.834 Y133.847 E9.66011
G1 X111.904 Y133.726 E9.6913
G1 X111.4 Y133.627 E9.70838
G1 X110.406 Y133.407 E9.74225
G1 X109.098 Y133.031 E9.78751
G1 X108.198 Y132.711 E9.81928
G1 X106.947 Y132.177 E9.86452
G1 X106.009 Y131.706 E9.89943
G1 X105.502 Y131.435 E9.91855
G1 X105.293 Y131.316 E9.92655
G1 X104.536 Y130.844 E9.95622
G1 X104.237 Y130.64 E9.96826
G1 X103.85 Y130.363 E9.98409
G1 X103.414 Y130.037 E10.0022
G1 X102.635 Y129.397 E10.03573
G1 X102.025 Y128.847 E10.06305
G1 X101.178 Y127.995 E10.10301
G1 X100.499 Y127.233 E10.13695
G1 X99.639 Y126.134 E10.18337
G1 X99.077 Y125.314 E10.21643
G1 X98.37 Y124.131 E10.26227
G1 X97.904 Y123.226 E10.29613
G1 X97.35 Y121.96 E10.34209
G1 X97.014 Y121.039 E10.3747
G1 X96.622 Y119.709 E10.42081
G1 X96.39 Y118.689 E10.4556
G1 X96.166 Y117.302 E10.50233
G1 X96.074 Y116.345 E10.53431
G1 X96.028 Y114.997 E10.57917
G1 X96.055 Y113.989 E10.61271
G1 X96.179 Y112.611 E10.65873
G1 X96.333 Y111.61 E10.69241
G1 X96.635 Y110.238 E10.73914
G1 X96.913 Y109.273 E10.77254
G1 X97.374 Y107.981 E10.81817
G1 X97.764 Y107.072 E10.85106
G1 X98.381 Y105.851 E10.89656
G1 X98.891 Y104.98 E10.93014
G1 X99.661 Y103.835 E10.97603
G1 X100.262 Y103.053 E11.00883
G1 X101.18 Y102.004 E11.0552
G1 X101.92 Y101.259 E11.09012
G1 X102.958 Y100.338 E11.13628
G1 X103.713 Y99.749 E11.16812
G1 X104.853 Y98.97 E11.21405
G1 X105.735 Y98.445 E11.24819
G1 X106.952 Y97.819 E11.29371
G1 X107.848 Y97.427 E11.32623
G1 X109.143 Y96.955 E11.37208
G1 X110.122 Y96.666 E11.40603
G1 X111.491 Y96.355 E11.45272
G1 X112.462 Y96.199 E11.48543
G1 X113.771 Y96.069 E11.52918
G1 X114.729 Y96.031 E11.56107
G1 X116.108 Y96.062 E11.60695
G1 X117.166 Y96.153 E11.64227
G1 F2700 E6.64227
G1 F300 Z0.4
;MESH:C-Clamp_Screw.stl
G0 F6000 X114.545 Y122.385 Z0.4
;TYPE:WALL-INNER
G1 F300 Z0.2
G1 F2700 E11.64227
G1 F1200 X113.636 Y122.272 E11.67273
G1 X112.716 Y122.037 E11.70432
G1 X111.863 Y121.702 E11.7348
G1 X111.05 Y121.256 E11.76564
G1 X110.29 Y120.704 E11.79688
G1 X109.6 Y120.057 E11.82834
G1 X109.017 Y119.353 E11.85874
G1 X108.516 Y118.563 E11.88986
G1 X108.12 Y117.721 E11.9208
G1 X107.833 Y116.84 E11.95162
G1 X107.66 Y115.933 E11.98233
G1 X107.602 Y115 E12.01342
G1 X107.66 Y114.067 E12.04452
G1 X107.833 Y113.16 E12.07523
G1 X108.12 Y112.279 E12.10604
G1 X108.516 Y111.437 E12.13699
G1 X109.017 Y110.647 E12.16811
G1 X109.6 Y109.943 E12.19851
G1 X110.286 Y109.299 E12.2298
G1 X111.037 Y108.752 E12.2607
G1 X111.832 Y108.314 E12.29089
G1 X112.71 Y107.966 E12.32231
G1 X113.605 Y107.735 E12.35305
G1 X114.523 Y107.618 E12.38383
G1 X115.455 Y107.615 E12.41483
G1 X116.364 Y107.728 E12.44529
G1 X117.284 Y107.963 E12.47688
G1 X118.137 Y108.298 E12.50736
G1 X118.95 Y108.744 E12.5382
G1 X119.71 Y109.296 E12.56944
G1 X120.4 Y109.943 E12.6009
G1 X120.983 Y110.647 E12.6313
G1 X121.484 Y111.437 E12.66242
G1 X121.88 Y112.279 E12.69336
G1 X122.167 Y113.16 E12.72418
G1 X122.34 Y114.067 E12.75489
G1 X122.398 Y115 E12.78598
G1 X122.34 Y115.933 E12.81707
G1 X122.167 Y116.84 E12.84779
G1 X121.88 Y117.721 E12.8786
G1 X121.484 Y118.563 E12.90955
G1 X120.983 Y119.353 E12.94067
G1 X120.4 Y120.057 E12.97107
G1 X119.714 Y120.701 E13.00236
G1 X118.963 Y121.248 E13.03326
G1 X118.168 Y121.686 E13.06345
G1 X117.29 Y122.034 E13.09487
G1 X116.395 Y122.265 E13.12561
G1 X115.477 Y122.382 E13.15639
G1 X114.545 Y122.385 E13.18739
G0 F6000 X114.521 Y122.785
;TYPE:WALL-OUTER
G1 F1200 X113.558 Y122.665 E13.21966
G1 X112.599 Y122.42 E13.25259
G1 X111.69 Y122.063 E13.28507
G1 X110.834 Y121.594 E13.31753
G1 X110.033 Y121.012 E13.35046
G1 X109.311 Y120.335 E13.38338
G1 X108.692 Y119.587 E13.41567
G1 X108.165 Y118.757 E13.44837
G1 X107.748 Y117.87 E13.48097
G1 X107.444 Y116.937 E13.51361
G1 X107.263 Y115.986 E13.54581
G1 X107.201 Y115 E13.57867
G1 X107.263 Y114.014 E13.61153
G1 X107.444 Y113.063 E13.64373
G1 X107.748 Y112.13 E13.67636
G1 X108.165 Y111.243 E13.70896
G1 X108.692 Y110.413 E13.74166
G1 X109.311 Y109.665 E13.77396
G1 X110.028 Y108.992 E13.80666
G1 X110.82 Y108.415 E13.83925
G1 X111.666 Y107.949 E13.87138
G1 X112.581 Y107.586 E13.90412
G1 X113.534 Y107.341 E13.93685
G1 X114.495 Y107.218 E13.96907
G1 X115.479 Y107.215 E14.0018
G1 X116.442 Y107.335 E14.03408
G1 X117.401 Y107.58 E14.067
G1 X118.31 Y107.937 E14.09948
G1 X119.166 Y108.406 E14.13194
G1 X119.967 Y108.988 E14.16487
G1 X120.689 Y109.665 E14.19779
G1 X121.308 Y110.413 E14.23009
G1 X121.835 Y111.243 E14.26279
G1 X122.252 Y112.13 E14.29539
G1 X122.556 Y113.063 E14.32802
G1 X122.737 Y114.014 E14.36022
G1 X122.799 Y115 E14.39308
G1 X122.737 Y115.986 E14.42594
G1 X122.556 Y116.937 E14.45814
G1 X122.252 Y117.87 E14.49078
G1 X121.835 Y118.757 E14.52337
G1 X121.308 Y119.587 E14.55607
G1 X120.689 Y120.335 E14.58837
G1 X119.972 Y121.008 E14.62107
G1 X119.18 Y121.585 E14.65367
G1 X118.334 Y122.051 E14.68579
G1 X117.419 Y122.414 E14.71853
G1 X116.466 Y122.659 E14.75126
G1 X115.505 Y122.782 E14.78348
G1 X114.521 Y122.785 E14.81621
G0 F6000 X114.547 Y122.346
G0 X114.569 Y121.995
;TYPE:SKIN
G1 F1200 X113.709 Y121.888 E14.84503
G1 X112.837 Y121.666 E14.87496
G1 X112.026 Y121.347 E14.90395
G1 X111.267 Y120.93 E14.93275
G1 X110.538 Y120.4 E14.96273
G1 X109.881 Y119.786 E14.99264
G1 X109.332 Y119.123 E15.02127
G1 X108.859 Y118.377 E15.05065
G1 X108.484 Y117.578 E15.08
G1 X108.211 Y116.74 E15.10932
G1 X108.049 Y115.891 E15.13806
G1 X107.994 Y115 E15.16776
G1 X108.049 Y114.109 E15.19745
G1 X108.211 Y113.26 E15.22619
G1 X108.484 Y112.422 E15.25551
G1 X108.859 Y111.623 E15.28486
G1 X109.332 Y110.877 E15.31424
G1 X109.881 Y110.214 E15.34287
G1 X110.534 Y109.602 E15.37264
G1 X111.255 Y109.077 E15.4023
G1 X111.994 Y108.67 E15.43036
G1 X112.833 Y108.337 E15.46039
G1 X113.688 Y108.117 E15.48975
G1 X114.542 Y108.008 E15.51839
G1 X115.431 Y108.005 E15.54795
G1 X116.291 Y108.112 E15.57678
G1 X117.163 Y108.334 E15.60671
G1 X117.974 Y108.653 E15.63569
G1 X118.733 Y109.07 E15.6645
G1 X119.462 Y109.6 E15.69447
G1 X120.119 Y110.214 E15.72438
G1 X120.668 Y110.877 E15.75301
G1 X121.141 Y111.623 E15.78239
G1 X121.516 Y112.422 E15.81175
G1 X121.789 Y113.26 E15.84106
G1 X121.951 Y114.109 E15.86981
G1 X122.006 Y115 E15.8995
G1 X121.951 Y115.891 E15.92919
G1 X121.789 Y116.74 E15.95794
G1 X121.516 Y117.578 E15.98725
G1 X121.141 Y118.377 E16.01661
G1 X120.668 Y119.123 E16.04599
G1 X120.119 Y119.786 E16.07462
G1 X119.466 Y120.398 E16.10438
G1 X118.747 Y120.922 E16.13398
G1 X118.006 Y121.33 E16.16211
G1 X117.167 Y121.663 E16.19213
G1 X116.312 Y121.883 E16.2215
G1 X115.458 Y121.992 E16.25013
G1 X114.569 Y121.995 E16.2797
G1 F2700 E11.2797
G1 F300 Z0.4
G0 F6000 X109.705 Y119.322 Z0.4
G1 F300 Z0.2
G1 F2700 E16.2797
G1 F1200 X110.709 Y120.326 E16.32692
G1 F2700 E11.32692
G1 F300 Z0.4
G0 F6000 X112.187 Y121.238 Z0.4
G1 F300 Z0.2
G1 F2700 E16.32692
G1 F1200 X108.779 Y117.83 E16.48723
G0 F6000 X108.439 Y116.924
G1 F1200 X113.074 Y121.56 E16.70527
G0 F6000 X113.82 Y121.739
G1 F1200 X108.267 Y116.187 E16.96644
G0 F6000 X108.188 Y115.541
G1 F1200 X114.465 Y121.819 E17.26171
G0 F6000 X115.044 Y121.832
G1 F1200 X108.157 Y114.945 E17.58566
